/* XPM */
static char * collectible_xpm[] = {
"64 64 2317 2",
"  	c #99796A",
". 	c #8E6D5A",
"+ 	c #8C6955",
"@ 	c #A78772",
"# 	c #92725D",
"$ 	c #91715C",
"% 	c #957560",
"& 	c #937460",
"* 	c #A98A78",
"= 	c #977762",
"- 	c #A2877E",
"; 	c #948484",
"> 	c #9B9096",
", 	c #A2979D",
"' 	c #977F73",
") 	c #967B72",
"! 	c #90756A",
"~ 	c #9B8075",
"{ 	c #AF9892",
"] 	c #9C9090",
"^ 	c #9A8B8E",
"/ 	c #9C8C8D",
"( 	c #896E5D",
"_ 	c #957664",
": 	c #937364",
"< 	c #988074",
"[ 	c #937B6F",
"} 	c #967B68",
"| 	c #8C705B",
"1 	c #9D8173",
"2 	c #997D71",
"3 	c #957C75",
"4 	c #957D73",
"5 	c #96827B",
"6 	c #95827E",
"7 	c #99857E",
"8 	c #927D78",
"9 	c #947F7C",
"0 	c #9A8486",
"a 	c #816154",
"b 	c #967969",
"c 	c #A08478",
"d 	c #91796D",
"e 	c #A1897F",
"f 	c #95796D",
"g 	c #987C6E",
"h 	c #937769",
"i 	c #977C73",
"j 	c #9A8685",
"k 	c #94858A",
"l 	c #947C7A",
"m 	c #9E8580",
"n 	c #A68B84",
"o 	c #9A7F74",
"p 	c #896E63",
"q 	c #9B827D",
"r 	c #A28E8D",
"s 	c #968283",
"t 	c #9F8785",
"u 	c #9C878C",
"v 	c #A69699",
"w 	c #927A76",
"x 	c #9D8176",
"y 	c #A68A7E",
"z 	c #987764",
"A 	c #967562",
"B 	c #92725B",
"C 	c #A38472",
"D 	c #9F8169",
"E 	c #957662",
"F 	c #8F705C",
"G 	c #8D6A54",
"H 	c #97888B",
"I 	c #918589",
"J 	c #8F7E77",
"K 	c #998079",
"L 	c #9D8279",
"M 	c #987E71",
"N 	c #95796B",
"O 	c #9C8176",
"P 	c #998680",
"Q 	c #988888",
"R 	c #9D8D8E",
"S 	c #A89A99",
"T 	c #9A7B69",
"U 	c #866755",
"V 	c #907669",
"W 	c #9E887D",
"X 	c #A3887F",
"Y 	c #A18472",
"Z 	c #9A7D6D",
"` 	c #987C70",
" .	c #A18C87",
"..	c #9C857D",
"+.	c #A2877C",
"@.	c #85695B",
"#.	c #9C7F77",
"$.	c #917C79",
"%.	c #9F8A87",
"&.	c #A2867A",
"*.	c #977A6C",
"=.	c #9A7C71",
"-.	c #8B7065",
";.	c #AC958F",
">.	c #B1998F",
",.	c #977866",
"'.	c #8E6E5F",
").	c #927567",
"!.	c #97796E",
"~.	c #8F8387",
"{.	c #A0939D",
"].	c #86716E",
"^.	c #9A8783",
"/.	c #9E8F96",
"(.	c #A09198",
"_.	c #917569",
":.	c #9B7D72",
"<.	c #927162",
"[.	c #8B6B60",
"}.	c #907874",
"|.	c #958180",
"1.	c #998483",
"2.	c #8E7161",
"3.	c #977D6E",
"4.	c #9D7E6A",
"5.	c #9D806E",
"6.	c #A68977",
"7.	c #906F5C",
"8.	c #A18270",
"9.	c #93735E",
"0.	c #876750",
"a.	c #9B7A67",
"b.	c #987B6B",
"c.	c #96878A",
"d.	c #9E9198",
"e.	c #9C8E8E",
"f.	c #967E74",
"g.	c #A38D82",
"h.	c #998175",
"i.	c #8F7463",
"j.	c #9B8174",
"k.	c #A1867B",
"l.	c #948077",
"m.	c #9E8C8A",
"n.	c #A29390",
"o.	c #A3857A",
"p.	c #957868",
"q.	c #967A6E",
"r.	c #FFFFFF",
"s.	c #E7E7E7",
"t.	c #9A7D6B",
"u.	c #A08371",
"v.	c #9C7F6D",
"w.	c #8E7362",
"x.	c #A48980",
"y.	c #95796E",
"z.	c #A68E84",
"A.	c #A48F8C",
"B.	c #91766D",
"C.	c #AC9186",
"D.	c #A4887D",
"E.	c #8F746B",
"F.	c #A28B85",
"G.	c #977A6A",
"H.	c #9F8479",
"I.	c #907267",
"J.	c #9D8180",
"K.	c #918289",
"L.	c #9E919A",
"M.	c #9C8C8F",
"N.	c #A79CA2",
"O.	c #90868E",
"P.	c #8F848C",
"Q.	c #886C60",
"R.	c #8F6E5D",
"S.	c #8D6C59",
"T.	c #A08277",
"U.	c #8F7672",
"V.	c #927D7C",
"W.	c #A38D8F",
"X.	c #A48777",
"Y.	c #9D7C69",
"Z.	c #9E7D6A",
"`.	c #997A65",
" +	c #93745F",
".+	c #AA8B77",
"++	c #9A7966",
"@+	c #85654E",
"#+	c #8C6B5A",
"$+	c #9D8070",
"%+	c #998A8D",
"&+	c #A09196",
"*+	c #917D7C",
"=+	c #A58E88",
"-+	c #A9A0A5",
";+	c #997F70",
">+	c #A1877A",
",+	c #AB9486",
"'+	c #A0A0A0",
")+	c #BBBBBB",
"!+	c #CACACA",
"~+	c #CBCBCB",
"{+	c #C8C8C8",
"]+	c #CCCCCC",
"^+	c #F2F2F2",
"/+	c #EEEEEE",
"(+	c #A8A8A8",
"_+	c #937462",
":+	c #A58876",
"<+	c #A08373",
"[+	c #957A6F",
"}+	c #AA918A",
"|+	c #967B70",
"1+	c #A58A83",
"2+	c #A2908E",
"3+	c #AB9796",
"4+	c #A48982",
"5+	c #A28780",
"6+	c #A18581",
"7+	c #A4908F",
"8+	c #AA9592",
"9+	c #9F8882",
"0+	c #A18F8B",
"a+	c #9E8B85",
"b+	c #947F7A",
"c+	c #9F94A4",
"d+	c #A9A0B1",
"e+	c #998890",
"f+	c #948485",
"g+	c #9D939B",
"h+	c #938991",
"i+	c #A297A5",
"j+	c #A39595",
"k+	c #906F5E",
"l+	c #937261",
"m+	c #997D72",
"n+	c #9F939D",
"o+	c #A89EA7",
"p+	c #A7989D",
"q+	c #A48571",
"r+	c #9F836E",
"s+	c #947863",
"t+	c #94745D",
"u+	c #9E7F6D",
"v+	c #8B6C58",
"w+	c #987B6D",
"x+	c #9C8889",
"y+	c #A79798",
"z+	c #AE9E9F",
"A+	c #9B8A83",
"B+	c #9A8780",
"C+	c #A7938C",
"D+	c #9E9E9E",
"E+	c #D6D6D6",
"F+	c #EFEFEF",
"G+	c #FBFBFB",
"H+	c #FAFAFA",
"I+	c #EAEAEA",
"J+	c #DBDBDB",
"K+	c #DCDCDC",
"L+	c #BABABA",
"M+	c #AEAEAE",
"N+	c #987965",
"O+	c #9F806E",
"P+	c #836452",
"Q+	c #9B7F73",
"R+	c #A68D86",
"S+	c #8F7368",
"T+	c #95776C",
"U+	c #927A70",
"V+	c #A08A7F",
"W+	c #A28982",
"X+	c #AF948B",
"Y+	c #8C7265",
"Z+	c #987D72",
"`+	c #9A8073",
" @	c #8C7468",
".@	c #9A837D",
"+@	c #9C8782",
"@@	c #9C929D",
"#@	c #988E99",
"$@	c #948389",
"%@	c #948282",
"&@	c #9E8E8F",
"*@	c #8E8286",
"=@	c #998989",
"-@	c #826553",
";@	c #9E8173",
">@	c #8C6F67",
",@	c #908186",
"'@	c #938791",
")@	c #9E8E91",
"!@	c #AE8F7B",
"~@	c #8F6F5A",
"{@	c #AD9082",
"]@	c #977A68",
"^@	c #AD9688",
"/@	c #A78C79",
"(@	c #94715B",
"_@	c #977663",
":@	c #95786A",
"<@	c #A38B7F",
"[@	c #92817A",
"}@	c #A49592",
"|@	c #968075",
"1@	c #F3F3F3",
"2@	c #DFDFDF",
"3@	c #909090",
"4@	c #D5D5D5",
"5@	c #FDFDFD",
"6@	c #ECECEC",
"7@	c #A7A7A7",
"8@	c #C7C7C7",
"9@	c #9F8270",
"0@	c #A48775",
"a@	c #A28C7F",
"b@	c #AA9590",
"c@	c #9F867F",
"d@	c #957866",
"e@	c #9F8578",
"f@	c #9E8378",
"g@	c #907361",
"h@	c #A3887D",
"i@	c #A6918C",
"j@	c #9C8478",
"k@	c #978176",
"l@	c #8E756E",
"m@	c #9B847E",
"n@	c #988B94",
"o@	c #A19299",
"p@	c #9A8688",
"q@	c #A49292",
"r@	c #918383",
"s@	c #9E8F94",
"t@	c #94766B",
"u@	c #8F7167",
"v@	c #907772",
"w@	c #8C7D82",
"x@	c #A197A2",
"y@	c #9A8A8B",
"z@	c #90715D",
"A@	c #A1826E",
"B@	c #9D7E6C",
"C@	c #AF9691",
"D@	c #926F59",
"E@	c #A07F6E",
"F@	c #A4897E",
"G@	c #9A817A",
"H@	c #A38B81",
"I@	c #A8938E",
"J@	c #9F8C85",
"K@	c #A28A80",
"L@	c #FCFCFC",
"M@	c #F6F6F6",
"N@	c #E6E6E6",
"O@	c #DDDDDD",
"P@	c #CDCDCD",
"Q@	c #D9D9D9",
"R@	c #FEFEFE",
"S@	c #F8F8F8",
"T@	c #D2D2D2",
"U@	c #E2E2E2",
"V@	c #A58A75",
"W@	c #8F705E",
"X@	c #A18F8D",
"Y@	c #987C71",
"Z@	c #9E8984",
"`@	c #93776B",
" #	c #917462",
".#	c #A28678",
"+#	c #9F8D83",
"@#	c #94796E",
"##	c #91796F",
"$#	c #9E867C",
"%#	c #997E75",
"&#	c #886F6A",
"*#	c #968281",
"=#	c #917D7E",
"-#	c #978281",
";#	c #9C8480",
">#	c #98847D",
",#	c #857166",
"'#	c #A08D87",
")#	c #806355",
"!#	c #957870",
"~#	c #978486",
"{#	c #90838A",
"]#	c #91848D",
"^#	c #98878D",
"/#	c #A68773",
"(#	c #8E6F5D",
"_#	c #A18474",
":#	c #9B7C68",
"<#	c #91715A",
"[#	c #A4846D",
"}#	c #9E7B65",
"|#	c #947259",
"1#	c #9B7F74",
"2#	c #9E877F",
"3#	c #A18881",
"4#	c #A38C86",
"5#	c #A28E87",
"6#	c #F4F4F4",
"7#	c #CECECE",
"8#	c #B1B1B1",
"9#	c #A08476",
"0#	c #8F7365",
"a#	c #96796B",
"b#	c #AD9281",
"c#	c #9A7E70",
"d#	c #9F8D89",
"e#	c #ABA3AE",
"f#	c #A49CA9",
"g#	c #9C887F",
"h#	c #9D8175",
"i#	c #9E9294",
"j#	c #A1989B",
"k#	c #A28D88",
"l#	c #9E816F",
"m#	c #A98C7C",
"n#	c #A88D82",
"o#	c #A58A81",
"p#	c #A68F87",
"q#	c #9D8277",
"r#	c #A48E90",
"s#	c #9F8B8C",
"t#	c #9D8887",
"u#	c #A18985",
"v#	c #8B7874",
"w#	c #A39491",
"x#	c #8A6C61",
"y#	c #9D817E",
"z#	c #9F8F92",
"A#	c #928388",
"B#	c #8B7C81",
"C#	c #9B8C8F",
"D#	c #947767",
"E#	c #9D8271",
"F#	c #A28671",
"G#	c #8C6A51",
"H#	c #916F56",
"I#	c #8F6D54",
"J#	c #967763",
"K#	c #A99491",
"L#	c #88746D",
"M#	c #9D8A83",
"N#	c #A7928D",
"O#	c #9C867B",
"P#	c #997E73",
"Q#	c #7F7F7F",
"R#	c #E0E0E0",
"S#	c #A3877B",
"T#	c #9C8075",
"U#	c #A98D81",
"V#	c #9E8E8E",
"W#	c #9B7F71",
"X#	c #938585",
"Y#	c #9D8F8F",
"Z#	c #8A6E62",
"`#	c #A58878",
" $	c #997D6F",
".$	c #9F8377",
"+$	c #A58B7E",
"@$	c #8A6E60",
"#$	c #9F847B",
"$$	c #99817F",
"%$	c #9C8881",
"&$	c #8A7268",
"*$	c #957E78",
"=$	c #9B8E95",
"-$	c #A79CA4",
";$	c #908083",
">$	c #9D8C92",
",$	c #A6959B",
"'$	c #987F78",
")$	c #A89183",
"!$	c #906D59",
"~$	c #A58A77",
"{$	c #9E7E69",
"]$	c #9A7A65",
"^$	c #90705B",
"/$	c #997B70",
"($	c #A58C85",
"_$	c #988277",
":$	c #A49290",
"<$	c #A39092",
"[$	c #8A6B56",
"}$	c #C1C1C1",
"|$	c #B8B8B8",
"1$	c #E8E8E8",
"2$	c #A08679",
"3$	c #A48A7B",
"4$	c #94786C",
"5$	c #937668",
"6$	c #977F75",
"7$	c #AB9693",
"8$	c #987B69",
"9$	c #907363",
"0$	c #A49696",
"a$	c #9F9397",
"b$	c #A98E85",
"c$	c #9D816C",
"d$	c #9B7C6A",
"e$	c #9F8375",
"f$	c #AE9692",
"g$	c #8C746A",
"h$	c #9E8986",
"i$	c #9B8079",
"j$	c #9D8D8D",
"k$	c #AA9BA0",
"l$	c #AD9DA0",
"m$	c #886C61",
"n$	c #998584",
"o$	c #978488",
"p$	c #95898D",
"q$	c #A89EA6",
"r$	c #ABA0A8",
"s$	c #A0887C",
"t$	c #A48F8A",
"u$	c #9E8372",
"v$	c #A18570",
"w$	c #AE968A",
"x$	c #997A68",
"y$	c #977C71",
"z$	c #A18C8B",
"A$	c #A89694",
"B$	c #8E7467",
"C$	c #988076",
"D$	c #A29396",
"E$	c #A3918F",
"F$	c #E3E3E3",
"G$	c #F9F9F9",
"H$	c #DADADA",
"I$	c #C9C9C9",
"J$	c #C2C2C2",
"K$	c #ADADAD",
"L$	c #D7D7D7",
"M$	c #9E8274",
"N$	c #927766",
"O$	c #9E8171",
"P$	c #876B5D",
"Q$	c #9E867A",
"R$	c #9A8477",
"S$	c #977B6D",
"T$	c #967F79",
"U$	c #A09494",
"V$	c #947A69",
"W$	c #8F7260",
"X$	c #A38678",
"Y$	c #9C7F6F",
"Z$	c #927668",
"`$	c #A78B80",
" %	c #8F766F",
".%	c #9E8781",
"+%	c #927972",
"@%	c #9A7D75",
"#%	c #9F8C86",
"$%	c #9D8B89",
"%%	c #A19393",
"&%	c #A898A2",
"*%	c #ABA1AA",
"=%	c #93868D",
"-%	c #A696A0",
";%	c #A398A0",
">%	c #ABA1A9",
",%	c #9F9191",
"'%	c #AC9995",
")%	c #9A7F6E",
"!%	c #9A7B67",
"~%	c #997F72",
"{%	c #988275",
"]%	c #927C6F",
"^%	c #9E8477",
"/%	c #A68F89",
"(%	c #A4938C",
"_%	c #948280",
":%	c #AC9E9E",
"<%	c #EBEBEB",
"[%	c #E1E1E1",
"}%	c #B6B6B6",
"|%	c #E4E4E4",
"1%	c #AF9483",
"2%	c #A28575",
"3%	c #AF9282",
"4%	c #AA8F86",
"5%	c #9F8B82",
"6%	c #A38B87",
"7%	c #A48D85",
"8%	c #9B7E6E",
"9%	c #947563",
"0%	c #917466",
"a%	c #987A6F",
"b%	c #9C8784",
"c%	c #AA9697",
"d%	c #9F8A85",
"e%	c #A58C87",
"f%	c #B2A0A0",
"g%	c #AB989A",
"h%	c #947B76",
"i%	c #A699A0",
"j%	c #978989",
"k%	c #A39594",
"l%	c #A09498",
"m%	c #998785",
"n%	c #A0887E",
"o%	c #987863",
"p%	c #90715C",
"q%	c #AEA0A0",
"r%	c #9B7F6A",
"s%	c #C6C6C6",
"t%	c #C3C3C3",
"u%	c #CFCFCF",
"v%	c #A1A1A1",
"w%	c #E5E5E5",
"x%	c #919191",
"y%	c #AE917F",
"z%	c #AC8F7D",
"A%	c #8A6F5E",
"B%	c #A9928A",
"C%	c #AC988F",
"D%	c #8E6F5B",
"E%	c #A58672",
"F%	c #9C7D68",
"G%	c #94745F",
"H%	c #92735F",
"I%	c #947560",
"J%	c #917260",
"K%	c #9C8074",
"L%	c #A0857C",
"M%	c #937E7B",
"N%	c #A4989C",
"O%	c #947C78",
"P%	c #B59D99",
"Q%	c #9D8883",
"R%	c #9B8786",
"S%	c #9C8985",
"T%	c #9B7E70",
"U%	c #A4918D",
"V%	c #A38F8E",
"W%	c #977F7B",
"X%	c #947874",
"Y%	c #A49089",
"Z%	c #9F877B",
"`%	c #987861",
" &	c #A0806B",
".&	c #9A8278",
"+&	c #A69B9F",
"@&	c #9A7D6F",
"#&	c #A3908A",
"$&	c #9B8989",
"%&	c #AB9B9B",
"&&	c #E9E9E9",
"*&	c #B5B5B5",
"=&	c #7C7C7C",
"-&	c #D3D3D3",
";&	c #F7F7F7",
">&	c #937867",
",&	c #A89285",
"'&	c #B1998D",
")&	c #A58D81",
"!&	c #947C70",
"~&	c #A3897C",
"{&	c #A78B7F",
"]&	c #9B7E6C",
"^&	c #A3846F",
"/&	c #86664F",
"(&	c #A4887A",
"_&	c #B19F9D",
":&	c #AE9C98",
"<&	c #9F847D",
"[&	c #988B92",
"}&	c #AFA4AC",
"|&	c #A38E8B",
"1&	c #9D8982",
"2&	c #A38E89",
"3&	c #AA968F",
"4&	c #A18579",
"5&	c #A89591",
"6&	c #A0857E",
"7&	c #9F827A",
"8&	c #AE9181",
"9&	c #AA8D7B",
"0&	c #A08574",
"a&	c #9A8071",
"b&	c #A79B9B",
"c&	c #9C8982",
"d&	c #BCBCBC",
"e&	c #B9B9B9",
"f&	c #D0D0D0",
"g&	c #ABABAB",
"h&	c #898989",
"i&	c #959595",
"j&	c #A58A79",
"k&	c #A38978",
"l&	c #9A8375",
"m&	c #9B8881",
"n&	c #A7908A",
"o&	c #A88D84",
"p&	c #A1867D",
"q&	c #876A58",
"r&	c #AD907E",
"s&	c #967C6D",
"t&	c #A9908C",
"u&	c #A89392",
"v&	c #907E7E",
"w&	c #968385",
"x&	c #98837E",
"y&	c #8E7267",
"z&	c #94776F",
"A&	c #A38881",
"B&	c #A99692",
"C&	c #9A7F76",
"D&	c #A3877C",
"E&	c #907059",
"F&	c #927259",
"G&	c #B39C94",
"H&	c #AD9589",
"I&	c #977D70",
"J&	c #A19086",
"K&	c #A79998",
"L&	c #9D867E",
"M&	c #A48C82",
"N&	c #A4A4A4",
"O&	c #8C8C8C",
"P&	c #C4C4C4",
"Q&	c #A58B7C",
"R&	c #A5948D",
"S&	c #B1A3A2",
"T&	c #A99185",
"U&	c #9D8579",
"V&	c #A78E87",
"W&	c #AA918C",
"X&	c #A98F82",
"Y&	c #A68B80",
"Z&	c #A99187",
"`&	c #977B6F",
" *	c #9B8379",
".*	c #AD9289",
"+*	c #AA8F88",
"@*	c #AA9793",
"#*	c #A08B86",
"$*	c #99827A",
"%*	c #A78D80",
"&*	c #9B7B64",
"**	c #9A7A63",
"=*	c #9A7B66",
"-*	c #AD948D",
";*	c #9F887A",
">*	c #A69085",
",*	c #967C6F",
"'*	c #9D847D",
")*	c #BFBFBF",
"!*	c #A88E7F",
"~*	c #B39A93",
"{*	c #9E8277",
"]*	c #A4887C",
"^*	c #92786B",
"/*	c #917464",
"(*	c #A99089",
"_*	c #A18A84",
":*	c #A38F90",
"<*	c #AE9388",
"[*	c #8C7064",
"}*	c #A68A7F",
"|*	c #A48C88",
"1*	c #AB9995",
"2*	c #9D827B",
"3*	c #A99999",
"4*	c #AC9A9A",
"5*	c #977864",
"6*	c #A18168",
"7*	c #9A7763",
"8*	c #A3897A",
"9*	c #987E6F",
"0*	c #A58D83",
"a*	c #B7B7B7",
"b*	c #A3A3A3",
"c*	c #F1F1F1",
"d*	c #AA9791",
"e*	c #AA938B",
"f*	c #A8958F",
"g*	c #A88C81",
"h*	c #AD958B",
"i*	c #9F8681",
"j*	c #A99797",
"k*	c #9C898B",
"l*	c #AB9894",
"m*	c #AD9690",
"n*	c #9F8274",
"o*	c #A58880",
"p*	c #A5897E",
"q*	c #8F7264",
"r*	c #B39891",
"s*	c #998272",
"t*	c #9C7D69",
"u*	c #A38470",
"v*	c #9B7960",
"w*	c #997F6E",
"x*	c #A08D86",
"y*	c #B1A5A5",
"z*	c #777777",
"A*	c #F0F0F0",
"B*	c #9D9D9D",
"C*	c #F5F5F5",
"D*	c #9C9C9C",
"E*	c #9C8072",
"F*	c #A28774",
"G*	c #AD9386",
"H*	c #9C847A",
"I*	c #A2887B",
"J*	c #AB9999",
"K*	c #9F8F8F",
"L*	c #9C857F",
"M*	c #A38D80",
"N*	c #9C7F71",
"O*	c #A78A7C",
"P*	c #917162",
"Q*	c #92766A",
"R*	c #9A7E72",
"S*	c #896C5E",
"T*	c #A4877F",
"U*	c #A98E83",
"V*	c #A69395",
"W*	c #A5897B",
"X*	c #A0816D",
"Y*	c #A1816C",
"Z*	c #A58674",
"`*	c #987C66",
" =	c #947D6F",
".=	c #B09C95",
"+=	c #ADA2A0",
"@=	c #636363",
"#=	c #9F9F9F",
"$=	c #C5C5C5",
"%=	c #AAAAAA",
"&=	c #939393",
"*=	c #A8948D",
"==	c #A48978",
"-=	c #AA8F84",
";=	c #9A837B",
">=	c #A1897D",
",=	c #8B6A57",
"'=	c #A28273",
")=	c #B19C97",
"!=	c #947561",
"~=	c #937666",
"{=	c #94786D",
"]=	c #A18172",
"^=	c #93725F",
"/=	c #967661",
"(=	c #AA8E82",
"_=	c #AD9185",
":=	c #93796C",
"<=	c #8C6F5F",
"[=	c #95837F",
"}=	c #A39CA3",
"|=	c #9B7B66",
"1=	c #9F806C",
"2=	c #A18577",
"3=	c #967F6F",
"4=	c #A49997",
"5=	c #A3928B",
"6=	c #A18E87",
"7=	c #6D6D6D",
"8=	c #8D8D8D",
"9=	c #9B9B9B",
"0=	c #949494",
"a=	c #BDBDBD",
"b=	c #A19690",
"c=	c #AC9B94",
"d=	c #8F7461",
"e=	c #ABA1AC",
"f=	c #ADA7B1",
"g=	c #886756",
"h=	c #A38779",
"i=	c #A78C81",
"j=	c #9D7D68",
"k=	c #9D7C6B",
"l=	c #A08B88",
"m=	c #A99CA3",
"n=	c #A18E92",
"o=	c #988A87",
"p=	c #A59393",
"q=	c #A9A2AA",
"r=	c #AB8E80",
"s=	c #AB8F7A",
"t=	c #A39393",
"u=	c #A5928C",
"v=	c #A49A9B",
"w=	c #AFA3A3",
"x=	c #98847B",
"y=	c #A99594",
"z=	c #989898",
"A=	c #8E8E8E",
"B=	c #8B8B8B",
"C=	c #A6A6A6",
"D=	c #B4B4B4",
"E=	c #9E887B",
"F=	c #9C816E",
"G=	c #A9958C",
"H=	c #917D74",
"I=	c #9F9596",
"J=	c #A0959D",
"K=	c #927263",
"L=	c #947765",
"M=	c #A98B80",
"N=	c #AD948F",
"O=	c #A88B7D",
"P=	c #AB8E7E",
"Q=	c #9C7C65",
"R=	c #A68979",
"S=	c #B0988E",
"T=	c #A39799",
"U=	c #B09B96",
"V=	c #AB9F9F",
"W=	c #AEA7AE",
"X=	c #9D826F",
"Y=	c #A48873",
"Z=	c #A68C7D",
"`=	c #8E786A",
" -	c #B1A29F",
".-	c #A19597",
"+-	c #AD9D9D",
"@-	c #9F8880",
"#-	c #A29292",
"$-	c #A6938F",
"%-	c #B0A5AB",
"&-	c #BEBEBE",
"*-	c #AB9184",
"=-	c #B09488",
"--	c #A1857A",
";-	c #947A6D",
">-	c #958379",
",-	c #A4999D",
"'-	c #A68A7C",
")-	c #997C6E",
"!-	c #A2857D",
"~-	c #AF9388",
"{-	c #A68775",
"]-	c #9F8473",
"^-	c #A08780",
"/-	c #9C837C",
"(-	c #8B746C",
"_-	c #AC9897",
":-	c #8E776F",
"<-	c #B1A2A5",
"[-	c #998274",
"}-	c #A78A7A",
"|-	c #A78B76",
"1-	c #AC9488",
"2-	c #9E8B84",
"3-	c #A79D9E",
"4-	c #B4ABB0",
"5-	c #8F796E",
"6-	c #A18E88",
"7-	c #A08F88",
"8-	c #A09496",
"9-	c #D8D8D8",
"0-	c #7A7A7A",
"a-	c #C0C0C0",
"b-	c #B89E91",
"c-	c #AB9182",
"d-	c #947966",
"e-	c #AD9287",
"f-	c #A58E86",
"g-	c #A69490",
"h-	c #886F68",
"i-	c #AC938C",
"j-	c #9D8376",
"k-	c #A58A7F",
"l-	c #A0857A",
"m-	c #AD9088",
"n-	c #A5897D",
"o-	c #A28573",
"p-	c #B09993",
"q-	c #98817B",
"r-	c #A6928B",
"s-	c #937366",
"t-	c #9B8F93",
"u-	c #9B8172",
"v-	c #9B8577",
"w-	c #A69696",
"x-	c #A69A9C",
"y-	c #9E908F",
"z-	c #9D857B",
"A-	c #A99B9B",
"B-	c #A8999C",
"C-	c #A9A9A9",
"D-	c #878787",
"E-	c #848484",
"F-	c #AF9B94",
"G-	c #ACA0A0",
"H-	c #92807C",
"I-	c #AF9489",
"J-	c #AB8D82",
"K-	c #AB9085",
"L-	c #B2978C",
"M-	c #AE938A",
"N-	c #9F8378",
"O-	c #A6938D",
"P-	c #B1A3A3",
"Q-	c #9A8580",
"R-	c #9F8B84",
"S-	c #B19C99",
"T-	c #8D7062",
"U-	c #887169",
"V-	c #A79B9D",
"W-	c #A7968C",
"X-	c #A38674",
"Y-	c #967B6A",
"Z-	c #AE9F9C",
"`-	c #A2938E",
" ;	c #B2A2A2",
".;	c #9A8E8E",
"+;	c #A1989D",
"@;	c #AEA4AC",
"#;	c #9C887D",
"$;	c #5B5B5B",
"%;	c #7E7E7E",
"&;	c #957B6C",
"*;	c #AF9385",
"=;	c #A8968A",
"-;	c #A19392",
";;	c #B1A5A9",
">;	c #AA9EA0",
",;	c #A38676",
"';	c #A48A7D",
");	c #8D7163",
"!;	c #94786A",
"~;	c #A48B84",
"{;	c #A2867B",
"];	c #A29493",
"^;	c #B0A19E",
"/;	c #987C67",
"(;	c #AA8F7E",
"_;	c #8B7160",
":;	c #ACA3A8",
"<;	c #B6ADB0",
"[;	c #957A69",
"};	c #8B6F5A",
"|;	c #9D8372",
"1;	c #9D8A7C",
"2;	c #9C8275",
"3;	c #B69F97",
"4;	c #434343",
"5;	c #888888",
"6;	c #A18B7E",
"7;	c #BAA89E",
"8;	c #AC958D",
"9;	c #98857E",
"0;	c #917873",
"a;	c #A49494",
"b;	c #896E59",
"c;	c #A48573",
"d;	c #987967",
"e;	c #896A58",
"f;	c #AC9084",
"g;	c #A88C80",
"h;	c #AB8F84",
"i;	c #8E7368",
"j;	c #A08479",
"k;	c #9E857E",
"l;	c #A89899",
"m;	c #8B6C57",
"n;	c #A79080",
"o;	c #968784",
"p;	c #AA9B9E",
"q;	c #B29B95",
"r;	c #8D715C",
"s;	c #9C836F",
"t;	c #9A806F",
"u;	c #907466",
"v;	c #AF978D",
"w;	c #9F8272",
"x;	c #967A64",
"y;	c #808080",
"z;	c #6F6F6F",
"A;	c #5C5C5C",
"B;	c #A5A5A5",
"C;	c #A48E81",
"D;	c #A19088",
"E;	c #8F7262",
"F;	c #AA9487",
"G;	c #AFA4AA",
"H;	c #A0816F",
"I;	c #AD9183",
"J;	c #A78B7D",
"K;	c #AF9588",
"L;	c #AE978F",
"M;	c #A9928C",
"N;	c #AEA6B1",
"O;	c #ACA1A7",
"P;	c #9C8786",
"Q;	c #ACA4B1",
"R;	c #A8A0AB",
"S;	c #9F877D",
"T;	c #A29899",
"U;	c #A28B7D",
"V;	c #997C6A",
"W;	c #9A7F6C",
"X;	c #AF9D99",
"Y;	c #A1928F",
"Z;	c #A39497",
"`;	c #B4ACB9",
" >	c #9F8576",
".>	c #A38C7C",
"+>	c #A18778",
"@>	c #957B6E",
"#>	c #836751",
"$>	c #937762",
"%>	c #969696",
"&>	c #5D5D5D",
"*>	c #9D877A",
"=>	c #AB9790",
"->	c #AD9A93",
";>	c #AB9387",
">>	c #9B8077",
",>	c #A88F88",
"'>	c #AB9389",
")>	c #9C8D8A",
"!>	c #A49598",
"~>	c #A9897C",
"{>	c #9C8577",
"]>	c #B49B94",
"^>	c #9A8884",
"/>	c #8F8586",
"(>	c #A79DA5",
"_>	c #957D79",
":>	c #9E9399",
"<>	c #A29BA3",
"[>	c #AD9B99",
"}>	c #93786D",
"|>	c #B0988C",
"1>	c #B19A92",
"2>	c #B09E9E",
"3>	c #A79593",
"4>	c #9B8B8B",
"5>	c #A1949B",
"6>	c #9C8A86",
"7>	c #8D7261",
"8>	c #AA9286",
"9>	c #B09991",
"0>	c #A18A7C",
"a>	c #AF9890",
"b>	c #B9A7A3",
"c>	c #917661",
"d>	c #5E5E5E",
"e>	c #B3A4A1",
"f>	c #B19E98",
"g>	c #B19F9F",
"h>	c #A38C84",
"i>	c #998682",
"j>	c #AC9C9F",
"k>	c #9E8276",
"l>	c #AA9FA7",
"m>	c #AD9799",
"n>	c #9D8680",
"o>	c #9D8B87",
"p>	c #A5989F",
"q>	c #ADA2A8",
"r>	c #A69FA7",
"s>	c #AFA7B2",
"t>	c #B5A29C",
"u>	c #AF988A",
"v>	c #A89086",
"w>	c #A2908C",
"x>	c #A59691",
"y>	c #A9968F",
"z>	c #947D77",
"A>	c #9A8B86",
"B>	c #B09E9A",
"C>	c #9C8273",
"D>	c #AF998C",
"E>	c #B19F95",
"F>	c #A89084",
"G>	c #8A8A8A",
"H>	c #EDEDED",
"I>	c #AD9B97",
"J>	c #907F77",
"K>	c #A39089",
"L>	c #AA9081",
"M>	c #AF9C96",
"N>	c #B4A6A5",
"O>	c #B6A6A9",
"P>	c #A08C81",
"Q>	c #9D8A84",
"R>	c #B49C98",
"S>	c #AC948A",
"T>	c #A28B83",
"U>	c #AE9284",
"V>	c #B5998B",
"W>	c #947360",
"X>	c #8C6F5D",
"Y>	c #B29D9A",
"Z>	c #B4A0A2",
"`>	c #8E736A",
" ,	c #ABA0A4",
".,	c #9F8F90",
"+,	c #B1AAB2",
"@,	c #A2979B",
"#,	c #ADA1A5",
"$,	c #AA9083",
"%,	c #917E70",
"&,	c #A39CA4",
"*,	c #A28C7E",
"=,	c #B0A1A4",
"-,	c #A99690",
";,	c #8E725C",
">,	c #A48A73",
",,	c #AD978A",
"',	c #A48E83",
"),	c #D4D4D4",
"!,	c #8F8F8F",
"~,	c #A99D9D",
"{,	c #B09D97",
"],	c #9A8276",
"^,	c #AB9997",
"/,	c #A68B78",
"(,	c #A69291",
"_,	c #B0A6A7",
":,	c #AF9793",
"<,	c #AD9384",
"[,	c #927361",
"},	c #917560",
"|,	c #967765",
"1,	c #A79392",
"2,	c #988173",
"3,	c #8C7263",
"4,	c #B29E95",
"5,	c #AD968E",
"6,	c #A08977",
"7,	c #A29896",
"8,	c #AEA2A2",
"9,	c #97837A",
"0,	c #988A8A",
"a,	c #9D9AA1",
"b,	c #AE988B",
"c,	c #AE9E9E",
"d,	c #A1856F",
"e,	c #9E826C",
"f,	c #AE9B94",
"g,	c #9B897F",
"h,	c #B99E93",
"i,	c #9E8779",
"j,	c #AD9992",
"k,	c #9F9393",
"l,	c #AC9E9D",
"m,	c #9B7C67",
"n,	c #977B66",
"o,	c #AD9E9B",
"p,	c #A38376",
"q,	c #856550",
"r,	c #A2826D",
"s,	c #AB9691",
"t,	c #AEA3A1",
"u,	c #957A67",
"v,	c #9B806F",
"w,	c #A7A1AB",
"x,	c #B0AEBB",
"y,	c #A98D7F",
"z,	c #AE9791",
"A,	c #9F836D",
"B,	c #997B63",
"C,	c #99806C",
"D,	c #B6A7A2",
"E,	c #A38C7E",
"F,	c #B9ABAA",
"G,	c #978174",
"H,	c #AFA19E",
"I,	c #957961",
"J,	c #AD8F77",
"K,	c #A1836B",
"L,	c #8A6A53",
"M,	c #B49D97",
"N,	c #B09381",
"O,	c #B3958B",
"P,	c #8E6E57",
"Q,	c #A4846F",
"R,	c #A08981",
"S,	c #AA9FA5",
"T,	c #AB9798",
"U,	c #84685A",
"V,	c #A69897",
"W,	c #90786C",
"X,	c #B59A8F",
"Y,	c #9F8B80",
"Z,	c #AC9C9C",
"`,	c #947D75",
" '	c #9E979E",
".'	c #A29CA8",
"+'	c #B7A69E",
"@'	c #9D8470",
"#'	c #AF978B",
"$'	c #9D836C",
"%'	c #B3947F",
"&'	c #B1957F",
"*'	c #A48870",
"='	c #ACACAC",
"-'	c #968072",
";'	c #AC9180",
">'	c #B19788",
",'	c #998177",
"''	c #A89489",
")'	c #997E6B",
"!'	c #9F8878",
"~'	c #B8A199",
"{'	c #A28269",
"]'	c #9C7965",
"^'	c #B1958A",
"/'	c #896D58",
"('	c #93755D",
"_'	c #A3836E",
":'	c #B79A8A",
"<'	c #B1968D",
"['	c #B6B1B8",
"}'	c #A29795",
"|'	c #A58F84",
"1'	c #B49E91",
"2'	c #9B806D",
"3'	c #9D8678",
"4'	c #A29CA0",
"5'	c #B7B2B9",
"6'	c #B2A4A1",
"7'	c #B4A19A",
"8'	c #AE9A93",
"9'	c #8F7155",
"0'	c #A0846E",
"a'	c #B0927A",
"b'	c #9C7E66",
"c'	c #A2A2A2",
"d'	c #A88C7E",
"e'	c #A88C77",
"f'	c #A28A7E",
"g'	c #A8958E",
"h'	c #B7ACAA",
"i'	c #B19484",
"j'	c #B0907B",
"k'	c #B09383",
"l'	c #AB8E7C",
"m'	c #937761",
"n'	c #9D7E69",
"o'	c #93735A",
"p'	c #A3836C",
"q'	c #9D8072",
"r'	c #A78F85",
"s'	c #A08C8B",
"t'	c #AEA3A7",
"u'	c #A79183",
"v'	c #A38772",
"w'	c #A98D78",
"x'	c #9E7F63",
"y'	c #967860",
"z'	c #9F8574",
"A'	c #A88F7B",
"B'	c #9B8474",
"C'	c #A99386",
"D'	c #AF9C8E",
"E'	c #A68A72",
"F'	c #B89A82",
"G'	c #9C7E64",
"H'	c #AB8F79",
"I'	c #B09685",
"J'	c #90745F",
"K'	c #A68A75",
"L'	c #997E6D",
"M'	c #ADA3A4",
"N'	c #8F7159",
"O'	c #B39885",
"P'	c #B19B90",
"Q'	c #AB8C78",
"R'	c #9E7F6B",
"S'	c #AC917E",
"T'	c #AFA09D",
"U'	c #A78F83",
"V'	c #A2826B",
"W'	c #917A72",
"X'	c #9E979F",
"Y'	c #A29494",
"Z'	c #A49898",
"`'	c #9C8A80",
" )	c #A48570",
".)	c #96765D",
"+)	c #B29889",
"@)	c #A99A95",
"#)	c #A89287",
"$)	c #A58973",
"%)	c #8B6C50",
"&)	c #9C7C63",
"*)	c #A4866C",
"=)	c #997962",
"-)	c #B19681",
";)	c #A68772",
">)	c #9C806A",
",)	c #B49583",
"')	c #92745C",
"))	c #947A6B",
"!)	c #BEABA7",
"~)	c #B09486",
"{)	c #A78873",
"])	c #AF8F7A",
"^)	c #876752",
"/)	c #A78874",
"()	c #937968",
"_)	c #948278",
":)	c #B19D9C",
"<)	c #A2836F",
"[)	c #A88D7C",
"})	c #947968",
"|)	c #AC999D",
"1)	c #A69EA9",
"2)	c #ABA5B1",
"3)	c #9D8E91",
"4)	c #937F74",
"5)	c #B9B3BD",
"6)	c #B7ADAE",
"7)	c #8B6F59",
"8)	c #A88A72",
"9)	c #A98B73",
"0)	c #A3836A",
"a)	c #9E8066",
"b)	c #A0826A",
"c)	c #987D68",
"d)	c #9C816C",
"e)	c #A28879",
"f)	c #94765E",
"g)	c #907258",
"h)	c #A88A70",
"i)	c #957661",
"j)	c #9A7F6A",
"k)	c #A98972",
"l)	c #B09580",
"m)	c #9B7D65",
"n)	c #9D7F67",
"o)	c #A88974",
"p)	c #A48872",
"q)	c #AC9587",
"r)	c #B4A2A0",
"s)	c #8B6950",
"t)	c #AD8E7A",
"u)	c #A58974",
"v)	c #A0816C",
"w)	c #A59693",
"x)	c #A78A78",
"y)	c #886E61",
"z)	c #907A6F",
"A)	c #A69898",
"B)	c #958176",
"C)	c #B9A7A5",
"D)	c #D2BFB9",
"E)	c #9B7C60",
"F)	c #B3957D",
"G)	c #8E6E55",
"H)	c #927660",
"I)	c #A28B7B",
"J)	c #B8A094",
"K)	c #92745A",
"L)	c #A98D77",
"M)	c #9A7E69",
"N)	c #B7A8A3",
"O)	c #BBACA9",
"P)	c #9D7F65",
"Q)	c #8F735E",
"R)	c #B89D88",
"S)	c #977D66",
"T)	c #A78C77",
"U)	c #9E8370",
"V)	c #AC9F99",
"W)	c #A08F85",
"X)	c #A7948D",
"Y)	c #B29784",
"Z)	c #AF947F",
"`)	c #BAA395",
" !	c #AB907F",
".!	c #AD9080",
"+!	c #AA8D7F",
"@!	c #8B6F63",
"#!	c #B39684",
"$!	c #8E735E",
"%!	c #A18673",
"&!	c #A08983",
"*!	c #785A42",
"=!	c #91776A",
"-!	c #A58E80",
";!	c #9C8170",
">!	c #B2947C",
",!	c #947559",
"'!	c #AA8B76",
")!	c #987D6A",
"!!	c #A79186",
"~!	c #9F836B",
"{!	c #B0947F",
"]!	c #8D6F55",
"^!	c #A78E7A",
"/!	c #A49183",
"(!	c #A49995",
"_!	c #AD9686",
":!	c #AC9A8C",
"<!	c #B1A098",
"[!	c #B39C8C",
"}!	c #90725A",
"|!	c #B29681",
"1!	c #987D6C",
"2!	c #B49C90",
"3!	c #8D6E5A",
"4!	c #9E7F6A",
"5!	c #A1826D",
"6!	c #8B6F57",
"7!	c #A68C7F",
"8!	c #A89692",
"9!	c #AC9A96",
"0!	c #D49256",
"a!	c #A38875",
"b!	c #9B877E",
"c!	c #9B8D8D",
"d!	c #9B9295",
"e!	c #AB9EA5",
"f!	c #BAAFAD",
"g!	c #A2836E",
"h!	c #9E8068",
"i!	c #B29C8F",
"j!	c #B5A08F",
"k!	c #967C65",
"l!	c #967B60",
"m!	c #A08773",
"n!	c #AD9B91",
"o!	c #A9978D",
"p!	c #A2866E",
"q!	c #80644C",
"r!	c #896B51",
"s!	c #A18A78",
"t!	c #BFADA9",
"u!	c #AB9892",
"v!	c #D1D1D1",
"w!	c #9D928E",
"x!	c #AEA5A8",
"y!	c #90765F",
"z!	c #B6A39D",
"A!	c #A08570",
"B!	c #896950",
"C!	c #96775B",
"D!	c #B4A19B",
"E!	c #B7A196",
"F!	c #B9A59C",
"G!	c #886851",
"H!	c #A88E81",
"I!	c #F1A569",
"J!	c #EAA063",
"K!	c #EFA662",
"L!	c #DB8F5D",
"M!	c #B29F98",
"N!	c #A09593",
"O!	c #A89C9E",
"P!	c #AE988D",
"Q!	c #B2A09C",
"R!	c #A8968C",
"S!	c #AD917C",
"T!	c #C2A792",
"U!	c #A38A76",
"V!	c #A18E7F",
"W!	c #AB957E",
"X!	c #AA9381",
"Y!	c #8A7562",
"Z!	c #A49180",
"`!	c #9F8670",
" ~	c #B49D8B",
".~	c #AF9680",
"+~	c #A89181",
"@~	c #8C7766",
"#~	c #B4A097",
"$~	c #AFAFAF",
"%~	c #8C7661",
"&~	c #A49A98",
"*~	c #B6B0B4",
"=~	c #917A6A",
"-~	c #A18A7A",
";~	c #8F7459",
">~	c #A08268",
",~	c #A2846C",
"'~	c #7D5F47",
")~	c #A38F88",
"!~	c #AC9891",
"~~	c #B19A8C",
"{~	c #896952",
"]~	c #A48976",
"^~	c #DF9357",
"/~	c #ECA869",
"(~	c #F3A45F",
"_~	c #EE9F66",
":~	c #C17B48",
"<~	c #B77344",
"[~	c #A99890",
"}~	c #A7948E",
"|~	c #8B7F7F",
"1~	c #9B8F91",
"2~	c #AA9790",
"3~	c #B8A49B",
"4~	c #AE9581",
"5~	c #9D8374",
"6~	c #A29086",
"7~	c #AB9E98",
"8~	c #A99F9D",
"9~	c #A59B92",
"0~	c #B8B1AB",
"a~	c #A28F88",
"b~	c #AA9992",
"c~	c #B09D96",
"d~	c #9B826C",
"e~	c #AB9484",
"f~	c #A7917C",
"g~	c #A48E80",
"h~	c #A49087",
"i~	c #AFA29C",
"j~	c #A38E7D",
"k~	c #BEAFA8",
"l~	c #B5A196",
"m~	c #826859",
"n~	c #A79895",
"o~	c #AEA09D",
"p~	c #957B6A",
"q~	c #9E7B67",
"r~	c #BAA9A2",
"s~	c #CA844A",
"t~	c #E79C59",
"u~	c #F8AE67",
"v~	c #DD9752",
"w~	c #C37A4D",
"x~	c #B0653B",
"y~	c #B0673A",
"z~	c #9D8F8E",
"A~	c #AA9FA3",
"B~	c #AB9C9F",
"C~	c #9B8377",
"D~	c #BBA9A5",
"E~	c #9D8A7B",
"F~	c #AC988D",
"G~	c #AE9382",
"H~	c #AA9486",
"I~	c #A28F81",
"J~	c #B3ADB1",
"K~	c #937E6B",
"L~	c #A69385",
"M~	c #9B887A",
"N~	c #AE9B95",
"O~	c #BAABA4",
"P~	c #997D67",
"Q~	c #A38873",
"R~	c #A89587",
"S~	c #B2A39C",
"T~	c #BCABA3",
"U~	c #B29B8B",
"V~	c #8F755E",
"W~	c #AD9789",
"X~	c #B8A597",
"Y~	c #AA9385",
"Z~	c #A48A79",
"`~	c #A78D7E",
" {	c #957D71",
".{	c #A59999",
"+{	c #BAB0B8",
"@{	c #97837C",
"#{	c #B0A19C",
"${	c #A48974",
"%{	c #9E7E67",
"&{	c #CB8959",
"*{	c #EB9B5E",
"={	c #F8AE6D",
"-{	c #E59558",
";{	c #C57C49",
">{	c #B1683D",
",{	c #9C603B",
"'{	c #B69F99",
"){	c #9B8170",
"!{	c #A99385",
"~{	c #AE9A91",
"{{	c #846E59",
"]{	c #9C8678",
"^{	c #A18B7D",
"/{	c #AC9281",
"({	c #8B725E",
"_{	c #A18A82",
":{	c #8E8586",
"<{	c #9C9290",
"[{	c #ABA2A3",
"}{	c #816756",
"|{	c #A9907C",
"1{	c #987C64",
"2{	c #9C8267",
"3{	c #87694D",
"4{	c #9F8C7B",
"5{	c #907D6C",
"6{	c #B09A8C",
"7{	c #B2A89F",
"8{	c #8A7466",
"9{	c #A79485",
"0{	c #CCBFB7",
"a{	c #A18776",
"b{	c #B59D91",
"c{	c #A99FA0",
"d{	c #B3A8AE",
"e{	c #A19295",
"f{	c #A08E84",
"g{	c #997660",
"h{	c #DDDDDF",
"i{	c #F5F2F9",
"j{	c #F4BA8A",
"k{	c #DF945A",
"l{	c #CA8248",
"m{	c #B66F43",
"n{	c #A1603A",
"o{	c #A5928E",
"p{	c #B09687",
"q{	c #B19D92",
"r{	c #A5948A",
"s{	c #B09F97",
"t{	c #B5A29B",
"u{	c #A08572",
"v{	c #A88E7D",
"w{	c #BEB9C0",
"x{	c #7E6E61",
"y{	c #988576",
"z{	c #A89B92",
"A{	c #AFA5A3",
"B{	c #AFA09B",
"C{	c #9C8671",
"D{	c #A08979",
"E{	c #B7AFAD",
"F{	c #B2A191",
"G{	c #B1A099",
"H{	c #B39D92",
"I{	c #C4BAB9",
"J{	c #9F8A79",
"K{	c #B7A090",
"L{	c #B3998A",
"M{	c #AE9485",
"N{	c #AA968B",
"O{	c #8F847E",
"P{	c #9E9493",
"Q{	c #B3978B",
"R{	c #D4D4D6",
"S{	c #F4F3F8",
"T{	c #F7F6FC",
"U{	c #E1DDDC",
"V{	c #C5B7AC",
"W{	c #B06643",
"X{	c #9E5B31",
"Y{	c #9E887A",
"Z{	c #AEA09F",
"`{	c #B7B0B8",
" ]	c #A48475",
".]	c #A78C7B",
"+]	c #B09A8F",
"@]	c #A99793",
"#]	c #B5A69F",
"$]	c #9B816A",
"%]	c #8F7E76",
"&]	c #B1A39A",
"*]	c #988775",
"=]	c #A98F7E",
"-]	c #A98F80",
";]	c #998473",
">]	c #9C897A",
",]	c #A68F7F",
"']	c #A58E7C",
")]	c #AE988A",
"!]	c #A99284",
"~]	c #A69486",
"{]	c #9C836D",
"]]	c #91755F",
"^]	c #9B826E",
"/]	c #A58E7E",
"(]	c #977C67",
"_]	c #BCA699",
":]	c #9A816B",
"<]	c #B29680",
"[]	c #816148",
"}]	c #967A65",
"|]	c #B29F99",
"1]	c #E1E0E6",
"2]	c #DEDDE3",
"3]	c #DCDADF",
"4]	c #CCC7CD",
"5]	c #B5AEB6",
"6]	c #B7AEB1",
"7]	c #A28772",
"8]	c #AB978C",
"9]	c #9E8D85",
"0]	c #93807A",
"a]	c #A9999A",
"b]	c #997C6C",
"c]	c #B79A88",
"d]	c #9A8781",
"e]	c #AB9D94",
"f]	c #BDAAA4",
"g]	c #967E72",
"h]	c #AB9587",
"i]	c #ACA3A6",
"j]	c #B6B1B7",
"k]	c #A18C79",
"l]	c #9A8C83",
"m]	c #A99F9E",
"n]	c #ACA19F",
"o]	c #907761",
"p]	c #917A68",
"q]	c #AA9789",
"r]	c #9C8573",
"s]	c #AB9685",
"t]	c #A0846C",
"u]	c #BBA6A1",
"v]	c #B29B8D",
"w]	c #B59B8C",
"x]	c #9B806B",
"y]	c #A28975",
"z]	c #BDA392",
"A]	c #B49E89",
"B]	c #B49D95",
"C]	c #AC9A90",
"D]	c #DCDBE0",
"E]	c #E2E1E7",
"F]	c #D1CED5",
"G]	c #C0BDC4",
"H]	c #AEABB2",
"I]	c #A8A3AA",
"J]	c #A98C7A",
"K]	c #A18675",
"L]	c #927762",
"M]	c #B8AAAA",
"N]	c #997A66",
"O]	c #A48C80",
"P]	c #A89189",
"Q]	c #A69B99",
"R]	c #948173",
"S]	c #9F846F",
"T]	c #B89D8C",
"U]	c #957A5F",
"V]	c #9D8676",
"W]	c #B0A19A",
"X]	c #987A5E",
"Y]	c #8A6C50",
"Z]	c #A28877",
"`]	c #A79591",
" ^	c #927B69",
".^	c #8F7662",
"+^	c #927861",
"@^	c #AE957F",
"#^	c #A1856D",
"$^	c #947862",
"%^	c #A78D76",
"&^	c #B59A89",
"*^	c #B99D8F",
"=^	c #AD927F",
"-^	c #AF9984",
";^	c #B59C88",
">^	c #937A66",
",^	c #AC998B",
"'^	c #DEDEE1",
")^	c #DFDEE4",
"!^	c #D3D2D8",
"~^	c #BFBEC4",
"{^	c #A9A6AD",
"]^	c #99969D",
"^^	c #C3C0C7",
"/^	c #96765F",
"(^	c #A88B79",
"_^	c #B29A8E",
":^	c #B69F91",
"<^	c #866753",
"[^	c #9B7D63",
"}^	c #9C8068",
"|^	c #AEA59E",
"1^	c #B7A49D",
"2^	c #84664C",
"3^	c #A3876F",
"4^	c #A38771",
"5^	c #A1938A",
"6^	c #A79D9C",
"7^	c #A9978B",
"8^	c #9A8371",
"9^	c #A89382",
"0^	c #80624A",
"a^	c #AC9279",
"b^	c #A88D7A",
"c^	c #B29985",
"d^	c #907154",
"e^	c #BCA38F",
"f^	c #A7907E",
"g^	c #B29D8A",
"h^	c #AA917D",
"i^	c #81634B",
"j^	c #DDDCE1",
"k^	c #D5D4DA",
"l^	c #C0BFC5",
"m^	c #ADAAB1",
"n^	c #9B989F",
"o^	c #D2D1D4",
"p^	c #B0A0A0",
"q^	c #9A7C64",
"r^	c #B0A29F",
"s^	c #9B847C",
"t^	c #A59391",
"u^	c #BAA8A8",
"v^	c #A5928B",
"w^	c #AF9FA2",
"x^	c #8C705A",
"y^	c #AA8D7D",
"z^	c #A89994",
"A^	c #AC927B",
"B^	c #8F7660",
"C^	c #9D856D",
"D^	c #BBAAA0",
"E^	c #9E826D",
"F^	c #AB907B",
"G^	c #AE927C",
"H^	c #987F6B",
"I^	c #BEB1AB",
"J^	c #907562",
"K^	c #AD9887",
"L^	c #A6917E",
"M^	c #97795F",
"N^	c #886D52",
"O^	c #B89E87",
"P^	c #AC9277",
"Q^	c #B19683",
"R^	c #B29983",
"S^	c #AB9683",
"T^	c #D4D3D9",
"U^	c #BBB8BF",
"V^	c #ACA9B0",
"W^	c #9A979E",
"X^	c #BFBBC2",
"Y^	c #8F705B",
"Z^	c #A68F81",
"`^	c #B49A8B",
" /	c #A4918A",
"./	c #8B705D",
"+/	c #B0A5A9",
"@/	c #B0958A",
"#/	c #8F7367",
"$/	c #94837B",
"%/	c #907667",
"&/	c #BAA798",
"*/	c #957C68",
"=/	c #90745C",
"-/	c #987E67",
";/	c #A69C9A",
">/	c #AF9C95",
",/	c #907560",
"'/	c #A99483",
")/	c #AC9585",
"!/	c #9F8972",
"~/	c #B8A28D",
"{/	c #DEDEDE",
"]/	c #977B63",
"^/	c #A78B73",
"//	c #B99F86",
"(/	c #93775F",
"_/	c #B59E8E",
":/	c #D4D1D8",
"</	c #BFBCC3",
"[/	c #9A959C",
"}/	c #BAB9C0",
"|/	c #B49785",
"1/	c #9C8271",
"2/	c #B59B8E",
"3/	c #AA9288",
"4/	c #B6A6A7",
"5/	c #8C7058",
"6/	c #93755B",
"7/	c #977961",
"8/	c #826C54",
"9/	c #9F948E",
"0/	c #AEA4A3",
"a/	c #A28670",
"b/	c #A98F78",
"c/	c #A19692",
"d/	c #A9A19F",
"e/	c #918070",
"f/	c #A28B79",
"g/	c #A8927D",
"h/	c #B9A491",
"i/	c #AE9785",
"j/	c #9A7E68",
"k/	c #DADADC",
"l/	c #E3E2E8",
"m/	c #DAD9DF",
"n/	c #C6C5CB",
"o/	c #AFADB2",
"p/	c #99949B",
"q/	c #A5A2AB",
"r/	c #BAAFAB",
"s/	c #B69F8F",
"t/	c #B99D92",
"u/	c #BCA08B",
"v/	c #A88C76",
"w/	c #7B5B42",
"x/	c #8D725F",
"y/	c #AD9186",
"z/	c #8E7264",
"A/	c #A29187",
"B/	c #967A6C",
"C/	c #8F735D",
"D/	c #8B6D53",
"E/	c #93785D",
"F/	c #AD9684",
"G/	c #A78971",
"H/	c #A3886D",
"I/	c #B59A91",
"J/	c #AB9A92",
"K/	c #BFA994",
"L/	c #947964",
"M/	c #AD937C",
"N/	c #9E8775",
"O/	c #AC917C",
"P/	c #DBDBDD",
"Q/	c #E2E2E4",
"R/	c #DBDADF",
"S/	c #C4C3C9",
"T/	c #B3B1B6",
"U/	c #9E9CA1",
"V/	c #A8A5AC",
"W/	c #957C66",
"X/	c #9C8A7E",
"Y/	c #917F71",
"Z/	c #B6A093",
"`/	c #B29782",
" (	c #79604A",
".(	c #9F8471",
"+(	c #B69B88",
"@(	c #A3856D",
"#(	c #75573D",
"$(	c #B49580",
"%(	c #B0A0A1",
"&(	c #B1978A",
"*(	c #AA9B96",
"=(	c #A28776",
"-(	c #AA9B98",
";(	c #A99280",
">(	c #63503F",
",(	c #8C6C53",
"'(	c #A5856C",
")(	c #9B7F69",
"!(	c #C0ACA1",
"~(	c #9C826B",
"{(	c #A48B77",
"](	c #B2A092",
"^(	c #F3F1F4",
"/(	c #ECF0EF",
"((	c #EFEFEE",
"_(	c #DAD9DE",
":(	c #C8C5CC",
"<(	c #B7B5BA",
"[(	c #A09DA4",
"}(	c #AEA9AD",
"|(	c #968279",
"1(	c #A38F86",
"2(	c #A08A7D",
"3(	c #C1AEA8",
"4(	c #B4A5A2",
"5(	c #9E8F8A",
"6(	c #A49286",
"7(	c #C2AC9F",
"8(	c #8E6F5A",
"9(	c #927055",
"0(	c #9E8475",
"a(	c #958178",
"b(	c #BBB1BC",
"c(	c #B4AFB6",
"d(	c #AAA0A8",
"e(	c #957461",
"f(	c #94765C",
"g(	c #97816A",
"h(	c #947F6C",
"i(	c #A39082",
"j(	c #A6907B",
"k(	c #9D8169",
"l(	c #95765A",
"m(	c #9F7F68",
"n(	c #937863",
"o(	c #B49E93",
"p(	c #8A6E58",
"q(	c #9E846D",
"r(	c #AD998E",
"s(	c #AB998F",
"t(	c #F7F5F6",
"u(	c #B79A92",
"v(	c #DAD6D7",
"w(	c #DBD9DE",
"x(	c #B2AFB6",
"y(	c #917663",
"z(	c #AD9C94",
"A(	c #B6A095",
"B(	c #AA968D",
"C(	c #9A867B",
"D(	c #B4A298",
"E(	c #A78E78",
"F(	c #A98A76",
"G(	c #997D68",
"H(	c #AC8F7F",
"I(	c #A4846B",
"J(	c #BB9C88",
"K(	c #B19D96",
"L(	c #AF998E",
"M(	c #A68E82",
"N(	c #A69790",
"O(	c #83634E",
"P(	c #8A694A",
"Q(	c #A79281",
"R(	c #A18C7B",
"S(	c #A08675",
"T(	c #8A6A51",
"U(	c #AF907C",
"V(	c #8E7058",
"W(	c #BBA598",
"X(	c #A39187",
"Y(	c #967669",
"Z(	c #B5A7A7",
"`(	c #B3AEB4",
" _	c #9C979D",
"._	c #B8A18F",
"+_	c #836D60",
"@_	c #9A867D",
"#_	c #BAA8A4",
"$_	c #9B8A82",
"%_	c #8D7769",
"&_	c #9C8774",
"*_	c #AD9480",
"=_	c #A38A74",
"-_	c #846853",
";_	c #9A785F",
">_	c #9B7B62",
",_	c #A18E8A",
"'_	c #9F908D",
")_	c #AFA6A9",
"!_	c #8B694D",
"~_	c #A28367",
"{_	c #97775E",
"]_	c #967B66",
"^_	c #8D745E",
"/_	c #886D58",
"(_	c #997B61",
"__	c #A68870",
":_	c #977B65",
"<_	c #BCAEAE",
"[_	c #B8B2B2",
"}_	c #907155",
"|_	c #817C82",
"1_	c #8A6F64",
"2_	c #AF937B",
"3_	c #A68B76",
"4_	c #9A8373",
"5_	c #B09D8F",
"6_	c #B09A8D",
"7_	c #B39E99",
"8_	c #9F8876",
"9_	c #AD9382",
"0_	c #B4988D",
"a_	c #917357",
"b_	c #B19482",
"c_	c #988889",
"d_	c #A79999",
"e_	c #A99795",
"f_	c #805F40",
"g_	c #937158",
"h_	c #9A887A",
"i_	c #B3A197",
"j_	c #9A8479",
"k_	c #77583C",
"l_	c #A08067",
"m_	c #917256",
"n_	c #9F7F66",
"o_	c #A28973",
"p_	c #9D816B",
"q_	c #A99687",
"r_	c #B2A59F",
"s_	c #959192",
"t_	c #B5ACAF",
"u_	c #95755C",
"v_	c #AB9075",
"w_	c #AA8B79",
"x_	c #826651",
"y_	c #B2A096",
"z_	c #B3A49D",
"A_	c #A99789",
"B_	c #856E5E",
"C_	c #B5A9A9",
"D_	c #997F68",
"E_	c #BCA295",
"F_	c #896E5B",
"G_	c #A5826E",
"H_	c #B89C8E",
"I_	c #B49988",
"J_	c #AA9489",
"K_	c #A88B7B",
"L_	c #967967",
"M_	c #9A7968",
"N_	c #90796B",
"O_	c #AD9F9F",
"P_	c #725035",
"Q_	c #906E53",
"R_	c #8A6F5A",
"S_	c #77614A",
"T_	c #B1A096",
"U_	c #8E7360",
"V_	c #8B6D55",
"W_	c #AC8C73",
"X_	c #7C5D41",
"Y_	c #A38877",
"Z_	c #7E6350",
"`_	c #AB8F77",
" :	c #9E8B7A",
".:	c #8F7054",
"+:	c #B49581",
"@:	c #816C59",
"#:	c #B7A9A0",
"$:	c #AB9180",
"%:	c #BAA496",
"&:	c #7C6253",
"*:	c #958377",
"=:	c #8C715C",
"-:	c #AC9285",
";:	c #A58576",
">:	c #B3988D",
",:	c #987964",
"':	c #A68C7B",
"):	c #846A5B",
"!:	c #8A7061",
"~:	c #8F6D52",
"{:	c #816750",
"]:	c #81654F",
"^:	c #A08A7C",
"/:	c #A28E85",
"(:	c #7F5F48",
"_:	c #907057",
"::	c #88684F",
"<:	c #896D57",
"[:	c #8E7056",
"}:	c #9D8877",
"|:	c #BCAA9E",
"1:	c #8A7361",
"2:	c #A68A74",
"3:	c #937C6C",
"4:	c #AE9F98",
"5:	c #9F856E",
"6:	c #AF9481",
"7:	c #B3A9A8",
"8:	c #947D6B",
"9:	c #82634E",
"0:	c #B69E92",
"a:	c #96745B",
"b:	c #B09689",
"c:	c #B7A098",
"d:	c #B5A19A",
"e:	c #AB8F81",
"f:	c #B4998E",
"g:	c #A18B80",
"h:	c #A59A9E",
"i:	c #ADA4A9",
"j:	c #98857F",
"k:	c #8C6A4F",
"l:	c #8C6D51",
"m:	c #A39690",
"n:	c #978C86",
"o:	c #90745E",
"p:	c #9A7B5F",
"q:	c #BEA390",
"r:	c #876B56",
"s:	c #9E8473",
"t:	c #83634A",
"u:	c #99836E",
"v:	c #8F6F58",
"w:	c #826047",
"x:	c #A08069",
"y:	c #A8978D",
"z:	c #BFADA3",
"A:	c #9C897B",
"B:	c #8D7364",
"C:	c #8D6E5C",
"D:	c #A59188",
"E:	c #A69BA1",
"F:	c #ABA4AB",
"G:	c #968C94",
"H:	c #A3989E",
"I:	c #816246",
"J:	c #8A7862",
"K:	c #937865",
"L:	c #937F78",
"M:	c #886A50",
"N:	c #997960",
"O:	c #9C7D61",
"P:	c #927965",
"Q:	c #AC9583",
"R:	c #B59F92",
"S:	c #BBACA5",
"T:	c #AA988C",
"U:	c #A18B76",
"V:	c #B59B8A",
"W:	c #B09783",
"X:	c #AB907D",
"Y:	c #7F644F",
"Z:	c #A79388",
"`:	c #B79D8C",
" <	c #A98E7D",
".<	c #B69C8F",
"+<	c #B6A4A0",
"@<	c #977E68",
"#<	c #B39887",
"$<	c #B29887",
"%<	c #A68C75",
"&<	c #886C56",
"*<	c #A68677",
"=<	c #AF9586",
"-<	c #AEA2A4",
";<	c #B8AEB9",
"><	c #A99EA2",
",<	c #887161",
"'<	c #988B85",
")<	c #8C7065",
"!<	c #A5908B",
"  . + @ # $ % & * * = $ - ; > , ' ) ! ~ { ] ^ / ( _ : < [ } | 1 2 3 4 5 6 7 8 9 0 a b c d e f g h i j k l m n o p q r s t u v w ",
"x y z A B C D E F $ G # 2 H I J K L M N O P Q R S T U V W X Y Z `  ...+.@.#.K $.%.&.*.=.-.;.>.,.'.).!.~.{.].^./.(._.:.<.[.}.|.1.",
"2.3.E 4.A 5.6.7.8.9.0.a.b.c.d.e.f.g.h.i.j.k.l.m.n.o.p.q.r.s.t.u.v.w.x.x q.y.z.w A.B.C.D.E.F.z.G.H.I.J.K.L.M.N.O.P.Q.R.S.T.U.V.W.",
"X._ Y.Z.9.`. +.+Y ++@+#+$+%+&+*+=+j -+;+>+,+'+)+!+~+{+]+^+/+(+_+:+<+[+}+o |+1+2+3+4+5+6+7+8+9+0+a+b+c+d+e+f+g+h+i+j+k+l+m+n+o+p+",
"q+. & 4.r+s+ +t+A u+v+w+g x+y+z+A+j+-+B+C+D+E+F+G+H+I+J+K+L+M+N+O+P+Q+R+S+T+k.U+V+L W+X+Y+Z+`+ @.@+@@@#@$@%@&@H *@=@-@;@>@,@'@)@",
"!@~@{@C ]@^@/@(@_@:@' <@x. .[@}@|@U+1@s.2@3@4@5@r.r.r.r.6@7@8@9@:+0@a@b@c@d@F e@f@c g@h@i@j@O k@l@m@f+n@o@p@q@r@s@r t@u@v@w@x@y@",
".+z@t.A@B@a@C@D@E@F@G@..H@f.I@J@K@L@M@N@O@P@(+Q@5@R@N@S@Q@D+T@U@V@W@2 X@3 Y@g Z@a+`@ #.#+#@#O ##$#%#&#*#=#-#;#>#,#'#)#!#~#{#]#^#",
"/#(#_#:#<#[#}#|#]@1#q 2#3#d 4#5#`+r.r.r.6#7#8#7@8@r.r.r.P@9#0#a#b#c#d#e#f#g#h#i#j#k#l#m#e@n#o#p#L q#q r#s#t#u#v#w#..x#y#z#A#B#C#",
"$ D#E#F#G#H#G#I#J#W+K#L#l.M#N#O#P#r.r.r.r.O@)+8#Q#r.r./+R#S#T#U#.#q.G@V#W@p.W#X#Y#Z#X.`# $.$+$@$_.` #$b+$$.@F.%$&$9+*$=$-$;$>$,$",
"d@K#'$)$!$~${$]$^$/$($_$V#:$<$[$d@r.r.r.r.R#}$|$}$G+r.U@1$2$3$4$<+5$6$7$8$9$h#0$a$b$c$d$p.e$&.f$4$S#g$m h$2#i$j$k$l$m$n$o$p$q$r$",
"s$t$O u$v$w$x$y$z$A$B$C$V#D$v E$F$G$r.r.r.H$I$J$E+K$r.L$/+M$N$$+O$P$Q$R$p.S$s$T$U$V$8.J#W$X$Y$Z$`$e  %.%r +%@%#%$%%%Y@&%*%=%-%;%",
">%,%'%)%!%!%q+~%{%]%^%j./%(%_%:%{+<%r.r.r.T@E+~+[%}%N@|%[%1@1%2%3%4%z.F@O 5%6%7%x.8%9%v+t.8%Y J#0%a%'$b%c%d%e%.@f%g%0%h%i%j%)@k%",
"l%m%n%v.t+o%p%t$q%G@ $E#r%s%t%u%v%]+L@r.r.|%D+P@w%)+x%2@P@6#G$y%z%A%s$q#$#B%C%F@S$D%E%F%G%H%I%J%K%L%M%;%N%O%P%Q%R%S%T%U%V%W%X%) ",
"6$Y%Z%v.`% &O+.&A++&Z$@&!+#&$&%&K+8#J$s.R@&&I$L+|%*&=&P@r.-&;&G+r.>&,&'&)&!&q#~&{&`#]&^&/&(&_&:&<&7$o$[&}&|&/%1&2&3&4&%$V%5&6&7&",
"5+=+S#8&<#9&0&`+a&#%b&y$J+c&M#c@V /+d&s%r.e&w%f&w%g&h&i&j&k&;&H+L@l&m&n&<@Z%k.o&p&q&r&l#p%s&H@B+t&u&v&w&j+x&e y&z&A&;@Z$Q%B&C&D&",
"I@f.b$E&F&9@G&H&I&J&K&`+|%U+L&M&[%L@L$L$-&H$L$s.|%N&O&P&R@Q&2@L@L@H+R&S&T&U&K@V&W&X&:+v.:.Y&Z&S$`&@%&@g%3+ *.*Y&x.+*`&#$Z@@*Z+y.",
"#*$*%*&***=*-*;*a&>*,*,*[%) '*S@5@r.I$8@L$L@)*J+4@K$3@s.6#R@!*7@G+S@G+J@`+h@.&K ~*{*s+9@]*^*~ /*(*_*y@:*a+q#<*Y@[*Z+}*o&|*1*2*q#",
"3*4*5*!@6*7*8*)$9*0*w.r.r.G$r.r.r.I+g&a*K+&&^+U@N&b*K$&&w%/+r.L@a*^+c*d*W#e*f*L e g*F%2%F@($h*~&i*j*k*l*m*U#n*0%a%o*p*4&9$q*1+r*",
".%s*t*u*v*(@t*p%w*x*y*r.r.r.r.r.;&z*)+J$H$2@A*D+N&B*f&C*~+u%r.r.D*F+1$5%E*q#H@I&k.Z a.F*G*H*I**.8+J*K*L*M*N*O*l#P*Q*R*]*  S*T*U*",
"k$V*W*X*F&Y*Z*`* =.=+=r.r.r.R@L@@=|%L$O@7##=$=%=&=)+F$r.)*I$;&S@I$N@[%*===-=;=,*>=,=4.'=R*)=!=~= $Q+{=D.]=B@^=/=E@(=_=:=<=` u&e ",
"[=}=E#!%|=1=2=3=4=5=6=G$R@R@C*<%7=P&G+8=9=|$Q@&=0=R#U@r.a=a=s.}$Q@[%b=c=d=0*@*e=f=g=,.Z*M$b.$+h=i=T#e$N 2%5*{$j=k=c ,*l=m=n=o=h@",
"p=q=r=s=t*T%t=u=v=w=x=y=1$&&)+L+z=A=B=C=%=J$s%|$b*D=u%r.d&d&M+P@H$u%E=+$F=' G=H=I=J=~%w+K=L=M=C.N=#$m+S#O=P=Z.Q=R=S=n#2&T=V#=+U=",
"V=W=X=Y=!%Z=`= -.-+-@-b%#-$-3*%-)+}%&-a*9=z=~+f&)+O@T@-&J$(+8#-&7#>=4 *-=--->.;->-,-q#U#'-)-4&<*h@#$- !-~-v+{-C ]-^-/-(-_-K#:-4+",
"<-[-}-|-]@1-E=2-3-4-5-6-Z@.&7-8-Z U@P@)*%=b*1@(+T@!+9-R#%=0-a*a-c#1 b-c-d-e-f-q g-h-i-j-`+e-k-`+l-l-C&m-&.n-S#o-p&p-n&f-q-r-s-f@",
"t-u-m#F#3$U&v-_$a+w-w-x-y-z-A-B-l&Q+&&/+P@C-N&D-f&a*H$P&D*E-8#2$=-e$c#h=G*.*F-G-H-L*B%I-J-<=e$I&K-L-M-N-`&O-P-Z=p#Q-m*R-S-_ T-U-",
"V-W-5.X-Y->*w-Z-`- ;.;+;@;[-4#5&#;l-T@1$U@7@$;I$a*%;P@J+3@Q#E+&;H&j&*;C.e@+.=;-;;;>;L&a#,;$+;@U#';.$);S#2=g**.;@!;.&~;R+ $Z {;7%",
"];^;/;u.(;_;:;<;[;/@};|;1;M 2;9*1 R*3;R#w%&-4;T@O&D*2@3@5;9-c*6;7;S$S$3.I*e-8;9;0;a;b;,;c;d;e;)%e$f;g;U#K--=--h;i;2*/%j;~=p.T&k;",
"l;m;]&n;)&Z%~&o;p;q;r;s;t;u;j.v;5.w;0@x;w%L$0-y;z;A;E-B;]+r.^+C;D;E;K-O 4%T&F;K*G;1&^$5*H;j-'&R*I;_=J;K;k.);L;M;K*N;O;P;Q;R;m S;",
"T;U;V;W;X;Y;O-Z;-$`;d% >.>+>@>f@#>& $>[$4@N@%>D-%>&>N@r.w%u%A**>=>->;>>>,>'>f-)>!>o=& ~>0%_={>g;N =-W*.#]>#.f-p-^>/>(>_>:><>[>}>",
"d*n%|>1>2>3>M*4>5>@;6>{>0&7>8>9>0>a>b>c>2=|%'+I$d>r.5@R@8@I+R#O-e>s&>+f>g>h>p-i>j>3*Y${&&.`&+._=9#k>`+l>m>!-~;n>o>p>q>p;r>s>T$Y&",
"t>u>)%v>w>x>y>z>P #%A>k%B>C>e@K@u-D>E>s$F>2@A=H$G>Q@J+9-|$H>I>J>K>0>L>M>N>1&O>P>[+Q>s&R>S>T>'*'>K%U>V>W>,.X>b Y>Z>`> ,.,+,@,0$#,",
"G&I&$,F>%,c#C;$%&,+,d-*>*,2#=,-,;,>,,,2;',),!,u%7=L@r.r.R@R@r.w%~,{,|;3;],' 8>[-^,H*r%/,(&(,_,:,%*2 <,_=[,},d;|,Z@1,A$$%k@2,3,- ",
"4,j@5,6,`-7,8,9,0,a,W$ >b,R-c,2&d,e,X*c#f,P&L+4@K$|$R@r.r.r.r.G+~+g,e@h,i,3#j,d*k,l,4.m,n,o,p,$+@&l#v.} r=q,r,= s,#*c@Q*.$9#C.k-",
"f-[-t,]-u,!%v,&$w,x, #X=y,O#1*z,A,I%B,C,D>}%<%P&{+g&P@r.r.r.r.r.M@D,c-8*E,I@F,G,H,P-I,J,K,L,-=M,(&,;N,5.O,P,Q,{$R,S,T,U,j-h#Y+H.",
"V,W,Z=X,Y,Z,,>`, '.'V +'.#@'c##'$'%'&'*'# ='R@r.a*a=8#'+S@R@r.r.R@-';'>'Q$,''')'!'~'m;**{']'}-^'/'Y t.}-t*('_':'a@T;q>o <'i=+.k-",
"['}'|'1'2'm#->3'4'5'%%6'7';+8'B%9'0'a'b'd,b*r.R@r.A*b*C-(+b*c'z=Q#d']$e'f'g'h'h*i'J#r&D j'k'l'm'<,b-n'9@A@o'p'Y*p%q'r'l-c@|@s''$",
"t'|@,&u'v'w'x'y'==9#z'k&A'B'C'D'D E'F'G'H'7@r.c*1@r.r.5@L@&-L$`*I'J'Y*K'L'i*M'6;N'O'P'Q'n'R'4.!%S'~$| T'U'E&V'**4.2=h;`&e W'X'Y'",
"Z'`'f-B' ).)V'|#o-+)@)0&V;#)w*$)%)&)*)=)-)(+;&|%/+r.r.r.8@4@;)>),)')% v.))W=['h !)~)I%{)])^)q+9&q+/)()_):)l&z%e'<)[)})5$|)1)2)3)",
"4)5) =6)7)8)9)0)a)b)c)d)e)b;|-f)g)h)8)i)j)8@~+Q@U@M@r.5@Q@k)l)m)n)o)p)q)H&R&Z,@)'%r)s) +t)= u)r&v) +)%w)'#;+x):## (;'-%*y)2*z)A)",
"B%B)#)C)d)Y=D)E)b)F)G)H)I)X=;>J)K)L)E'M)N)O)&-4@4@R@r.M+a=P)e'Q)A'R)S)T)U)C;V)W)X)i,`%Y)Z)==`) !t*.!+!@!f-K-,;#!|-$!%!2,A$&!*!e$",
"=!>+-!;!n)b)>!,!'!B,E'p)A')!!!|>~!{!]!^!C'/!)*T@7#r.D+2@(!=;_!:!<![!{!}!|!1!_$B'2!b#^&Z*3!4!5!=*i)6!7!R-8!9!0!a!n,/,Y-b!c!m.d!e!",
"2=f B>f!}!g!n)h!i!j!k!l!`*m!n!o!p!q!r!s!t!u!$=v!G$R@]+!+w!x!y!6,z!A!B!C!m,==D!E=E!L'M).!W*')^@F!G!4.H!d%I!J!K!L!w;L'C%M!N!O!4)p.",
"P!Q!R!|'m;S!T!U!V!=;m!W!A!X!Y!Z!`! ~.~+~@~#~v!]+L@$~w%K'%~&~*~=~-~;~>~,~!@'~5#)~!~h*~$j)~~{~v.]~ )t.^~/~(~_~:~<~p.[~}~f>|~1~.%C.",
"2~_)C%3~u$%!4~5~6~7~8~9~0~a~b~c~d~e~f~g~W h~E+~+R@T@K+Z)I,/;i~j~k~l~F!1!m~n~o~R$p~r%F%q~r~},|-[$s~t~u~v~w~x~y~I-8*I&c~0+z~A~B~C~",
"D~E~F~E>i,G~H~I~3-J~K~L~M~N~@)O~P~Q~$'R~S~T~Q@|%1@s.L$U~V~K;-~W~X~Y~Z~`~ {.{+{@{#{${|#%{F#J'&{*{={-{;{>{,{8''{~&){!{d*d#Y;A+1*.$",
"~{{{]{>*^{U!/{({_{:{7,<{[{}{n,|{1{J,2{3{X=4{2@r.a=1$5{6{7{8{6'9{0{a{K'b{Y,c{d{e{f{g{0)Q=h{i{j{k{l{m{n{K&o{_{I&p{U>E,W q{9$U*E*X>",
"x>r{h~s{t{u{v{o,,-w{x{y{z{A{B{C%C{D{@',&E{F{F$5@T@s.G{ *j=H{I{J{K{L{B,M{N{x>O{P{R~Q{R{S{T{U{V{W{X{Y{Z{O! ,`{ ]!*.]s&S;+]+$;+X&t.",
"3,g'Q!@]#]$]U~%]A-&]*]=]-];]>],]'])]!]~]{]]]N@R@U@K+^]/](]6{_]:]S'<][]}]|](]n#<@),1]2]3]4]5]6]F=2=7]8]9]0]a]b]c]X-N ,'|>N J;I;9$",
"g-d]e]f]g]+>h]Y'i]j](%k],&l]m]n]o]p]q]r]s]t]N@w%F$H$u]v]P~w]x]y]z]A]!]B]M!N~C]D]E]F]G]H]I]J]K]s=$>L]})$#M]f*N]X*t*O]P]n#w;O$o-$+",
"Q]R]')('k!S]T]U]^]V]W]X]Y]Z]`] ^.^,&I)+^@^#^&&7#&&$^%^&^A,*^=^@'-^;^>^,^'^)^E]!^~^{^]^^^/^I%0@(^W$8;_^g.[+C$& J]:^j-8;j->'C <^.#",
"G;;+m)[^`*d,}^U;|^1^2^3^4^5^6^7^8^9^Z=0^$^a^<%u%I+b^c^d^`*I'e^f^g^h^i^j^E]k^l^m^n^o^p^>)q^v)!%*-r^s^a@S>t^u^R'p%3$v^w^}+N]t.v.Y&",
"j#g#x^y^z^b,A^B^C^D^E^F^G^H^1!I^J^K^L^M^N^O^I+L$H>N^P^o'3^Q^R^{]S^h{1]T^U^V^W^X^=*%!!*Y^.+y'I*S=Z^5~`^v- /L&d@+$G~./0$+/z@B@@/#/",
"$/%/'&&/A+*/K)=/H~t;$!-/F^;/V,>/,/'/)/!/~/R)I+{//+]/^///(/8*_/2]1]:/</{^[/}/d)4^Q^;'/&|-|/r&T&X&1/,+2/Y^]@%*u.E*(&@&3/t.W#8'4$9#",
"4/`~Q&};5/6/7/8/9/0/`*a/b/c/d/e/f/g/h/z'6,i/A*N@/+j/-/j)/;k/l/m/n/o/p/q/r/r]/,p)s/t/Y^u/^&x)F>$,v/w/V;x/y/;>!'z/I*!~A/./N X&B/d'",
")&u-.>-]C/D/E/F/a{==G/H/I/8*J/H~K/L/M/a!q)N/A*<%6@O/>,P/Q/R/S/T/U/V/W/>/X/Y/Z/`/ (.(+(5!@(7/#({!$(!=g@;+`+Q+4&!!%(G,F-8]U;&(J;g@",
"*(=(W**,d -(F;;(>(W/,('(4^)(2;!(6/*'~({(W,](^(/(((_(l/2]:(<([(}(|(1(2(3(4(5(6(s;.^a@7(8(n)9(F&@(b'}]+>0(e)M$f'a(/ b(c(d(e)t.{-e(",
"7/f(B,S'g(h(i(j(F%k(l(m(i)n(F>o(p(E^;^q(r(s(t(u(v(w(^^x(n^m^y(h~R!z(A(_$B(C(D(E(]!x;F(G(H&H(I(J(n',,K(L( +d'M(d%%$%$_*N(O(l#o-% ",
"t)P(Q=D C,Q(`!a!R(S(T(U(x)Y-I~^{V(}^f/W(X(T@)*Y(Z(`( _}(d)._,]_$+_f,@_#_$_%_&_*_=_G.v$j/-_;_V'>_{)x/H@H!O$f;q#Z@,_'_)_;;6-Z&[)p%",
"N'!_~_{_]_^_C,/_{%2~(_o'__:_<_[_${q^}_:_B(8@=&|_1_+&n)2_3_C>=]4_5_6_1;2~7_8_9_Q~~$C>p(n,0_;)a_b_z%.#3;a>J%C Z <@p-d%c_d_e__+R=Q)",
"L)f_g_G);+h_i_G(j__*k_l_m_n_j/''o_)/p_j/q_r_B*s_t_u_v_w_x_y_z_6~A_B_}~p^C_F=D_0'1=*-E_F_]*G_4!H_I_b.J_>+8%K_<)L_M_N_O_+/#&A@W*z-",
"V(P_Q_d,R_S_T_U_d s$V_D W_X_,~Y_Z_Z]j/`_@'1- :>^B).:+:T)@:(%#:b;$:%:&:a(*:=:${>,]@j--:} {&;:)=>:W*W#H{h=R=v$,:':!]h.*:d#):T%#)!:",
";)~:.),!{:r]7!]:^:/:(:_:~_::5!S]<:(]Y=[:}:|:1:|-Z),~n'2:3:4:q{5:j)6:u,r(7:8:};u)9:0:`+J)u$a:4!b:]-c:d:W#e:o-X=f:h.g:h:i:j:0(q.z.",
",:k:o'l:m:n:y_o:U&W {~&)Q_p:5:q:r:s:Z~t:s;u:v::_r&w:x:*';*y:z:$^o:A@|;:^A:B:M{Q~r%u-%*i,>'/^Y*G(C:M,#_2$K;]~.#j-f@D:E:F:G:H:(,s^",
"U!I:T(`%J:*/]~~(K:L:M:N:O:o'L)$]P:Q:R:V+S:T:N+U:V:=(W:X:Y:Z:U~`: <.<a!v{+<J&F-@<E^#<$<y,-)%<.)l'(^&<*<e:  =<-<;<><,<'<w>)<_$!<u#"};
