/* XPM */
static char * exit_xpm[] = {
"64 64 957 2",
"  	c #030301",
". 	c #010100",
"+ 	c #010101",
"@ 	c #0E1100",
"# 	c #020202",
"$ 	c #030102",
"% 	c #020001",
"& 	c #030200",
"* 	c #060503",
"= 	c #0D0C0A",
"- 	c #060501",
"; 	c #040301",
"> 	c #050402",
", 	c #040300",
"' 	c #080705",
") 	c #090806",
"! 	c #0B0A06",
"~ 	c #050400",
"{ 	c #030303",
"] 	c #000000",
"^ 	c #0A0905",
"/ 	c #0B0A05",
"( 	c #070604",
"_ 	c #0B0A08",
": 	c #0A0904",
"< 	c #090803",
"[ 	c #0A0907",
"} 	c #0E0F09",
"| 	c #040402",
"1 	c #100F0A",
"2 	c #060604",
"3 	c #494E52",
"4 	c #12110F",
"5 	c #090804",
"6 	c #0B0C06",
"7 	c #040404",
"8 	c #0C0B07",
"9 	c #2D2C2A",
"0 	c #070302",
"a 	c #1B1813",
"b 	c #1F2012",
"c 	c #1F1E1C",
"d 	c #2F2D14",
"e 	c #040203",
"f 	c #62615F",
"g 	c #16170F",
"h 	c #201E11",
"i 	c #0C0805",
"j 	c #080403",
"k 	c #111204",
"l 	c #050304",
"m 	c #070709",
"n 	c #020200",
"o 	c #040207",
"p 	c #080703",
"q 	c #070601",
"r 	c #0A0605",
"s 	c #27270F",
"t 	c #0B0B03",
"u 	c #050102",
"v 	c #1F1D1E",
"w 	c #030104",
"x 	c #4B4827",
"y 	c #0F0E0C",
"z 	c #090504",
"A 	c #070300",
"B 	c #1B180F",
"C 	c #080702",
"D 	c #3E3A39",
"E 	c #1D2113",
"F 	c #0A0603",
"G 	c #090502",
"H 	c #0A0404",
"I 	c #19150C",
"J 	c #0B0505",
"K 	c #0B0706",
"L 	c #090303",
"M 	c #212214",
"N 	c #050601",
"O 	c #141206",
"P 	c #110D0C",
"Q 	c #0D0805",
"R 	c #0E0906",
"S 	c #120F06",
"T 	c #0B0603",
"U 	c #17140B",
"V 	c #060201",
"W 	c #191919",
"X 	c #070602",
"Y 	c #1E1E16",
"Z 	c #0F0D0E",
"` 	c #0C0704",
" .	c #110907",
"..	c #180F0A",
"+.	c #281E14",
"@.	c #130B09",
"#.	c #120A08",
"$.	c #140A09",
"%.	c #2A2426",
"&.	c #12090A",
"*.	c #100806",
"=.	c #373123",
"-.	c #0E0D09",
";.	c #1F1D11",
">.	c #050503",
",.	c #6E734B",
"'.	c #080401",
").	c #0C0703",
"!.	c #0D0707",
"~.	c #140C0A",
"{.	c #160C0A",
"].	c #160C0B",
"^.	c #180D0B",
"/.	c #190E0C",
"(.	c #150B0A",
"_.	c #180E0D",
":.	c #180D07",
"<.	c #100B08",
"[.	c #0F0A06",
"}.	c #16130C",
"|.	c #252106",
"1.	c #0C0E03",
"2.	c #16110D",
"3.	c #4C4334",
"4.	c #1E100F",
"5.	c #1F100D",
"6.	c #211111",
"7.	c #23110F",
"8.	c #271513",
"9.	c #1E0E0E",
"0.	c #1B0D0C",
"a.	c #20130D",
"b.	c #180C0C",
"c.	c #170D0C",
"d.	c #2E2321",
"e.	c #15100A",
"f.	c #ACB3B9",
"g.	c #353130",
"h.	c #010000",
"i.	c #050306",
"j.	c #0E0A07",
"k.	c #251311",
"l.	c #281413",
"m.	c #2A1512",
"n.	c #281511",
"o.	c #301816",
"p.	c #271312",
"q.	c #251110",
"r.	c #241212",
"s.	c #241510",
"t.	c #1D0F0E",
"u.	c #0C0606",
"v.	c #141414",
"w.	c #14140C",
"x.	c #222618",
"y.	c #0C0B06",
"z.	c #6E754B",
"A.	c #120807",
"B.	c #170C0A",
"C.	c #1F0F10",
"D.	c #281310",
"E.	c #311716",
"F.	c #381A18",
"G.	c #381B17",
"H.	c #3B1E1A",
"I.	c #3F1D1B",
"J.	c #3E1C1A",
"K.	c #3B1917",
"L.	c #3C1D1A",
"M.	c #391B19",
"N.	c #341A19",
"O.	c #2B1613",
"P.	c #1C0E0D",
"Q.	c #1A0F0D",
"R.	c #382F28",
"S.	c #0B0704",
"T.	c #5E6543",
"U.	c #060200",
"V.	c #070304",
"W.	c #070506",
"X.	c #060405",
"Y.	c #0B0602",
"Z.	c #140A08",
"`.	c #1D0D0D",
" +	c #281312",
".+	c #2E1413",
"++	c #45241F",
"@+	c #4C251E",
"#+	c #4B221C",
"$+	c #4F241D",
"%+	c #52271E",
"&+	c #4F231A",
"*+	c #5B3020",
"=+	c #562B22",
"-+	c #48231D",
";+	c #44231A",
">+	c #3D1E1C",
",+	c #0E0905",
"'+	c #130E0B",
")+	c #1A1615",
"!+	c #110E09",
"~+	c #151509",
"{+	c #1C1C10",
"]+	c #1B170C",
"^+	c #3F4346",
"/+	c #020100",
"(+	c #555533",
"_+	c #101008",
":+	c #24211A",
"<+	c #140C09",
"[+	c #150B09",
"}+	c #201010",
"|+	c #271211",
"1+	c #2C1412",
"2+	c #411F1D",
"3+	c #49241E",
"4+	c #562B24",
"5+	c #5E2E20",
"6+	c #673627",
"7+	c #6C3727",
"8+	c #7C432F",
"9+	c #723B27",
"0+	c #6C3725",
"a+	c #643120",
"b+	c #613222",
"c+	c #51261F",
"d+	c #49221D",
"e+	c #4A281C",
"f+	c #2C1716",
"g+	c #21120F",
"h+	c #100B07",
"i+	c #3C320F",
"j+	c #0D0906",
"k+	c #080405",
"l+	c #100A0A",
"m+	c #0F0A07",
"n+	c #18100D",
"o+	c #2C1211",
"p+	c #4A281F",
"q+	c #4C231D",
"r+	c #77442F",
"s+	c #7A4630",
"t+	c #88563D",
"u+	c #AA725B",
"v+	c #A9725D",
"w+	c #B67E65",
"x+	c #B57D64",
"y+	c #AA7058",
"z+	c #A46850",
"A+	c #884E38",
"B+	c #743B2A",
"C+	c #5B2B1D",
"D+	c #3B1D1B",
"E+	c #1F1111",
"F+	c #292A24",
"G+	c #0C0B09",
"H+	c #040500",
"I+	c #23230B",
"J+	c #524242",
"K+	c #331714",
"L+	c #381916",
"M+	c #49201A",
"N+	c #5E2D1E",
"O+	c #89533B",
"P+	c #AF7F68",
"Q+	c #D6AF9E",
"R+	c #F1D2BE",
"S+	c #F6D9C7",
"T+	c #F7D6C3",
"U+	c #F4D4BF",
"V+	c #F3D2BF",
"W+	c #F1D0BD",
"X+	c #E5B7A0",
"Y+	c #B07964",
"Z+	c #8B513D",
"`+	c #693623",
" @	c #6B3B2F",
".@	c #42231E",
"+@	c #3C1E1C",
"@@	c #1F0F0F",
"#@	c #221711",
"$@	c #19120A",
"%@	c #050505",
"&@	c #080607",
"*@	c #110F03",
"=@	c #170D0B",
"-@	c #3F1E19",
";@	c #482018",
">@	c #64311E",
",@	c #935641",
"'@	c #CC9F8A",
")@	c #F6D7C5",
"!@	c #FCEFDF",
"~@	c #EED3BE",
"{@	c #E3BEA4",
"]@	c #CCA588",
"^@	c #C59E81",
"/@	c #D8B49A",
"(@	c #FBE5D0",
"_@	c #F8EBDB",
":@	c #FFF9EB",
"<@	c #E3B8A5",
"[@	c #A1654D",
"}@	c #783F2C",
"|@	c #5A2E21",
"1@	c #482521",
"2@	c #351918",
"3@	c #34211B",
"4@	c #141213",
"5@	c #585B62",
"6@	c #393532",
"7@	c #2A2A12",
"8@	c #3A1B18",
"9@	c #9A5943",
"0@	c #D2A28B",
"a@	c #EECFBB",
"b@	c #E7C3AD",
"c@	c #A7876E",
"d@	c #654A37",
"e@	c #402D1E",
"f@	c #2F2116",
"g@	c #311E17",
"h@	c #412F23",
"i@	c #614834",
"j@	c #AF8B71",
"k@	c #F2D6C0",
"l@	c #F9F5EA",
"m@	c #EFCEBB",
"n@	c #AD7964",
"o@	c #79402D",
"p@	c #522A22",
"q@	c #42201E",
"r@	c #321819",
"s@	c #251313",
"t@	c #1B170E",
"u@	c #4E4A49",
"v@	c #0A0B06",
"w@	c #2D2C28",
"x@	c #060606",
"y@	c #0C0902",
"z@	c #381C18",
"A@	c #4C231F",
"B@	c #9C653C",
"C@	c #955B45",
"D@	c #D8AA93",
"E@	c #F7D8C3",
"F@	c #C89F81",
"G@	c #644934",
"H@	c #22180F",
"I@	c #201710",
"J@	c #634A36",
"K@	c #D3AF8F",
"L@	c #FFF7EA",
"M@	c #F7DBCD",
"N@	c #AC7863",
"O@	c #713E2B",
"P@	c #502723",
"Q@	c #1A100E",
"R@	c #100805",
"S@	c #282725",
"T@	c #111107",
"U@	c #0D0908",
"V@	c #0F0F03",
"W@	c #27140E",
"X@	c #341817",
"Y@	c #44211F",
"Z@	c #5D2D21",
"`@	c #874E3A",
" #	c #DFB29F",
".#	c #FCE2D1",
"+#	c #BF9A7D",
"@#	c #443122",
"##	c #0F0C07",
"$#	c #0F0B08",
"%#	c #3D2D1E",
"&#	c #C09B7E",
"*#	c #FBF1E5",
"=#	c #EFCAB8",
"-#	c #9E6551",
";#	c #6E3B2A",
">#	c #4C2923",
",#	c #3B3118",
"'#	c #130908",
")#	c #4F4B25",
"!#	c #292929",
"~#	c #161510",
"{#	c #2C2B19",
"]#	c #31260A",
"^#	c #1A0F0B",
"/#	c #3A1D19",
"(#	c #4A211D",
"_#	c #6F3B26",
":#	c #BA8772",
"<#	c #FEDDCA",
"[#	c #CAA183",
"}#	c #412F21",
"|#	c #3C2A1E",
"1#	c #CFAA8D",
"2#	c #FFF5E9",
"3#	c #D7B29F",
"4#	c #834F3A",
"5#	c #582D24",
"6#	c #3C1F1B",
"7#	c #291810",
"8#	c #281818",
"9#	c #0A0502",
"0#	c #211F13",
"a#	c #9D9355",
"b#	c #2E1614",
"c#	c #40211C",
"d#	c #55271A",
"e#	c #935943",
"f#	c #E6C3B0",
"g#	c #E6C2A8",
"h#	c #5A442F",
"i#	c #563F2D",
"j#	c #F1D1B8",
"k#	c #FDF0E7",
"l#	c #B68878",
"m#	c #6E3D2C",
"n#	c #48251F",
"o#	c #311919",
"p#	c #060702",
"q#	c #1F140E",
"r#	c #392814",
"s#	c #321817",
"t#	c #49221B",
"u#	c #6B3624",
"v#	c #B7806C",
"w#	c #EED7C5",
"x#	c #8D684B",
"y#	c #160F09",
"z#	c #160E0B",
"A#	c #936E51",
"B#	c #FCF8ED",
"C#	c #E0C0B5",
"D#	c #88563F",
"E#	c #61362D",
"F#	c #2A1615",
"G#	c #3E3F2D",
"H#	c #151606",
"I#	c #030400",
"J#	c #0D0D05",
"K#	c #333214",
"L#	c #101006",
"M#	c #E5D28D",
"N#	c #5B4F25",
"O#	c #51251C",
"P#	c #814835",
"Q#	c #E6C0AD",
"R#	c #E7C5AA",
"S#	c #392719",
"T#	c #352317",
"U#	c #EBCAAB",
"V#	c #F9EFE6",
"W#	c #A5755F",
"X#	c #623224",
"Y#	c #462520",
"Z#	c #2F1717",
"`#	c #0E0B06",
" $	c #161408",
".$	c #1C110F",
"+$	c #D8C782",
"@$	c #291413",
"#$	c #5B2D1E",
"$$	c #A16952",
"%$	c #F8E5D7",
"&$	c #9C7A5F",
"*$	c #110C08",
"=$	c #A57A5A",
"-$	c #FFFEF9",
";$	c #C99F8F",
">$	c #7F4C31",
",$	c #4B2620",
"'$	c #231411",
")$	c #4B4223",
"!$	c #5C6167",
"~$	c #2C1414",
"{$	c #411E18",
"]$	c #693625",
"^$	c #CD9D87",
"/$	c #FDEADC",
"($	c #55402F",
"_$	c #523724",
":$	c #FCF0E2",
"<$	c #EFCBBB",
"[$	c #804837",
"}$	c #502820",
"|$	c #361A17",
"1$	c #150D0A",
"2$	c #0E0D08",
"3$	c #12110D",
"4$	c #150F01",
"5$	c #30231B",
"6$	c #2F1514",
"7$	c #461F18",
"8$	c #753C29",
"9$	c #E2B9A7",
"0$	c #EACEB9",
"a$	c #261C13",
"b$	c #26180F",
"c$	c #EDCDB4",
"d$	c #F7DDCE",
"e$	c #8A503C",
"f$	c #2F1C16",
"g$	c #17130A",
"h$	c #17140D",
"i$	c #5E6031",
"j$	c #130B08",
"k$	c #180E0C",
"l$	c #22100E",
"m$	c #472826",
"n$	c #4E231C",
"o$	c #874934",
"p$	c #EBC8B4",
"q$	c #C3A188",
"r$	c #130E08",
"s$	c #130E0A",
"t$	c #C89D7D",
"u$	c #FBEFDF",
"v$	c #935941",
"w$	c #59291B",
"x$	c #3B1C19",
"y$	c #2B1615",
"z$	c #0C0807",
"A$	c #191708",
"B$	c #190F0D",
"C$	c #91543F",
"D$	c #F4D1BD",
"E$	c #9F7A5D",
"F$	c #9F7857",
"G$	c #FDEBDD",
"H$	c #A76B53",
"I$	c #5D2E1E",
"J$	c #201011",
"K$	c #0F100B",
"L$	c #5D2D1F",
"M$	c #9E624A",
"N$	c #F5D2BE",
"O$	c #876448",
"P$	c #836044",
"Q$	c #FCEFDE",
"R$	c #622E20",
"S$	c #421F1B",
"T$	c #160E0C",
"U$	c #0D0A05",
"V$	c #151306",
"W$	c #A19F4C",
"X$	c #0E0808",
"Y$	c #1E1311",
"Z$	c #3E1F1C",
"`$	c #633327",
" %	c #9C624A",
".%	c #FDDAC6",
"+%	c #806246",
"@%	c #78563A",
"#%	c #FDF1E1",
"$%	c #BB8771",
"%%	c #653221",
"&%	c #401F1A",
"*%	c #0B0708",
"=%	c #1D1C1A",
"-%	c #291514",
";%	c #613125",
">%	c #A36B54",
",%	c #F5D4C1",
"'%	c #83634A",
")%	c #78583F",
"!%	c #FDF1E3",
"~%	c #BD8973",
"{%	c #6B3825",
"]%	c #411E1A",
"^%	c #2B1716",
"/%	c #5C2D23",
"(%	c #A46E56",
"_%	c #F9DECD",
":%	c #927057",
"<%	c #86644B",
"[%	c #FEF1E1",
"}%	c #AF775E",
"|%	c #643022",
"1%	c #41201B",
"2%	c #2D1513",
"3%	c #161511",
"4%	c #120F08",
"5%	c #0D0C08",
"6%	c #6E7855",
"7%	c #3D1F1D",
"8%	c #54281F",
"9%	c #9C664E",
"0%	c #F8E1D3",
"a%	c #AA8E78",
"b%	c #9D7A5C",
"c%	c #FBEEDD",
"d%	c #A1674F",
"e%	c #5E2C21",
"f%	c #3F201D",
"g%	c #3D3C3A",
"h%	c #391D1A",
"i%	c #4F2620",
"j%	c #8C5540",
"k%	c #F0CFC0",
"l%	c #CAAF9A",
"m%	c #15100C",
"n%	c #140F0B",
"o%	c #C79E7E",
"p%	c #FBEAD8",
"q%	c #965944",
"r%	c #5D2F22",
"s%	c #3D201C",
"t%	c #261211",
"u%	c #130A05",
"v%	c #060500",
"w%	c #1F1806",
"x%	c #070705",
"y%	c #351B1A",
"z%	c #4D261F",
"A%	c #7A4631",
"B%	c #DEB5A3",
"C%	c #ECD5C3",
"D%	c #2C231C",
"E%	c #291C13",
"F%	c #E5C0A3",
"G%	c #F4CFBC",
"H%	c #884B38",
"I%	c #683A2A",
"J%	c #201712",
"K%	c #151811",
"L%	c #1E1F0F",
"M%	c #070803",
"N%	c #181A04",
"O%	c #1A1309",
"P%	c #171312",
"Q%	c #47221C",
"R%	c #6B3827",
"S%	c #BA8A74",
"T%	c #F9E7DB",
"U%	c #5E5045",
"V%	c #523B29",
"W%	c #FEE6CE",
"X%	c #D4A68F",
"Y%	c #743D29",
"Z%	c #4F271F",
"`%	c #3B221D",
" &	c #241210",
".&	c #0D0E09",
"+&	c #9D654E",
"@&	c #F2DBCB",
"#&	c #AE9785",
"$&	c #120E0B",
"%&	c #120D09",
"&&	c #A17C5F",
"*&	c #FEECD8",
"=&	c #AC745B",
"-&	c #613021",
";&	c #43221D",
">&	c #331A16",
",&	c #0A0B03",
"'&	c #181715",
")&	c #2F2F23",
"!&	c #1A120F",
"~&	c #291612",
"{&	c #50251E",
"]&	c #7F4632",
"^&	c #E2CBB9",
"/&	c #3C2E23",
"(&	c #38261A",
"_&	c #EAC8AF",
":&	c #F3CEBC",
"<&	c #905640",
"[&	c #53281F",
"}&	c #5A3A23",
"|&	c #2E1A13",
"1&	c #0D0804",
"2&	c #100D08",
"3&	c #0F1008",
"4&	c #222220",
"5&	c #1B190A",
"6&	c #1D160C",
"7&	c #43201C",
"8&	c #663224",
"9&	c #B07861",
"0&	c #F7E0D0",
"a&	c #9C7C63",
"b&	c #17120E",
"c&	c #97755A",
"d&	c #FDF0DF",
"e&	c #C89882",
"f&	c #75412C",
"g&	c #4B241D",
"h&	c #AD8E58",
"i&	c #392524",
"j&	c #FFFFF6",
"k&	c #6B6032",
"l&	c #503A2C",
"m&	c #51261D",
"n&	c #824935",
"o&	c #DCB19E",
"p&	c #F4D1BB",
"q&	c #644F3E",
"r&	c #594230",
"s&	c #EFD3BB",
"t&	c #EDCAB6",
"u&	c #99604C",
"v&	c #633325",
"w&	c #4F2A22",
"x&	c #664822",
"y&	c #1B1E0D",
"z&	c #4D312E",
"A&	c #4C2721",
"B&	c #633223",
"C&	c #A56951",
"D&	c #EFC9B4",
"E&	c #D7B7A0",
"F&	c #423022",
"G&	c #3F2E1E",
"H&	c #D4B193",
"I&	c #F9E7D3",
"J&	c #BA836E",
"K&	c #75402E",
"L&	c #502721",
"M&	c #371E19",
"N&	c #2B1812",
"O&	c #BDB9B8",
"P&	c #1C1E11",
"Q&	c #090601",
"R&	c #3E2E1E",
"S&	c #40211F",
"T&	c #542721",
"U&	c #763B29",
"V&	c #BE8165",
"W&	c #F7E0CE",
"X&	c #CBA68C",
"Y&	c #100C09",
"Z&	c #080202",
"`&	c #413020",
" *	c #C9A688",
".*	c #FDF6E6",
"+*	c #CFA994",
"@*	c #824A39",
"#*	c #5E3023",
"$*	c #42211C",
"%*	c #482D24",
"&*	c #251112",
"**	c #0D0A03",
"=*	c #090900",
"-*	c #040205",
";*	c #130C06",
">*	c #291919",
",*	c #46231F",
"'*	c #51251A",
")*	c #7A402C",
"!*	c #C5957E",
"~*	c #F9E4D1",
"{*	c #F1D3BB",
"]*	c #765D49",
"^*	c #6D5440",
"/*	c #DCBCA3",
"(*	c #9A604C",
"_*	c #5C2C1E",
":*	c #381C19",
"<*	c #110E05",
"[*	c #0C0E01",
"}*	c #221212",
"|*	c #654F37",
"1*	c #441E1B",
"2*	c #58281A",
"3*	c #804533",
"4*	c #C38F77",
"5*	c #FFEDDF",
"6*	c #F0DDCE",
"7*	c #B4947B",
"8*	c #70543E",
"9*	c #4B3829",
"0*	c #3C291B",
"a*	c #3D2A1B",
"b*	c #4E3928",
"c*	c #6F553E",
"d*	c #BE9F8A",
"e*	c #FAE7D8",
"f*	c #FFF9F1",
"g*	c #E5B6A2",
"h*	c #965C46",
"i*	c #673325",
"j*	c #371917",
"k*	c #2E1916",
"l*	c #241E10",
"m*	c #4F5356",
"n*	c #494846",
"o*	c #1B200C",
"p*	c #29251A",
"q*	c #2C1714",
"r*	c #361816",
"s*	c #431E18",
"t*	c #5B2A1C",
"u*	c #844734",
"v*	c #B7836D",
"w*	c #E8C5B2",
"x*	c #EBC4A7",
"y*	c #E0BBA1",
"z*	c #D7B295",
"A*	c #DBB292",
"B*	c #E7C7AE",
"C*	c #FCF5ED",
"D*	c #F5D9CB",
"E*	c #CC9D89",
"F*	c #8B5440",
"G*	c #4A2723",
"H*	c #221310",
"I*	c #14140A",
"J*	c #14130E",
"K*	c #0C0C0C",
"L*	c #48211A",
"M*	c #5B2B1F",
"N*	c #79422E",
"O*	c #986049",
"P*	c #D0987D",
"Q*	c #E1B49D",
"R*	c #F9D8C5",
"S*	c #F9D6C2",
"T*	c #F1CEBB",
"U*	c #C49784",
"V*	c #A26B57",
"W*	c #794530",
"X*	c #5F2F23",
"Y*	c #512B22",
"Z*	c #090506",
"`*	c #080A09",
" =	c #C7CCDF",
".=	c #1F1110",
"+=	c #451F1C",
"@=	c #552920",
"#=	c #653426",
"$=	c #763D2A",
"%=	c #824532",
"&=	c #975A45",
"*=	c #AE7A64",
"==	c #AE7762",
"-=	c #9C644D",
";=	c #8A513E",
">=	c #78412D",
",=	c #6A3B29",
"'=	c #5F3124",
")=	c #3E1F1D",
"!=	c #311514",
"~=	c #1D1E10",
"{=	c #0C0C0A",
"]=	c #383C23",
"^=	c #0F0E09",
"/=	c #363A2C",
"(=	c #321915",
"_=	c #582F29",
":=	c #4F221D",
"<=	c #5F2F21",
"[=	c #723F2C",
"}=	c #6A3628",
"|=	c #5A2A1E",
"1=	c #45221E",
"2=	c #2F1A17",
"3=	c #DDD371",
"4=	c #323314",
"5=	c #1B190D",
"6=	c #0C0D07",
"7=	c #150E08",
"8=	c #322826",
"9=	c #231610",
"0=	c #4C3223",
"a=	c #3A1B19",
"b=	c #724943",
"c=	c #4F2823",
"d=	c #512824",
"e=	c #4A231E",
"f=	c #43201E",
"g=	c #1E0F0C",
"h=	c #110C09",
"i=	c #271D13",
"j=	c #444341",
"k=	c #1A1408",
"l=	c #463838",
"m=	c #524127",
"n=	c #291411",
"o=	c #331918",
"p=	c #371B17",
"q=	c #3A1C1A",
"r=	c #3C1E1E",
"s=	c #371A16",
"t=	c #331716",
"u=	c #201816",
"v=	c #26210E",
"w=	c #100E01",
"x=	c #120F0A",
"y=	c #100903",
"z=	c #27190E",
"A=	c #1D0F0F",
"B=	c #231512",
"C=	c #333213",
"D=	c #0D0E08",
"E=	c #58562D",
"F=	c #FFFFF8",
"G=	c #120E0D",
"H=	c #291B10",
"I=	c #1E100D",
"J=	c #100C0B",
"K=	c #0A0809",
"L=	c #13120E",
"M=	c #070802",
"N=	c #222014",
"O=	c #161513",
"P=	c #070508",
"Q=	c #130907",
"R=	c #13100B",
"S=	c #2E2D0F",
"T=	c #090708",
"U=	c #0E0D0B",
"V=	c #18150E",
"W=	c #222013",
"X=	c #0F0705",
"Y=	c #19140E",
"Z=	c #17120C",
"`=	c #1C180C",
" -	c #36391A",
".-	c #090A05",
"+-	c #0F0B0A",
"@-	c #0F0909",
"#-	c #0B090A",
"$-	c #09070A",
"%-	c #1C1F0E",
"&-	c #0B0C07",
"*-	c #13140E",
"=-	c #484824",
"--	c #25271C",
";-	c #0F0E13",
">-	c #151110",
",-	c #0E0A09",
"'-	c #080901",
")-	c #14110A",
"!-	c #0B0803",
"~-	c #383F1E",
"{-	c #191313",
"]-	c #130F0E",
"^-	c #070707",
"/-	c #1A1A18",
"(-	c #0E0E06",
"_-	c #7E7D7B",
":-	c #515757",
"<-	c #808791",
"[-	c #0B0B0B",
"}-	c #1B1B13",
"|-	c #10110B",
"1-	c #373735",
"2-	c #14100F",
"3-	c #110F10",
"4-	c #080806",
"5-	c #44532C",
"6-	c #0A0702",
"7-	c #191813",
"8-	c #302F2D",
"  . + @ # # $ % & * & & & = - ; & > ; ; ; * > ; , ; ' * * ; > > ; ; ) ; ; ; ) * ; ; ; ; ! ; & ~ ; ; & ; ; & > # & # + # + . { ] ",
"+ ^ / # & # & & & & > & ( ; ; _ ; ; ; ; ; ; ; > > : > > ; > > < > ; > ; ( ; ; > ; ; ; ; > ; ; > ; [ } & ; $ & & | # { # # + + + ",
"+ > 1 # # # $ & & & 2 ; ; ; ; ; ; ; & ; > ) ; ; > 3 ) & > > > ; > >   ; ; > ; ; ; ( ; > ; & ; ; ; 4 * & 5 & & & $ 6 + # # + + 7 ",
"+ . . & # & & $ & & [ ; . ; * , > ; * 8 ( ; 9 > ; ; 5 > 0 0 0 | 0 0 a > b ) > _ > c d ; ; ; & > ; ; ; ; e $ & ; % $ # # + + + # ",
"# # # & > & & & $ $ ; ; ; ; > ; ; ; ; ; > f ; g * 0 0 0 h i 0 j 0 0 j j 0 k ( >   >   l ; ; > ; & ; ; * ; ; | e & # m   # + | + ",
"+ # n ; $ & & & ; ; ; o ; ; p ; ; > ; ; > * ' > 0 0 j q j j j r j j j p j s t u , ; > ; > ; ; ; ; : ; ; ; ; & ; & & $ # # + + # ",
"n & 7 v w & x ; ; ; ( y ; ; > ; ; > ; > ; > ) z z j A j j z z z z z z i j B z 0 0 8 0 ; & ; ; * ; } ; & ' ; & & & ; $ #   # n + ",
"& # & ; & & e & ; ; ; ' ; ; ; C > ; > ; j D E j r z F G H H I J J H r K L r j j j j 0 > * M * ; - ; ; > ; ; ; ; N & $ & $ # # + ",
". & $ $ & & ; ; O ; ; ; ; > w ; * ; ; | 0 j j r P z J J Q Q Q R F R F S T J J j U j K 0 V > > * : ; > ; ; ; ; ; > > & { & W . | ",
"# & > & & ; & ( ; > & ; ; > X [ > ~ X Y Z j z r J ` Q  ...+.@.#.@.$.%.&.*.Q =.J z j z j 0 > | -.; ; ; ; ;.; ; ; & & & 2 ; 7 # # ",
">.; > $ & ; ; ; & ; ( ; > > [ = * > ,.'.r j G ).!.R ~.$.{.].{.^./.(._.:.$.@.<.[.H z j K 0 }.> |.; ; ; ; ; $ > ; ) & & & = 1.& n ",
"$ & >.! ; > ; ; ; ; ; ; * > e > 0 0 0 j F !.J 2. .3.].4.5.6.7.8.7.9.0.a.b.c.d.@.R e.r f.z j > g.' ; ; ; ; & > & > & & $ & & h.# ",
"; & $ ; ; ; ; ; ; * i.2 X > > > 0 '.j F j.J R  .(.0.6.k.l.m.n.o.o.m.p.q.r.s.t.(.@.Q u.J z z A 0 ; l ; > > ; v.l ; & $ & & & & w.",
"$ $ > > ; ; ; ; ; ; ; x.> y.; V j j z H J z.A.B.C.k.D.E.F.G.H.I.J.K.L.M.N.O.k.P.Q.$.R.u.r S.T.U.V.* ; 5 W.; e ; ; & > l & $ n { ",
"& & & ; X.; ; w ; ; & ; ~ l ; 0 0 Y.S.H R Z.^.`. +.+F.++@+#+$+%+&+*+=+-+;+>+E.p.6._.$.,+'+F j )+!+> ~+; ; {+]+' 5 ; ; ^+& ; $ # ",
"/+% & > ; ; ; ; ; ; (+; - 0 _+j j :+J R <+[+}+|+1+2+3+4+5+6+7+8+9+0+a+b+c+d+e+N.f+g+/.#.h+i+r j+S.0 - > ; ; ; 5 ; > ; ; & ^ $ # ",
"> & ; ; ; ; & > ; ; > ; > 0 F r k+l+m+n+].`.|+o+p+q+r+s+t+u+v+w+x+y+z+A+B+C+c+++D+l.E+{.#.Q H r j 0 r > ; 5 ; ; l ; > ; ; /+w.# ",
"$ ; ; & 5 ; > ; * ; F+G+H+0 I+z z !.j+J+P.7.K+L+M+N+O+P+Q+R+S+T+U+V+W+X+Y+Z+`+ @.@+@p.@@#@#.` $@j %@&@> ; ; ; ^ ; ; ; & * & $ %@",
"& ( ; ; ; ; ; ; ~ ; > > 0 0 *@z u.Q #.=@7..+-@;@>@,@'@)@!@~@{@]@^@/@(@_@:@<@[@}@|@1@2@3@P.(.R J z j 4@0 * >.* ; ; > > 5@; & & & ",
"& & ; ; ; ; ; e ; ; > | '.j 6@G 7@A.(.@@D.8@$+a+9@0@a@b@c@d@e@f@g@h@i@j@k@l@m@n@o@p@q@r@s@=@ .t@z j u@0 ; v@( w@X ; ; ; & ( ; $ ",
"& ; ; ; ; ; > ; ; x@> * y@j S.J R $.P.p.z@A@B@C@D@E@F@G@H@j+G * j K j+I@J@K@L@M@N@O@P@>+f+4.Q@R@H j z 0 S@; > ; ; e & ; ; ( > & ",
"& ; ; & ; ; ; ; > T@A U@V@k+z J @.].W@X@Y@Z@`@ #.#+#@###> # ] ] ] ]   ( $#%#&#*#=#-#;#>#r@,#B.'#'+u.z )#> > ; ; t e ; !#; & ) * ",
"( ; ; ; ; ; ; ; ; ~#> 0 r {#]#!.#.^#l./#(#_#:#<#[#}#i # ] ] ] ] ] ] ] ] | ` |#1#2#3#4#5#6#7#8#].R H K j 9#; ; ; ; ; > 2 ; ; 0#$ ",
"* ; ; ; ; ; ; ; ; > 0 0 '.z J R =@a#b#c#d#e#f#g#h#j+# ] ] ] ] ] ] ] ] ] ] > i i#j#k#l#m#n#o#8.b. .u.j j 0 > > ~ > X ; > _ y.p#l ",
"; ; ; ; ; X ) ; > ; 0 0 z z u.#.q#r#s#t#u#v#w#x#y#/+] ] ] ] ] ] ] ] ] ] ] ] j z#A#B#C#D#E#D+F#t.$.!.G#H#0 > > I#J#K#( ; ; $ & , ",
"& ; ; ; L#$ M#; > m+0 0 r J Q ~.N#k.L.O#P#Q#R#S#* ] ] ] ] ] ] ] ] ] ] ] ] ] /+G T#U#V#W#X#Y#Z#4.].,+z `#j > ; * ~ ; ; * ; ; &  $",
"_ > ; ; ; ' > > ; >   j z J Q .$+$@$J.#$$$%$&$*$n ] ] ] ] ] ] ] ] ] ] ] ] ] ] 0 $#=$-$;$>$,$X@'$(.)$j+z j j > ( ; ; !$; 2 ; & ; ",
"$ ; ; & ; ; ; X > ; / j K J [.(.5.~${$]$^$/$($G ] ] ] ] ] ] ] ] ] ] ] ] ] ] ] n F _$:$<$[$}$|$l.b.1$u.z j 0 ; ; ; G+; ' & ; & & ",
"; & ; ; ; ; 2$3$; 0 j z r J 4$5$5.6$7$8$9$0$a$e ] ] ] ] ] ] ] ] ] ] ] ] ] ] ] ] z b$c$d$e$#$F.f$Q.@.Q g$'.j > ; ; ; ; > $ ; ; $ ",
"& > ; ; ; ; > > > ; 0 h$z i$j$k$l$m$n$o$p$q$r$n ] ] ] ] ] ] ] ] ] ] ] ] ] ] ] ] 0 s$t$u$v$w$x$y$t.~.Q z$j 0 N ; A$; ; ; & /+> & ",
"& & & ; ' ; ; ; ; > A z z Q #.B$q.G.Z@C$D$E$`#] ] ] ] ] ] ] ] ] ] ] ] ] ] ] ] ] ; j.F$G$H$I$q@f+J$Z.R z _+0 V.( > ; ; ; ; ; & K$",
"& , > - ; ; ; ( > > j j r !.@./.l.L.L$M$N$O$S.] ] ] ] ] ] ] ] ] ] ] ] ] ] ] ] ] & S.P$Q$x+R$S$m.6.T$m+U$V$j+W$[ > ' ; ; ; ; ; & ",
"& ; ; ; > ; > ; ; > j j r X$Y$Q.l.Z$`$ %.%+%F ] ] ] ] ] ] ] ] ] ] ] ] ] ] ] ] ] n S.@%#%$%%%&%1+t.~.R *%j+> 0 ; & ; > ; ; & X.& ",
"& =%; ; ; ; ; ; > ( 0 j r m+B$4.-%q@;%>%,%'%F ] ] ] ] ] ] ] ] ] ] ] ] ] ] ] ] ]   S.)%!%~%{%]%b#P.#.T$r j e F > ; > ~ ; ; e & & ",
"; ; ; ; ; ; ; ; > 0 0 j S.!.@..$^%2+/%(%_%:%i ] ] ] ] ] ] ] ] ] ] ] ] ] ] ] ] ] ; S.<%[%}%|%1%2%P.#.<.r j j > 3%; 4%> ; 5%; ; $ ",
"& & ; ) ; * * j > 0 X.6%r u.#..$^%7%8%9%0%a%##+ ] ] ] ] ] ] ] ] ] ] ] ] ] ] ] ] j j+b%c%d%e%f%m.P.#.R r j 0 > > ; ; > > ; ; & & ",
"; g%; 5 ; ; * p ; [ j j z u.#.Q.-%h%i%j%k%l%m%  ] ] ] ] ] ] ] ] ] ] ] ] ] ] ] ] z n%o%p%q%r%s%t%Q.u%u.z j 0 * * ; ; ; ; ; & & & ",
"; & > ; ; v%; ; w%x%0 z r J  .k$k.y%z%A%B%C%D%0 ] ] ] ] ] ] ] ] ] ] ] ] ] ] ] & G E%F%G%H%I%s%k.B$J%u.G j 0 p ;   K%> L%M%5 & e ",
"; ; ; ; ' N%; ; O%=%0 0 P%J k$(.g+s#Q%R%S%T%U%F + ] ] ] ] ] ] ] ] ] ] ] ] ] ] | S.V%W%X%Y%Z%`% &=@ .u.z j 0 ; ; ; > 6 7 ; & & & ",
"; ; ; ; ; > ; ; < .&0 > j H Q #.4.o.L.Z@+&@&#&$&  ] ] ] ] ] ] ] ] ] ] ] ] ] + z %&&&*&=&-&;&>&@@].m+u.j j z   ; _ ,&> ; ; ; & & ",
"& ; 5%; ; ; * '&9 ; 0 )&j r !.!&t.~&M.{&]&<@^&/&K # ] ] ] ] ] ] ] ] ] ] ] ] | S.(&_&:&<&[&}&|&P.'#1&2&F 0 3&* ; ) 4&; & ; & & & ",
"; e ; >.( ; ; ; ; * 5&0 j z <.6&b.r.o.7&8&9&0&a&b&>.+ ] ] ] ] ] ] ] ] ] ] e z n%c&d&e&f&g&h& &i&#.u.j&z 0 U.> ; ; ; N ; > & ; ; ",
"; & ; > ) & ; ; ; > > 0 0 z T k&$.9.l&s%m&n&o&p&q&j.> + ] ] ] ] ] ] ] ] ; z j.r&s&t&u&v&w&x&9.$. .u.i j 0 ; ; > > e ; ; & & & ; ",
"e ; y&& ' -.; ; > ~ > 5 '.z z 1&@./.l.z&A&B&C&D&E&F&i z ; ] ] ] ] ]   > z i G&H&I&J&K&L&M&N&0.#.Q j+z$O&0 ; ; ; ; ; l & & & & > ",
"; > P&; * > ; * _ > ; j A j z Q&R (.J$R&S&T&U&V&W&X&F&Y&F j Z&; ; j z F *$`& *.*+*@*#*$*%*&*]. .**z =*,&0 H+* > ; ; ; > | $ & > ",
"-** > * ; ; ; ; ; ; * 0 0 j r J ;*(.Q.>*y%,*'*)*!*~*{*]*a$2&i S.S.S.*$a$^*/*!%9$(*_*3+:*f+t.@.R H z z <*> ; ; ; > ; ; ; ; & & $ ",
"; > > > ; [*; ; ; ; > ; ~ G j z T m+c.}*|*M.1*2*3*4*5*6*7*8*9*0*a*b*c*d*e*f*g*h*i*t#j*k*}*^. .l*z j j > > > ; ; ~ > ; ; & ; & # ",
"| ; ; m*> ; * ; > ; n*> o*0 j z p*!.@.Q@'$q*r*s*t*u*v*w*U+x*y*z*A*B*e*C*D*E*F*0+#+G*E.H*B$].R F r j 0 > 7 ; ; ; ; ; ; I*& ; & $ ",
"; > ; J*> > ; 5 N ~ ; > K*0 0 j H u.<.{.t.'$m.G.L*M*N*O*w+P*Q*R*S*T+T*U*V*W*X*Y*2+2@q.P.]. .` Z*z j > > l ; ; * ; & ; ; & & & $ ",
"`*e l ; > ' > ; ; ; ; >  =0 j z$G r !.<.B$.=6.2%H.+=@=#=$=%=&=*===-=;=>=,='=-+)=!=l.t.(.@.R H z j z 0 * > ; ~=& ; {=> ; $ $ n # ",
"7 > l ]=> > ^=/=; & * ; ; > 0 0 j z u.Q #.(.t.7.q*(=8@_=:=d#<=m#[=}=|=@=g&1=)=2=p.@@{.#.3=h+4=5=j * G+= & ; ; ; ; 6=e & ; $ & | ",
"X.> ( e ) > * > ; ; ; ; ~ > 0 0 j '.7=J i 8='#9=r.y$0=a=b=Q%c=d=i%e=+=f=M.|$-%k.g=c. .h=J r j j * ) ' ; ' ; ; & & ; ; e $ ~#& # ",
"* ' * > l * > > > ; ; i=; > j=0 j j S.z J k=l=(.m=6.k.n=o.o=p=q=r=s=t=E.b#q.}+/.$. .R u=i z F j 0 > > ; ; ; ; ; ; ; ; & & $ v%& ",
"v=X.X.' * 5 > ; > ' ) ; ; > w=> 0 ' j F z x=y= .(.Q.z=A=7.p.p.m.O.p.q.t%g+P.B=$. .R u.z z j X 0 > > > ; ; ; ; C=; & e $ %   & x@",
"W.D=* l * * > E=> > ; ; ; ; > > ; F=0 j z G=J Q <.~.].].H=4.I=P.t.t.t.P.Q.(.#.#.` 1&r G j 0 J=> ; ; > ; ; ; ; K=; ; & & > & # # ",
"L=&@W.* * * ( ( > > M=; ; ; ; > > ; 0 0 j z r J !.m+ .#.~.(.].].{.(.(.(.@.1$X$u.u.G r j K 0 > > ; ; 2 N=0 V ; ; ; O=; & $ $ ; # ",
") ' ( P=W.W.* > l > > e ; > ; ; _ | j j j j J H J ` @.*.*. . . . .Q=#. .,+Q J H z z j R=j 0 > ; 0 0 0 > S=> > > ; * ; & > $ # + ",
"_ ) T=&@U=( * * > * > ; ; ; ; 0 0 0 $#j '.V=W=j J T H ` ` X=Q <.Y=` ` u.J Z=z j j j - 0 8 > 0 `=| > > >  -* > > >   ; .-p#& $ + ",
"+-@-#-$-&@( * * X.> > ; ; j r j ~ z ##5 2 N G '.G G G H J J J J J F x=r j z 0 j j 0 > | > _ > %-> > > > | ^=> > - ;   ; ; ; & # ",
"G=P G+K=&-W.* *-( > > ; p 0 0 U.> > > > > [ : ( j =-j G G j+H z H H r z --j U@j * ; > j 0 _ > > [ > > > > > Q&* > > { ;-  { # # ",
">-G=,-[ &@W.X.X.* ( > ' '-K > H+[ > * > > A '.'.'.)-'.j+i '.!-~-j Z*j j 0 j * 0 > > 0 0 > X * > j j > > * [ * > > > e ; e %@# { ",
"{-]-4 4 W.^-( X.> * ! > Z&> > > > './-j (-j j z z ,-z z '.G j j '.j j j j ~ 0 ; > _ 0 ) > > _-> j * * * * >.* > * > > l e e n # ",
"{-]-{=:-T=<-W.* U@* [-* ) > X j j j z ^=r S.j z z G j j z$z z j j * j }-K j > ; M%0 > > > j * 0 * * |-( z ( j - * >.X.> ) e e { ",
"1-2-P 3-T=T=&@z j * 4-( ; > j ' 0 j z z F z z 5-G G 6-j z > z j G > X l 7-r P ; j > ' 8-j j * $#>.z z ( F r G z z r * > l > e e "};
