/* XPM */
static char * floor_xpm[] = {
"64 64 2299 2",
"  	c #99796A",
". 	c #8E6D5A",
"+ 	c #8C6955",
"@ 	c #A78772",
"# 	c #92725D",
"$ 	c #91715C",
"% 	c #957560",
"& 	c #937460",
"* 	c #A98A78",
"= 	c #977762",
"- 	c #A2877E",
"; 	c #948484",
"> 	c #9B9096",
", 	c #A2979D",
"' 	c #977F73",
") 	c #967B72",
"! 	c #90756A",
"~ 	c #9B8075",
"{ 	c #AF9892",
"] 	c #9C9090",
"^ 	c #9A8B8E",
"/ 	c #9C8C8D",
"( 	c #896E5D",
"_ 	c #957664",
": 	c #937364",
"< 	c #988074",
"[ 	c #937B6F",
"} 	c #967B68",
"| 	c #8C705B",
"1 	c #9D8173",
"2 	c #997D71",
"3 	c #957C75",
"4 	c #957D73",
"5 	c #96827B",
"6 	c #95827E",
"7 	c #99857E",
"8 	c #927D78",
"9 	c #947F7C",
"0 	c #9A8486",
"a 	c #816154",
"b 	c #967969",
"c 	c #A08478",
"d 	c #91796D",
"e 	c #A1897F",
"f 	c #95796D",
"g 	c #987C6E",
"h 	c #937769",
"i 	c #977C73",
"j 	c #9A8685",
"k 	c #94858A",
"l 	c #947C7A",
"m 	c #9E8580",
"n 	c #A68B84",
"o 	c #9A7F74",
"p 	c #896E63",
"q 	c #9B827D",
"r 	c #A28E8D",
"s 	c #968283",
"t 	c #9F8785",
"u 	c #9C878C",
"v 	c #A69699",
"w 	c #927A76",
"x 	c #9D8176",
"y 	c #A68A7E",
"z 	c #987764",
"A 	c #967562",
"B 	c #92725B",
"C 	c #A38472",
"D 	c #9F8169",
"E 	c #957662",
"F 	c #8F705C",
"G 	c #8D6A54",
"H 	c #97888B",
"I 	c #918589",
"J 	c #8F7E77",
"K 	c #998079",
"L 	c #9D8279",
"M 	c #987E71",
"N 	c #95796B",
"O 	c #9C8176",
"P 	c #998680",
"Q 	c #988888",
"R 	c #9D8D8E",
"S 	c #A89A99",
"T 	c #9A7B69",
"U 	c #866755",
"V 	c #907669",
"W 	c #9E887D",
"X 	c #A3887F",
"Y 	c #A18472",
"Z 	c #9A7D6D",
"` 	c #987C70",
" .	c #A18C87",
"..	c #9C857D",
"+.	c #A2877C",
"@.	c #85695B",
"#.	c #9C7F77",
"$.	c #917C79",
"%.	c #9F8A87",
"&.	c #A2867A",
"*.	c #977A6C",
"=.	c #9A7C71",
"-.	c #8B7065",
";.	c #AC958F",
">.	c #B1998F",
",.	c #977866",
"'.	c #8E6E5F",
").	c #927567",
"!.	c #97796E",
"~.	c #8F8387",
"{.	c #A0939D",
"].	c #86716E",
"^.	c #9A8783",
"/.	c #9E8F96",
"(.	c #A09198",
"_.	c #917569",
":.	c #9B7D72",
"<.	c #927162",
"[.	c #8B6B60",
"}.	c #907874",
"|.	c #958180",
"1.	c #998483",
"2.	c #8E7161",
"3.	c #977D6E",
"4.	c #9D7E6A",
"5.	c #9D806E",
"6.	c #A68977",
"7.	c #906F5C",
"8.	c #A18270",
"9.	c #93735E",
"0.	c #876750",
"a.	c #9B7A67",
"b.	c #987B6B",
"c.	c #96878A",
"d.	c #9E9198",
"e.	c #9C8E8E",
"f.	c #967E74",
"g.	c #A38D82",
"h.	c #998175",
"i.	c #8F7463",
"j.	c #9B8174",
"k.	c #A1867B",
"l.	c #948077",
"m.	c #9E8C8A",
"n.	c #A29390",
"o.	c #A3857A",
"p.	c #957868",
"q.	c #967A6E",
"r.	c #947E73",
"s.	c #AA9992",
"t.	c #9A7D6B",
"u.	c #A08371",
"v.	c #9C7F6D",
"w.	c #8E7362",
"x.	c #A48980",
"y.	c #95796E",
"z.	c #A68E84",
"A.	c #A48F8C",
"B.	c #91766D",
"C.	c #AC9186",
"D.	c #A4887D",
"E.	c #8F746B",
"F.	c #A28B85",
"G.	c #977A6A",
"H.	c #9F8479",
"I.	c #907267",
"J.	c #9D8180",
"K.	c #918289",
"L.	c #9E919A",
"M.	c #9C8C8F",
"N.	c #A79CA2",
"O.	c #90868E",
"P.	c #8F848C",
"Q.	c #886C60",
"R.	c #8F6E5D",
"S.	c #8D6C59",
"T.	c #A08277",
"U.	c #8F7672",
"V.	c #927D7C",
"W.	c #A38D8F",
"X.	c #A48777",
"Y.	c #9D7C69",
"Z.	c #9E7D6A",
"`.	c #997A65",
" +	c #93745F",
".+	c #AA8B77",
"++	c #9A7966",
"@+	c #85654E",
"#+	c #8C6B5A",
"$+	c #9D8070",
"%+	c #998A8D",
"&+	c #A09196",
"*+	c #917D7C",
"=+	c #A58E88",
"-+	c #A9A0A5",
";+	c #997F70",
">+	c #A1877A",
",+	c #AB9486",
"'+	c #9A8375",
")+	c #9F877B",
"!+	c #967F77",
"~+	c #84685A",
"{+	c #988076",
"]+	c #A58B7E",
"^+	c #9C7F6F",
"/+	c #937462",
"(+	c #A58876",
"_+	c #A08373",
":+	c #957A6F",
"<+	c #AA918A",
"[+	c #967B70",
"}+	c #A58A83",
"|+	c #A2908E",
"1+	c #AB9796",
"2+	c #A48982",
"3+	c #A28780",
"4+	c #A18581",
"5+	c #A4908F",
"6+	c #AA9592",
"7+	c #9F8882",
"8+	c #A18F8B",
"9+	c #9E8B85",
"0+	c #947F7A",
"a+	c #9F94A4",
"b+	c #A9A0B1",
"c+	c #998890",
"d+	c #948485",
"e+	c #9D939B",
"f+	c #938991",
"g+	c #A297A5",
"h+	c #A39595",
"i+	c #906F5E",
"j+	c #937261",
"k+	c #997D72",
"l+	c #9F939D",
"m+	c #A89EA7",
"n+	c #A7989D",
"o+	c #A48571",
"p+	c #9F836E",
"q+	c #947863",
"r+	c #94745D",
"s+	c #9E7F6D",
"t+	c #8B6C58",
"u+	c #987B6D",
"v+	c #9C8889",
"w+	c #A79798",
"x+	c #AE9E9F",
"y+	c #9B8A83",
"z+	c #9A8780",
"A+	c #A7938C",
"B+	c #93796C",
"C+	c #907564",
"D+	c #A58C85",
"E+	c #A69085",
"F+	c #9C8072",
"G+	c #9F8377",
"H+	c #8A6D5D",
"I+	c #927361",
"J+	c #937664",
"K+	c #987965",
"L+	c #9F806E",
"M+	c #836452",
"N+	c #9B7F73",
"O+	c #A68D86",
"P+	c #8F7368",
"Q+	c #95776C",
"R+	c #927A70",
"S+	c #A08A7F",
"T+	c #A28982",
"U+	c #AF948B",
"V+	c #8C7265",
"W+	c #987D72",
"X+	c #9A8073",
"Y+	c #8C7468",
"Z+	c #9A837D",
"`+	c #9C8782",
" @	c #9C929D",
".@	c #988E99",
"+@	c #948389",
"@@	c #948282",
"#@	c #9E8E8F",
"$@	c #8E8286",
"%@	c #998989",
"&@	c #826553",
"*@	c #9E8173",
"=@	c #8C6F67",
"-@	c #908186",
";@	c #938791",
">@	c #9E8E91",
",@	c #AE8F7B",
"'@	c #8F6F5A",
")@	c #AD9082",
"!@	c #977A68",
"~@	c #AD9688",
"{@	c #A78C79",
"]@	c #94715B",
"^@	c #977663",
"/@	c #95786A",
"(@	c #A38B7F",
"_@	c #92817A",
":@	c #A49592",
"<@	c #968075",
"[@	c #A08D86",
"}@	c #9C8983",
"|@	c #A5938F",
"1@	c #A28E87",
"2@	c #A6918E",
"3@	c #998177",
"4@	c #A48F8A",
"5@	c #AA938B",
"6@	c #927565",
"7@	c #907363",
"8@	c #947767",
"9@	c #997A68",
"0@	c #A0816F",
"a@	c #9F8270",
"b@	c #A48775",
"c@	c #A28C7F",
"d@	c #AA9590",
"e@	c #9F867F",
"f@	c #957866",
"g@	c #9F8578",
"h@	c #9E8378",
"i@	c #907361",
"j@	c #A3887D",
"k@	c #A6918C",
"l@	c #9C8478",
"m@	c #978176",
"n@	c #8E756E",
"o@	c #9B847E",
"p@	c #988B94",
"q@	c #A19299",
"r@	c #9A8688",
"s@	c #A49292",
"t@	c #918383",
"u@	c #9E8F94",
"v@	c #94766B",
"w@	c #8F7167",
"x@	c #907772",
"y@	c #8C7D82",
"z@	c #A197A2",
"A@	c #9A8A8B",
"B@	c #90715D",
"C@	c #A1826E",
"D@	c #9D7E6C",
"E@	c #AF9691",
"F@	c #926F59",
"G@	c #A07F6E",
"H@	c #A4897E",
"I@	c #9A817A",
"J@	c #A38B81",
"K@	c #A8938E",
"L@	c #9F8C85",
"M@	c #A28A80",
"N@	c #A48C82",
"O@	c #A18D86",
"P@	c #A7948E",
"Q@	c #96837D",
"R@	c #9F8C88",
"S@	c #A18D8C",
"T@	c #97837C",
"U@	c #9C8074",
"V@	c #987869",
"W@	c #856654",
"X@	c #8A6D5B",
"Y@	c #A38676",
"Z@	c #A58A75",
"`@	c #8F705E",
" #	c #A18F8D",
".#	c #987C71",
"+#	c #9E8984",
"@#	c #93776B",
"##	c #917462",
"$#	c #A28678",
"%#	c #9F8D83",
"&#	c #94796E",
"*#	c #91796F",
"=#	c #9E867C",
"-#	c #997E75",
";#	c #886F6A",
">#	c #968281",
",#	c #917D7E",
"'#	c #978281",
")#	c #9C8480",
"!#	c #98847D",
"~#	c #857166",
"{#	c #A08D87",
"]#	c #806355",
"^#	c #957870",
"/#	c #978486",
"(#	c #90838A",
"_#	c #91848D",
":#	c #98878D",
"<#	c #A68773",
"[#	c #8E6F5D",
"}#	c #A18474",
"|#	c #9B7C68",
"1#	c #91715A",
"2#	c #A4846D",
"3#	c #9E7B65",
"4#	c #947259",
"5#	c #9B7F74",
"6#	c #9E877F",
"7#	c #A18881",
"8#	c #A38C86",
"9#	c #9E867A",
"0#	c #A28E85",
"a#	c #9B877E",
"b#	c #927E77",
"c#	c #9D8988",
"d#	c #9C8985",
"e#	c #A99B9A",
"f#	c #AA8F84",
"g#	c #9E8274",
"h#	c #A08476",
"i#	c #8F7365",
"j#	c #96796B",
"k#	c #AD9281",
"l#	c #9A7E70",
"m#	c #9F8D89",
"n#	c #ABA3AE",
"o#	c #A49CA9",
"p#	c #9C887F",
"q#	c #9D8175",
"r#	c #9E9294",
"s#	c #A1989B",
"t#	c #A28D88",
"u#	c #9E816F",
"v#	c #A98C7C",
"w#	c #A88D82",
"x#	c #A58A81",
"y#	c #A68F87",
"z#	c #9D8277",
"A#	c #A48E90",
"B#	c #9F8B8C",
"C#	c #9D8887",
"D#	c #A18985",
"E#	c #8B7874",
"F#	c #A39491",
"G#	c #8A6C61",
"H#	c #9D817E",
"I#	c #9F8F92",
"J#	c #928388",
"K#	c #8B7C81",
"L#	c #9B8C8F",
"M#	c #9D8271",
"N#	c #A28671",
"O#	c #8C6A51",
"P#	c #916F56",
"Q#	c #8F6D54",
"R#	c #967763",
"S#	c #A99491",
"T#	c #88746D",
"U#	c #9D8A83",
"V#	c #A7928D",
"W#	c #9C867B",
"X#	c #997E73",
"Y#	c #A78F83",
"Z#	c #B29A90",
"`#	c #A18D84",
" $	c #A39089",
".$	c #AD9A93",
"+$	c #917466",
"@$	c #A2887B",
"#$	c #A28879",
"$$	c #9E8372",
"%$	c #A3877B",
"&$	c #9C8075",
"*$	c #A98D81",
"=$	c #9E8E8E",
"-$	c #9B7F71",
";$	c #938585",
">$	c #9D8F8F",
",$	c #8A6E62",
"'$	c #A58878",
")$	c #997D6F",
"!$	c #8A6E60",
"~$	c #9F847B",
"{$	c #99817F",
"]$	c #9C8881",
"^$	c #8A7268",
"/$	c #957E78",
"($	c #9B8E95",
"_$	c #A79CA4",
":$	c #908083",
"<$	c #9D8C92",
"[$	c #A6959B",
"}$	c #987F78",
"|$	c #A89183",
"1$	c #906D59",
"2$	c #A58A77",
"3$	c #9E7E69",
"4$	c #9A7A65",
"5$	c #90705B",
"6$	c #997B70",
"7$	c #988277",
"8$	c #A49290",
"9$	c #A39092",
"0$	c #8A6B56",
"a$	c #997C6C",
"b$	c #A18476",
"c$	c #997F72",
"d$	c #A58D81",
"e$	c #997E6B",
"f$	c #977C6B",
"g$	c #9A7F6E",
"h$	c #A08679",
"i$	c #A48A7B",
"j$	c #94786C",
"k$	c #937668",
"l$	c #977F75",
"m$	c #AB9693",
"n$	c #987B69",
"o$	c #A49696",
"p$	c #9F9397",
"q$	c #A98E85",
"r$	c #9D816C",
"s$	c #9B7C6A",
"t$	c #9F8375",
"u$	c #AE9692",
"v$	c #8C746A",
"w$	c #9E8986",
"x$	c #9B8079",
"y$	c #9D8D8D",
"z$	c #AA9BA0",
"A$	c #AD9DA0",
"B$	c #886C61",
"C$	c #998584",
"D$	c #978488",
"E$	c #95898D",
"F$	c #A89EA6",
"G$	c #ABA0A8",
"H$	c #A0887C",
"I$	c #A18570",
"J$	c #AE968A",
"K$	c #977C71",
"L$	c #A18C8B",
"M$	c #A89694",
"N$	c #8E7467",
"O$	c #A29396",
"P$	c #A3918F",
"Q$	c #967967",
"R$	c #947765",
"S$	c #957A69",
"T$	c #9F8473",
"U$	c #A58B7A",
"V$	c #987D6A",
"W$	c #997C6A",
"X$	c #A18577",
"Y$	c #9B7E6C",
"Z$	c #927766",
"`$	c #9E8171",
" %	c #876B5D",
".%	c #9A8477",
"+%	c #977B6D",
"@%	c #967F79",
"#%	c #A09494",
"$%	c #947A69",
"%%	c #8F7260",
"&%	c #A38678",
"*%	c #927668",
"=%	c #A78B80",
"-%	c #8F766F",
";%	c #9E8781",
">%	c #927972",
",%	c #9A7D75",
"'%	c #9F8C86",
")%	c #9D8B89",
"!%	c #A19393",
"~%	c #A898A2",
"{%	c #ABA1AA",
"]%	c #93868D",
"^%	c #A696A0",
"/%	c #A398A0",
"(%	c #ABA1A9",
"_%	c #9F9191",
":%	c #AC9995",
"<%	c #9A7B67",
"[%	c #988275",
"}%	c #927C6F",
"|%	c #9E8477",
"1%	c #A68F89",
"2%	c #A4938C",
"3%	c #948280",
"4%	c #AC9E9E",
"5%	c #A48978",
"6%	c #9C8170",
"7%	c #AE9382",
"8%	c #9A7F6C",
"9%	c #977B66",
"0%	c #A18673",
"a%	c #A78C7B",
"b%	c #AF9483",
"c%	c #A28575",
"d%	c #AF9282",
"e%	c #AA8F86",
"f%	c #9F8B82",
"g%	c #A38B87",
"h%	c #A48D85",
"i%	c #9B7E6E",
"j%	c #947563",
"k%	c #987A6F",
"l%	c #9C8784",
"m%	c #AA9697",
"n%	c #9F8A85",
"o%	c #A58C87",
"p%	c #B2A0A0",
"q%	c #AB989A",
"r%	c #947B76",
"s%	c #A699A0",
"t%	c #978989",
"u%	c #A39594",
"v%	c #A09498",
"w%	c #998785",
"x%	c #A0887E",
"y%	c #987863",
"z%	c #90715C",
"A%	c #AEA0A0",
"B%	c #9B7F6A",
"C%	c #92786B",
"D%	c #A69291",
"E%	c #A3908C",
"F%	c #A58B7C",
"G%	c #8B6F61",
"H%	c #9E8370",
"I%	c #A38875",
"J%	c #947968",
"K%	c #978072",
"L%	c #9F897E",
"M%	c #A68C7D",
"N%	c #997D68",
"O%	c #8D725D",
"P%	c #957A67",
"Q%	c #AE917F",
"R%	c #AC8F7D",
"S%	c #8A6F5E",
"T%	c #A9928A",
"U%	c #AC988F",
"V%	c #8E6F5B",
"W%	c #A58672",
"X%	c #9C7D68",
"Y%	c #94745F",
"Z%	c #92735F",
"`%	c #947560",
" &	c #917260",
".&	c #A0857C",
"+&	c #937E7B",
"@&	c #A4989C",
"#&	c #947C78",
"$&	c #B59D99",
"%&	c #9D8883",
"&&	c #9B8786",
"*&	c #9B7E70",
"=&	c #A4918D",
"-&	c #A38F8E",
";&	c #977F7B",
">&	c #947874",
",&	c #A49089",
"'&	c #987861",
")&	c #A0806B",
"!&	c #9A8278",
"~&	c #A69B9F",
"{&	c #9A7D6F",
"]&	c #9D7D6E",
"^&	c #A3908A",
"/&	c #9B8989",
"(&	c #AB9B9B",
"_&	c #A4887C",
":&	c #A18675",
"<&	c #987D6C",
"[&	c #9F8471",
"}&	c #A28776",
"|&	c #A69287",
"1&	c #98847B",
"2&	c #A99386",
"3&	c #A58A79",
"4&	c #A38877",
"5&	c #AB8E7C",
"6&	c #937867",
"7&	c #A89285",
"8&	c #B1998D",
"9&	c #947C70",
"0&	c #A3897C",
"a&	c #A78B7F",
"b&	c #A3846F",
"c&	c #86664F",
"d&	c #A4887A",
"e&	c #B19F9D",
"f&	c #AE9C98",
"g&	c #9F847D",
"h&	c #988B92",
"i&	c #AFA4AC",
"j&	c #A38E8B",
"k&	c #9D8982",
"l&	c #A38E89",
"m&	c #AA968F",
"n&	c #A18579",
"o&	c #A89591",
"p&	c #A0857E",
"q&	c #9F827A",
"r&	c #AE9181",
"s&	c #AA8D7B",
"t&	c #A08574",
"u&	c #9A8071",
"v&	c #A79B9B",
"w&	c #AB9997",
"x&	c #9C8982",
"y&	c #9D8376",
"z&	c #988171",
"A&	c #AA9081",
"B&	c #8E715F",
"C&	c #A39183",
"D&	c #A59186",
"E&	c #A79486",
"F&	c #A38978",
"G&	c #977C69",
"H&	c #A68B78",
"I&	c #9B8881",
"J&	c #A7908A",
"K&	c #A88D84",
"L&	c #A1867D",
"M&	c #876A58",
"N&	c #AD907E",
"O&	c #967C6D",
"P&	c #A9908C",
"Q&	c #A89392",
"R&	c #907E7E",
"S&	c #968385",
"T&	c #98837E",
"U&	c #8E7267",
"V&	c #94776F",
"W&	c #A38881",
"X&	c #A99692",
"Y&	c #9A7F76",
"Z&	c #A3877C",
"`&	c #907059",
" *	c #927259",
".*	c #B39C94",
"+*	c #AD9589",
"@*	c #977D70",
"#*	c #A19086",
"$*	c #A79998",
"%*	c #A38C84",
"&*	c #9D867E",
"**	c #AB9184",
"=*	c #A78D7E",
"-*	c #A38C7C",
";*	c #9F8576",
">*	c #A68C7B",
",*	c #A39288",
"'*	c #A5948D",
")*	c #B1A3A2",
"!*	c #A99185",
"~*	c #9D8579",
"{*	c #A78E87",
"]*	c #AA918C",
"^*	c #A98F82",
"/*	c #A68B80",
"(*	c #A99187",
"_*	c #977B6F",
":*	c #9B8379",
"<*	c #AD9289",
"[*	c #AA8F88",
"}*	c #AA9793",
"|*	c #A08B86",
"1*	c #99827A",
"2*	c #A78D80",
"3*	c #9B7B64",
"4*	c #9A7A63",
"5*	c #9A7B66",
"6*	c #AD948D",
"7*	c #9F887A",
"8*	c #967C6F",
"9*	c #9D847D",
"0*	c #AC948A",
"a*	c #9A8373",
"b*	c #8F7662",
"c*	c #9D877C",
"d*	c #8C715E",
"e*	c #A88E7F",
"f*	c #A48976",
"g*	c #A98E7B",
"h*	c #96837C",
"i*	c #B39A93",
"j*	c #9E8277",
"k*	c #917464",
"l*	c #A99089",
"m*	c #A18A84",
"n*	c #A38F90",
"o*	c #AE9388",
"p*	c #8C7064",
"q*	c #A68A7F",
"r*	c #A48C88",
"s*	c #AB9995",
"t*	c #9D827B",
"u*	c #A99999",
"v*	c #AC9A9A",
"w*	c #977864",
"x*	c #A18168",
"y*	c #9A7763",
"z*	c #A3897A",
"A*	c #987E6F",
"B*	c #A58D83",
"C*	c #A69293",
"D*	c #A4918B",
"E*	c #A99797",
"F*	c #A08C81",
"G*	c #8F735E",
"H*	c #A59A98",
"I*	c #A58E80",
"J*	c #AA9385",
"K*	c #A08677",
"L*	c #977D6C",
"M*	c #907562",
"N*	c #9D8372",
"O*	c #AA9791",
"P*	c #A8958F",
"Q*	c #A88C81",
"R*	c #AD958B",
"S*	c #9F8681",
"T*	c #9C898B",
"U*	c #AB9894",
"V*	c #AD9690",
"W*	c #9F8274",
"X*	c #A58880",
"Y*	c #A5897E",
"Z*	c #8F7264",
"`*	c #B39891",
" =	c #998272",
".=	c #9C7D69",
"+=	c #A38470",
"@=	c #9B7960",
"#=	c #997F6E",
"$=	c #B1A5A5",
"%=	c #98857F",
"&=	c #B29F9B",
"*=	c #9E9495",
"==	c #A59FA9",
"-=	c #A8A1A8",
";=	c #9D8374",
">=	c #A18B80",
",=	c #967F6F",
"'=	c #A88E81",
")=	c #9E8779",
"!=	c #AF9B92",
"~=	c #987E6D",
"{=	c #A28774",
"]=	c #AD9386",
"^=	c #9C847A",
"/=	c #AB9999",
"(=	c #9F8F8F",
"_=	c #9C857F",
":=	c #A38D80",
"<=	c #9C7F71",
"[=	c #A78A7C",
"}=	c #917162",
"|=	c #92766A",
"1=	c #9A7E72",
"2=	c #896C5E",
"3=	c #A4877F",
"4=	c #A98E83",
"5=	c #A69395",
"6=	c #A5897B",
"7=	c #A0816D",
"8=	c #A1816C",
"9=	c #A58674",
"0=	c #987C66",
"a=	c #947D6F",
"b=	c #B09C95",
"c=	c #ADA2A0",
"d=	c #A49598",
"e=	c #AE9FA2",
"f=	c #867377",
"g=	c #9D8C85",
"h=	c #AFAAB1",
"i=	c #9C979E",
"j=	c #9B9190",
"k=	c #ADA1A5",
"l=	c #A89287",
"m=	c #9C8275",
"n=	c #A68C7F",
"o=	c #AC9285",
"p=	c #998378",
"q=	c #A7938A",
"r=	c #AD968E",
"s=	c #AB978E",
"t=	c #A5908D",
"u=	c #A79996",
"v=	c #A8948D",
"w=	c #9A837B",
"x=	c #A1897D",
"y=	c #8B6A57",
"z=	c #A28273",
"A=	c #B19C97",
"B=	c #947561",
"C=	c #937666",
"D=	c #94786D",
"E=	c #A18172",
"F=	c #93725F",
"G=	c #967661",
"H=	c #AA8E82",
"I=	c #AD9185",
"J=	c #8C6F5F",
"K=	c #95837F",
"L=	c #A39CA3",
"M=	c #9B7B66",
"N=	c #9F806C",
"O=	c #A49997",
"P=	c #A3928B",
"Q=	c #A18E87",
"R=	c #A18E88",
"S=	c #A29292",
"T=	c #B09B98",
"U=	c #937B71",
"V=	c #A18A7C",
"W=	c #A8989B",
"X=	c #AFABB9",
"Y=	c #95817A",
"Z=	c #A6938F",
"`=	c #917567",
" -	c #A09090",
".-	c #AD9E9B",
"+-	c #A28B83",
"@-	c #988173",
"#-	c #AB9389",
"$-	c #A48A7D",
"%-	c #A39393",
"&-	c #A19690",
"*-	c #AC9B94",
"=-	c #8F7461",
"--	c #ABA1AC",
";-	c #ADA7B1",
">-	c #886756",
",-	c #A38779",
"'-	c #A78C81",
")-	c #9D7D68",
"!-	c #9D7C6B",
"~-	c #A08B88",
"{-	c #A99CA3",
"]-	c #A18E92",
"^-	c #988A87",
"/-	c #A59393",
"(-	c #A9A2AA",
"_-	c #AB8E80",
":-	c #AB8F7A",
"<-	c #A5928C",
"[-	c #A49A9B",
"}-	c #AFA3A3",
"|-	c #A99594",
"1-	c #9C8E8D",
"2-	c #A28F8B",
"3-	c #A59B9A",
"4-	c #8E7A71",
"5-	c #A79186",
"6-	c #93796A",
"7-	c #A98F80",
"8-	c #9E887B",
"9-	c #9C816E",
"0-	c #A9958C",
"a-	c #917D74",
"b-	c #9F9596",
"c-	c #A0959D",
"d-	c #927263",
"e-	c #A98B80",
"f-	c #AD948F",
"g-	c #A88B7D",
"h-	c #AB8E7E",
"i-	c #9C7C65",
"j-	c #A68979",
"k-	c #B0988E",
"l-	c #A39799",
"m-	c #B09B96",
"n-	c #AB9F9F",
"o-	c #AEA7AE",
"p-	c #9D826F",
"q-	c #A48873",
"r-	c #8E786A",
"s-	c #B1A29F",
"t-	c #A19597",
"u-	c #AD9D9D",
"v-	c #9F8880",
"w-	c #B0A5AB",
"x-	c #A8918B",
"y-	c #A99DA7",
"z-	c #978B8D",
"A-	c #AD9A9C",
"B-	c #A48C80",
"C-	c #AC9993",
"D-	c #B0A19E",
"E-	c #B0998B",
"F-	c #B09488",
"G-	c #A1857A",
"H-	c #947A6D",
"I-	c #958379",
"J-	c #A4999D",
"K-	c #A68A7C",
"L-	c #997C6E",
"M-	c #A2857D",
"N-	c #AF9388",
"O-	c #A68775",
"P-	c #A08780",
"Q-	c #9C837C",
"R-	c #8B746C",
"S-	c #AC9897",
"T-	c #8E776F",
"U-	c #B1A2A5",
"V-	c #998274",
"W-	c #A78A7A",
"X-	c #A78B76",
"Y-	c #AC9488",
"Z-	c #9E8B84",
"`-	c #A79D9E",
" ;	c #B4ABB0",
".;	c #8F796E",
"+;	c #A08F88",
"@;	c #A09496",
"#;	c #AC9180",
"$;	c #9C8273",
"%;	c #B9A197",
"&;	c #AA9288",
"*;	c #A28A7E",
"=;	c #9D8F8E",
"-;	c #A3948F",
";;	c #967C6B",
">;	c #A69083",
",;	c #A38F84",
"';	c #B19F9B",
");	c #A79388",
"!;	c #B89E91",
"~;	c #AB9182",
"{;	c #947966",
"];	c #AD9287",
"^;	c #A58E86",
"/;	c #A69490",
"(;	c #886F68",
"_;	c #AC938C",
":;	c #A58A7F",
"<;	c #A0857A",
"[;	c #AD9088",
"};	c #A5897D",
"|;	c #A28573",
"1;	c #B09993",
"2;	c #98817B",
"3;	c #A6928B",
"4;	c #937366",
"5;	c #9B8F93",
"6;	c #9B8172",
"7;	c #9B8577",
"8;	c #A69696",
"9;	c #A69A9C",
"0;	c #9E908F",
"a;	c #9D857B",
"b;	c #A99B9B",
"c;	c #A8999C",
"d;	c #AB9387",
"e;	c #987C67",
"f;	c #967D69",
"g;	c #988274",
"h;	c #90786E",
"i;	c #AF9B94",
"j;	c #ACA0A0",
"k;	c #92807C",
"l;	c #AF9489",
"m;	c #AB8D82",
"n;	c #AB9085",
"o;	c #B2978C",
"p;	c #AE938A",
"q;	c #9F8378",
"r;	c #A6938D",
"s;	c #B1A3A3",
"t;	c #9A8580",
"u;	c #9F8B84",
"v;	c #B19C99",
"w;	c #8D7062",
"x;	c #887169",
"y;	c #A79B9D",
"z;	c #A7968C",
"A;	c #A38674",
"B;	c #967B6A",
"C;	c #AE9F9C",
"D;	c #A2938E",
"E;	c #B2A2A2",
"F;	c #9A8E8E",
"G;	c #A1989D",
"H;	c #AEA4AC",
"I;	c #9C887D",
"J;	c #B2988B",
"K;	c #AD9183",
"L;	c #A68B7A",
"M;	c #B19B8E",
"N;	c #957B6C",
"O;	c #AF9385",
"P;	c #A8968A",
"Q;	c #A19392",
"R;	c #B1A5A9",
"S;	c #AA9EA0",
"T;	c #8D7163",
"U;	c #94786A",
"V;	c #A48B84",
"W;	c #A2867B",
"X;	c #A29493",
"Y;	c #AA8F7E",
"Z;	c #8B7160",
"`;	c #ACA3A8",
" >	c #B6ADB0",
".>	c #8B6F5A",
"+>	c #9D8A7C",
"@>	c #B69F97",
"#>	c #B09689",
"$>	c #AD9992",
"%>	c #A89181",
"&>	c #937863",
"*>	c #9E8276",
"=>	c #967F71",
"->	c #A18B7E",
";>	c #BAA89E",
">>	c #AC958D",
",>	c #98857E",
"'>	c #917873",
")>	c #A49494",
"!>	c #896E59",
"~>	c #A48573",
"{>	c #987967",
"]>	c #896A58",
"^>	c #AC9084",
"/>	c #A88C80",
"(>	c #AB8F84",
"_>	c #8E7368",
":>	c #A08479",
"<>	c #9E857E",
"[>	c #A89899",
"}>	c #8B6C57",
"|>	c #A79080",
"1>	c #968784",
"2>	c #AA9B9E",
"3>	c #B29B95",
"4>	c #8D715C",
"5>	c #9C836F",
"6>	c #9A806F",
"7>	c #907466",
"8>	c #AF978D",
"9>	c #9F8272",
"0>	c #967A64",
"a>	c #AC9689",
"b>	c #A98E7D",
"c>	c #AEA2A2",
"d>	c #A48E81",
"e>	c #A19088",
"f>	c #8F7262",
"g>	c #AA9487",
"h>	c #AFA4AA",
"i>	c #A78B7D",
"j>	c #AF9588",
"k>	c #AE978F",
"l>	c #A9928C",
"m>	c #AEA6B1",
"n>	c #ACA1A7",
"o>	c #9C8786",
"p>	c #ACA4B1",
"q>	c #A8A0AB",
"r>	c #9F877D",
"s>	c #A29899",
"t>	c #A28B7D",
"u>	c #AF9D99",
"v>	c #A1928F",
"w>	c #A39497",
"x>	c #B4ACB9",
"y>	c #A18778",
"z>	c #957B6E",
"A>	c #836751",
"B>	c #937762",
"C>	c #A38C7E",
"D>	c #9E826D",
"E>	c #957963",
"F>	c #A08572",
"G>	c #A08D7F",
"H>	c #9D877A",
"I>	c #AB9790",
"J>	c #9B8077",
"K>	c #A88F88",
"L>	c #9C8D8A",
"M>	c #A9897C",
"N>	c #9C8577",
"O>	c #B49B94",
"P>	c #9A8884",
"Q>	c #8F8586",
"R>	c #A79DA5",
"S>	c #957D79",
"T>	c #9E9399",
"U>	c #A29BA3",
"V>	c #AD9B99",
"W>	c #93786D",
"X>	c #B0988C",
"Y>	c #B19A92",
"Z>	c #B09E9E",
"`>	c #A79593",
" ,	c #9B8B8B",
".,	c #A1949B",
"+,	c #9C8A86",
"@,	c #8D7261",
"#,	c #AA9286",
"$,	c #B09991",
"%,	c #AF9890",
"&,	c #B9A7A3",
"*,	c #917661",
"=,	c #AB9180",
"-,	c #A0846F",
";,	c #B89E8D",
">,	c #90796B",
",,	c #B8A79F",
"',	c #B3A4A1",
"),	c #B19E98",
"!,	c #B19F9F",
"~,	c #998682",
"{,	c #AC9C9F",
"],	c #AA9FA7",
"^,	c #AD9799",
"/,	c #9D8680",
"(,	c #9D8B87",
"_,	c #A5989F",
":,	c #ADA2A8",
"<,	c #A69FA7",
"[,	c #AFA7B2",
"},	c #B5A29C",
"|,	c #AF988A",
"1,	c #A89086",
"2,	c #A2908C",
"3,	c #A59691",
"4,	c #A9968F",
"5,	c #947D77",
"6,	c #9A8B86",
"7,	c #B09E9A",
"8,	c #AF998C",
"9,	c #B19F95",
"0,	c #A89084",
"a,	c #896A55",
"b,	c #A48A79",
"c,	c #957964",
"d,	c #9C816C",
"e,	c #BCA597",
"f,	c #927C6E",
"g,	c #948173",
"h,	c #AD9B97",
"i,	c #907F77",
"j,	c #AF9C96",
"k,	c #B4A6A5",
"l,	c #B6A6A9",
"m,	c #9D8A84",
"n,	c #B49C98",
"o,	c #AE9284",
"p,	c #B5998B",
"q,	c #947360",
"r,	c #8C6F5D",
"s,	c #B29D9A",
"t,	c #B4A0A2",
"u,	c #8E736A",
"v,	c #ABA0A4",
"w,	c #9F8F90",
"x,	c #B1AAB2",
"y,	c #A2979B",
"z,	c #AA9083",
"A,	c #917E70",
"B,	c #A39CA4",
"C,	c #A28C7E",
"D,	c #B0A1A4",
"E,	c #A99690",
"F,	c #8E725C",
"G,	c #A48A73",
"H,	c #AD978A",
"I,	c #A48E83",
"J,	c #967A6C",
"K,	c #A88C7E",
"L,	c #9E826C",
"M,	c #A28772",
"N,	c #B29887",
"O,	c #A99793",
"P,	c #988984",
"Q,	c #A79797",
"R,	c #A99D9D",
"S,	c #B09D97",
"T,	c #9A8276",
"U,	c #B0A6A7",
"V,	c #AF9793",
"W,	c #AD9384",
"X,	c #917560",
"Y,	c #967765",
"Z,	c #A79392",
"`,	c #8C7263",
" '	c #B29E95",
".'	c #A08977",
"+'	c #A29896",
"@'	c #97837A",
"#'	c #988A8A",
"$'	c #9D9AA1",
"%'	c #AE988B",
"&'	c #AE9E9E",
"*'	c #A1856F",
"='	c #AE9B94",
"-'	c #AD9990",
";'	c #B29B93",
">'	c #B09C93",
",'	c #B59E8E",
"''	c #9B806B",
")'	c #A08570",
"!'	c #947B67",
"~'	c #AC9E9B",
"{'	c #9F908D",
"]'	c #9B897F",
"^'	c #B99E93",
"/'	c #9F9393",
"('	c #AC9E9D",
"_'	c #9B7C67",
":'	c #A38376",
"<'	c #856550",
"['	c #A2826D",
"}'	c #AB9691",
"|'	c #AEA3A1",
"1'	c #9B806F",
"2'	c #A7A1AB",
"3'	c #B0AEBB",
"4'	c #A98D7F",
"5'	c #AE9791",
"6'	c #9F836D",
"7'	c #997B63",
"8'	c #99806C",
"9'	c #9F8B80",
"0'	c #AF9B90",
"a'	c #B59E90",
"b'	c #917760",
"c'	c #AA8F7A",
"d'	c #BBA190",
"e'	c #A08773",
"f'	c #A99A97",
"g'	c #A4928E",
"h'	c #B6A7A2",
"i'	c #B9ABAA",
"j'	c #978174",
"k'	c #AFA19E",
"l'	c #957961",
"m'	c #AD8F77",
"n'	c #A1836B",
"o'	c #8A6A53",
"p'	c #B49D97",
"q'	c #B09381",
"r'	c #B3958B",
"s'	c #8E6E57",
"t'	c #A4846F",
"u'	c #A08981",
"v'	c #AA9FA5",
"w'	c #AB9798",
"x'	c #A69897",
"y'	c #90786C",
"z'	c #B59A8F",
"A'	c #AC9C9C",
"B'	c #947D75",
"C'	c #9E979E",
"D'	c #A29CA8",
"E'	c #B7A69E",
"F'	c #9D8470",
"G'	c #AF978B",
"H'	c #9D836C",
"I'	c #B3947F",
"J'	c #B1957F",
"K'	c #A48870",
"L'	c #A28C81",
"M'	c #A99388",
"N'	c #A48D7F",
"O'	c #B29784",
"P'	c #9B806D",
"Q'	c #B69C8B",
"R'	c #B0A19C",
"S'	c #968072",
"T'	c #B19788",
"U'	c #A89489",
"V'	c #9F8878",
"W'	c #B8A199",
"X'	c #A28269",
"Y'	c #9C7965",
"Z'	c #B1958A",
"`'	c #896D58",
" )	c #93755D",
".)	c #A3836E",
"+)	c #B79A8A",
"@)	c #B1968D",
"#)	c #B6B1B8",
"$)	c #A29795",
"%)	c #A58F84",
"&)	c #B49E91",
"*)	c #9D8678",
"=)	c #A29CA0",
"-)	c #B7B2B9",
";)	c #B2A4A1",
">)	c #B4A19A",
",)	c #AE9A93",
"')	c #8F7155",
"))	c #A0846E",
"!)	c #B0927A",
"~)	c #9C7E66",
"{)	c #977961",
"])	c #A78B75",
"^)	c #A08069",
"/)	c #A38C7A",
"()	c #B2A39E",
"_)	c #A0897B",
":)	c #B5A198",
"<)	c #A88C77",
"[)	c #A8958E",
"})	c #B7ACAA",
"|)	c #B19484",
"1)	c #B0907B",
"2)	c #B09383",
"3)	c #937761",
"4)	c #9D7E69",
"5)	c #93735A",
"6)	c #A3836C",
"7)	c #9D8072",
"8)	c #A78F85",
"9)	c #A08C8B",
"0)	c #AEA3A7",
"a)	c #A79183",
"b)	c #A38772",
"c)	c #A98D78",
"d)	c #9E7F63",
"e)	c #967860",
"f)	c #9F8574",
"g)	c #A88F7B",
"h)	c #9B8474",
"i)	c #AF9C8E",
"j)	c #A68A72",
"k)	c #B89A82",
"l)	c #9C7E64",
"m)	c #AB8F79",
"n)	c #9C8575",
"o)	c #B3ACB3",
"p)	c #AA9C99",
"q)	c #B3A29B",
"r)	c #9D7F63",
"s)	c #9A7C62",
"t)	c #8C6C53",
"u)	c #A2846C",
"v)	c #9E8368",
"w)	c #B09685",
"x)	c #90745F",
"y)	c #A68A75",
"z)	c #997E6D",
"A)	c #ADA3A4",
"B)	c #8F7159",
"C)	c #B39885",
"D)	c #B19B90",
"E)	c #AB8C78",
"F)	c #9E7F6B",
"G)	c #AC917E",
"H)	c #AFA09D",
"I)	c #A2826B",
"J)	c #917A72",
"K)	c #9E979F",
"L)	c #A29494",
"M)	c #A49898",
"N)	c #9C8A80",
"O)	c #A48570",
"P)	c #96765D",
"Q)	c #B29889",
"R)	c #A99A95",
"S)	c #A58973",
"T)	c #8B6C50",
"U)	c #9C7C63",
"V)	c #A4866C",
"W)	c #997962",
"X)	c #B19681",
"Y)	c #B09B88",
"Z)	c #AA9383",
"`)	c #9F8670",
" !	c #9A7A61",
".!	c #9D7F67",
"+!	c #A5856E",
"@!	c #9D7E62",
"#!	c #A08268",
"$!	c #A68772",
"%!	c #9C806A",
"&!	c #B49583",
"*!	c #92745C",
"=!	c #947A6B",
"-!	c #BEABA7",
";!	c #B09486",
">!	c #A78873",
",!	c #AF8F7A",
"'!	c #876752",
")!	c #A78874",
"!!	c #937968",
"~!	c #948278",
"{!	c #B19D9C",
"]!	c #A2836F",
"^!	c #A88D7C",
"/!	c #AC999D",
"(!	c #A69EA9",
"_!	c #ABA5B1",
":!	c #9D8E91",
"<!	c #937F74",
"[!	c #B9B3BD",
"}!	c #B7ADAE",
"|!	c #8B6F59",
"1!	c #A88A72",
"2!	c #A98B73",
"3!	c #A3836A",
"4!	c #9E8066",
"5!	c #A0826A",
"6!	c #987D68",
"7!	c #94765E",
"8!	c #907258",
"9!	c #A88A70",
"0!	c #957661",
"a!	c #9A7F6A",
"b!	c #A88F79",
"c!	c #9C826B",
"d!	c #B6A59B",
"e!	c #AB9A92",
"f!	c #967C65",
"g!	c #8F7054",
"h!	c #A98972",
"i!	c #B09580",
"j!	c #9B7D65",
"k!	c #A88974",
"l!	c #A48872",
"m!	c #AC9587",
"n!	c #B4A2A0",
"o!	c #8B6950",
"p!	c #AD8E7A",
"q!	c #A58974",
"r!	c #A0816C",
"s!	c #A59693",
"t!	c #A78A78",
"u!	c #886E61",
"v!	c #907A6F",
"w!	c #A69898",
"x!	c #958176",
"y!	c #B9A7A5",
"z!	c #D2BFB9",
"A!	c #9B7C60",
"B!	c #B3957D",
"C!	c #8E6E55",
"D!	c #927660",
"E!	c #A28B7B",
"F!	c #B8A094",
"G!	c #92745A",
"H!	c #A98D77",
"I!	c #9A7E69",
"J!	c #B7A8A3",
"K!	c #BBACA9",
"L!	c #A89078",
"M!	c #A99280",
"N!	c #A78C77",
"O!	c #B29F91",
"P!	c #9D7F65",
"Q!	c #B89D88",
"R!	c #977D66",
"S!	c #AC9F99",
"T!	c #A08F85",
"U!	c #A7948D",
"V!	c #AF947F",
"W!	c #BAA395",
"X!	c #AB907F",
"Y!	c #AD9080",
"Z!	c #AA8D7F",
"`!	c #8B6F63",
" ~	c #B39684",
".~	c #8E735E",
"+~	c #A08983",
"@~	c #785A42",
"#~	c #91776A",
"$~	c #B2947C",
"%~	c #947559",
"&~	c #AA8B76",
"*~	c #9F836B",
"=~	c #B0947F",
"-~	c #8D6F55",
";~	c #A78E7A",
">~	c #A49183",
",~	c #A68C75",
"'~	c #A48974",
")~	c #86674B",
"!~	c #A18369",
"~~	c #A49995",
"{~	c #AD9686",
"]~	c #AC9A8C",
"^~	c #B1A098",
"/~	c #B39C8C",
"(~	c #90725A",
"_~	c #B29681",
":~	c #B49C90",
"<~	c #8D6E5A",
"[~	c #9E7F6A",
"}~	c #A1826D",
"|~	c #8B6F57",
"1~	c #A89692",
"2~	c #AC9A96",
"3~	c #9B8D8D",
"4~	c #9B9295",
"5~	c #AB9EA5",
"6~	c #BAAFAD",
"7~	c #A2836E",
"8~	c #9E8068",
"9~	c #B29C8F",
"0~	c #B5A08F",
"a~	c #967B60",
"b~	c #AD9B91",
"c~	c #A9978D",
"d~	c #A2866E",
"e~	c #80644C",
"f~	c #896B51",
"g~	c #A18A78",
"h~	c #BFADA9",
"i~	c #AB9892",
"j~	c #AF957E",
"k~	c #9D928E",
"l~	c #AEA5A8",
"m~	c #90765F",
"n~	c #B6A39D",
"o~	c #896950",
"p~	c #96775B",
"q~	c #B4A19B",
"r~	c #B7A196",
"s~	c #B9A59C",
"t~	c #886851",
"u~	c #A79490",
"v~	c #B09584",
"w~	c #B29F98",
"x~	c #A09593",
"y~	c #A89C9E",
"z~	c #AE988D",
"A~	c #B2A09C",
"B~	c #A8968C",
"C~	c #AD917C",
"D~	c #C2A792",
"E~	c #A38A76",
"F~	c #A18E7F",
"G~	c #AB957E",
"H~	c #AA9381",
"I~	c #8A7562",
"J~	c #A49180",
"K~	c #B49D8B",
"L~	c #AF9680",
"M~	c #8C7766",
"N~	c #B4A097",
"O~	c #AD998E",
"P~	c #B3A79B",
"Q~	c #8C7661",
"R~	c #A49A98",
"S~	c #B6B0B4",
"T~	c #917A6A",
"U~	c #A18A7A",
"V~	c #8F7459",
"W~	c #7D5F47",
"X~	c #A38F88",
"Y~	c #AC9891",
"Z~	c #B19A8C",
"`~	c #896952",
" {	c #B09D99",
".{	c #A99890",
"+{	c #8B7F7F",
"@{	c #9B8F91",
"#{	c #AA9790",
"${	c #B8A49B",
"%{	c #AE9581",
"&{	c #A29086",
"*{	c #AB9E98",
"={	c #A99F9D",
"-{	c #A59B92",
";{	c #B8B1AB",
">{	c #A28F88",
",{	c #B09D96",
"'{	c #9B826C",
"){	c #AB9484",
"!{	c #A7917C",
"~{	c #A48E80",
"{{	c #A49087",
"]{	c #8A7057",
"^{	c #947862",
"/{	c #886D52",
"({	c #A98F7E",
"_{	c #AFA29C",
":{	c #A38E7D",
"<{	c #BEAFA8",
"[{	c #B5A196",
"}{	c #826859",
"|{	c #A79895",
"1{	c #AEA09D",
"2{	c #957B6A",
"3{	c #9E7B67",
"4{	c #BAA9A2",
"5{	c #A88B79",
"6{	c #9F8783",
"7{	c #A5908B",
"8{	c #AB958A",
"9{	c #AA9FA3",
"0{	c #AB9C9F",
"a{	c #9B8377",
"b{	c #BBA9A5",
"c{	c #9D8A7B",
"d{	c #AC988D",
"e{	c #AA9486",
"f{	c #A28F81",
"g{	c #B3ADB1",
"h{	c #937E6B",
"i{	c #A69385",
"j{	c #9B887A",
"k{	c #AE9B95",
"l{	c #BAABA4",
"m{	c #997D67",
"n{	c #A38873",
"o{	c #A89587",
"p{	c #B2A39C",
"q{	c #BCABA3",
"r{	c #977E68",
"s{	c #AB978C",
"t{	c #9E887A",
"u{	c #B29B8B",
"v{	c #8F755E",
"w{	c #AD9789",
"x{	c #B8A597",
"y{	c #957D71",
"z{	c #A59999",
"A{	c #BAB0B8",
"B{	c #9E7E67",
"C{	c #B09792",
"D{	c #917665",
"E{	c #B29A8E",
"F{	c #B69F99",
"G{	c #9B8170",
"H{	c #A99385",
"I{	c #AE9A91",
"J{	c #846E59",
"K{	c #9C8678",
"L{	c #A18B7D",
"M{	c #AC9281",
"N{	c #8B725E",
"O{	c #A18A82",
"P{	c #8E8586",
"Q{	c #9C9290",
"R{	c #ABA2A3",
"S{	c #816756",
"T{	c #A9907C",
"U{	c #987C64",
"V{	c #9C8267",
"W{	c #87694D",
"X{	c #9F8C7B",
"Y{	c #97826F",
"Z{	c #BEADA6",
"`{	c #B2A094",
" ]	c #8C7261",
".]	c #907D6C",
"+]	c #B09A8C",
"@]	c #B2A89F",
"#]	c #8A7466",
"$]	c #A79485",
"%]	c #CCBFB7",
"&]	c #A18776",
"*]	c #B59D91",
"=]	c #A99FA0",
"-]	c #B3A8AE",
";]	c #A19295",
">]	c #A08E84",
",]	c #997660",
"']	c #B2937F",
")]	c #B5A29E",
"!]	c #A5928E",
"~]	c #B09687",
"{]	c #B19D92",
"]]	c #A5948A",
"^]	c #B09F97",
"/]	c #B5A29B",
"(]	c #A88E7D",
"_]	c #BEB9C0",
":]	c #7E6E61",
"<]	c #988576",
"[]	c #A89B92",
"}]	c #AFA5A3",
"|]	c #AFA09B",
"1]	c #9C8671",
"2]	c #A08979",
"3]	c #B7AFAD",
"4]	c #B2A191",
"5]	c #A89284",
"6]	c #B8A7A0",
"7]	c #C0AEAA",
"8]	c #B1A099",
"9]	c #B39D92",
"0]	c #C4BAB9",
"a]	c #9F8A79",
"b]	c #B7A090",
"c]	c #B3998A",
"d]	c #AE9485",
"e]	c #AA968B",
"f]	c #8F847E",
"g]	c #9E9493",
"h]	c #B3978B",
"i]	c #91735B",
"j]	c #B59C95",
"k]	c #AEA09F",
"l]	c #B7B0B8",
"m]	c #A48475",
"n]	c #B09A8F",
"o]	c #B5A69F",
"p]	c #9B816A",
"q]	c #8F7E76",
"r]	c #B1A39A",
"s]	c #988775",
"t]	c #998473",
"u]	c #9C897A",
"v]	c #A68F7F",
"w]	c #A58E7C",
"x]	c #AE988A",
"y]	c #A99284",
"z]	c #A69486",
"A]	c #9C836D",
"B]	c #91755F",
"C]	c #8D7762",
"D]	c #B09E92",
"E]	c #9A8572",
"F]	c #9B826E",
"G]	c #A58E7E",
"H]	c #977C67",
"I]	c #BCA699",
"J]	c #9A816B",
"K]	c #B29680",
"L]	c #816148",
"M]	c #967A65",
"N]	c #B29F99",
"O]	c #B29992",
"P]	c #B49A8D",
"Q]	c #9E8D85",
"R]	c #93807A",
"S]	c #A9999A",
"T]	c #B79A88",
"U]	c #9A8781",
"V]	c #AB9D94",
"W]	c #BDAAA4",
"X]	c #967E72",
"Y]	c #AB9587",
"Z]	c #ACA3A6",
"`]	c #B6B1B7",
" ^	c #A18C79",
".^	c #9A8C83",
"+^	c #A99F9E",
"@^	c #ACA19F",
"#^	c #907761",
"$^	c #917A68",
"%^	c #AA9789",
"&^	c #9C8573",
"*^	c #AB9685",
"=^	c #A0846C",
"-^	c #BDAEA9",
";^	c #BBA6A1",
">^	c #B29B8D",
",^	c #B59B8C",
"'^	c #A28975",
")^	c #BDA392",
"!^	c #B49E89",
"~^	c #B49D95",
"{^	c #AC9A90",
"]^	c #977863",
"^^	c #AC8D79",
"/^	c #A98C7A",
"(^	c #927762",
"_^	c #B8AAAA",
":^	c #997A66",
"<^	c #A89189",
"[^	c #A69B99",
"}^	c #9F846F",
"|^	c #B89D8C",
"1^	c #957A5F",
"2^	c #9D8676",
"3^	c #B0A19A",
"4^	c #987A5E",
"5^	c #8A6C50",
"6^	c #A28877",
"7^	c #A79591",
"8^	c #927B69",
"9^	c #927861",
"0^	c #AE957F",
"a^	c #A1856D",
"b^	c #AF937E",
"c^	c #816349",
"d^	c #9E836E",
"e^	c #A78D76",
"f^	c #B59A89",
"g^	c #B99D8F",
"h^	c #AD927F",
"i^	c #AF9984",
"j^	c #B59C88",
"k^	c #937A66",
"l^	c #AC998B",
"m^	c #96765F",
"n^	c #B69F91",
"o^	c #866753",
"p^	c #9B7D63",
"q^	c #9C8068",
"r^	c #AEA59E",
"s^	c #B7A49D",
"t^	c #84664C",
"u^	c #A3876F",
"v^	c #A38771",
"w^	c #A1938A",
"x^	c #A79D9C",
"y^	c #A9978B",
"z^	c #9A8371",
"A^	c #A89382",
"B^	c #80624A",
"C^	c #AC9279",
"D^	c #A38972",
"E^	c #A28973",
"F^	c #A88D7A",
"G^	c #B29985",
"H^	c #907154",
"I^	c #BCA38F",
"J^	c #A7907E",
"K^	c #B29D8A",
"L^	c #AA917D",
"M^	c #81634B",
"N^	c #B0A0A0",
"O^	c #9A7C64",
"P^	c #B0A29F",
"Q^	c #9B847C",
"R^	c #A59391",
"S^	c #BAA8A8",
"T^	c #A5928B",
"U^	c #AF9FA2",
"V^	c #8C705A",
"W^	c #AA8D7D",
"X^	c #A89994",
"Y^	c #AC927B",
"Z^	c #8F7660",
"`^	c #9D856D",
" /	c #BBAAA0",
"./	c #AB907B",
"+/	c #AE927C",
"@/	c #987F6B",
"#/	c #BEB1AB",
"$/	c #AD9887",
"%/	c #A6917E",
"&/	c #97795F",
"*/	c #B89E87",
"=/	c #987E67",
"-/	c #AA9580",
";/	c #AC9277",
">/	c #B19683",
",/	c #B29983",
"'/	c #AB9683",
")/	c #AF998B",
"!/	c #A48B75",
"~/	c #B89B8B",
"{/	c #AC8D78",
"]/	c #8F705B",
"^/	c #A68F81",
"//	c #B49A8B",
"(/	c #A4918A",
"_/	c #8B705D",
":/	c #B0A5A9",
"</	c #B0958A",
"[/	c #8F7367",
"}/	c #94837B",
"|/	c #907667",
"1/	c #BAA798",
"2/	c #957C68",
"3/	c #90745C",
"4/	c #A69C9A",
"5/	c #AF9C95",
"6/	c #907560",
"7/	c #A99483",
"8/	c #AC9585",
"9/	c #9F8972",
"0/	c #B8A28D",
"a/	c #957E6C",
"b/	c #B09E94",
"c/	c #A69480",
"d/	c #977B63",
"e/	c #A78B73",
"f/	c #B99F86",
"g/	c #93775F",
"h/	c #9B8570",
"i/	c #AF9C8D",
"j/	c #B8A594",
"k/	c #A78971",
"l/	c #8D6D56",
"m/	c #B49785",
"n/	c #9C8271",
"o/	c #B59B8E",
"p/	c #B6A6A7",
"q/	c #8C7058",
"r/	c #93755B",
"s/	c #826C54",
"t/	c #9F948E",
"u/	c #AEA4A3",
"v/	c #A28670",
"w/	c #A98F78",
"x/	c #A19692",
"y/	c #A9A19F",
"z/	c #918070",
"A/	c #A28B79",
"B/	c #A8927D",
"C/	c #B9A491",
"D/	c #AE9785",
"E/	c #ADA4A5",
"F/	c #AEAAA9",
"G/	c #9A7E68",
"H/	c #AA9D95",
"I/	c #BDA9A2",
"J/	c #9B8675",
"K/	c #A59188",
"L/	c #947A63",
"M/	c #9F8672",
"N/	c #BAAFAB",
"O/	c #B69F8F",
"P/	c #B99D92",
"Q/	c #BCA08B",
"R/	c #A88C76",
"S/	c #7B5B42",
"T/	c #8D725F",
"U/	c #AD9186",
"V/	c #8E7264",
"W/	c #A29187",
"X/	c #8F735D",
"Y/	c #8B6D53",
"Z/	c #93785D",
"`/	c #AD9684",
" (	c #A3886D",
".(	c #B59A91",
"+(	c #BFA994",
"@(	c #947964",
"#(	c #AD937C",
"$(	c #9E8775",
"%(	c #826A52",
"&(	c #AC917C",
"*(	c #A08E82",
"=(	c #B09F98",
"-(	c #998678",
";(	c #B09C91",
">(	c #957C66",
",(	c #9C8A7E",
"'(	c #917F71",
")(	c #B6A093",
"!(	c #B29782",
"~(	c #79604A",
"{(	c #B69B88",
"](	c #A3856D",
"^(	c #75573D",
"/(	c #B49580",
"((	c #B0A0A1",
"_(	c #B1978A",
":(	c #AA9B96",
"<(	c #AA9B98",
"[(	c #63503F",
"}(	c #A5856C",
"|(	c #9B7F69",
"1(	c #C0ACA1",
"2(	c #A48B77",
"3(	c #B2A092",
"4(	c #B3A091",
"5(	c #927C67",
"6(	c #968279",
"7(	c #A38F86",
"8(	c #A08A7D",
"9(	c #C1AEA8",
"0(	c #B4A5A2",
"a(	c #9E8F8A",
"b(	c #A49286",
"c(	c #C2AC9F",
"d(	c #8E6F5A",
"e(	c #927055",
"f(	c #9E8475",
"g(	c #958178",
"h(	c #BBB1BC",
"i(	c #B4AFB6",
"j(	c #AAA0A8",
"k(	c #957461",
"l(	c #94765C",
"m(	c #97816A",
"n(	c #947F6C",
"o(	c #A39082",
"p(	c #A6907B",
"q(	c #9D8169",
"r(	c #95765A",
"s(	c #9F7F68",
"t(	c #B49E93",
"u(	c #8A6E58",
"v(	c #9E846D",
"w(	c #AB998F",
"x(	c #87705E",
"y(	c #A18770",
"z(	c #967B66",
"A(	c #937865",
"B(	c #917663",
"C(	c #AD9C94",
"D(	c #B6A095",
"E(	c #AA968D",
"F(	c #9A867B",
"G(	c #B4A298",
"H(	c #A78E78",
"I(	c #A98A76",
"J(	c #AC8F7F",
"K(	c #A4846B",
"L(	c #BB9C88",
"M(	c #B19D96",
"N(	c #AF998E",
"O(	c #A68E82",
"P(	c #A69790",
"Q(	c #83634E",
"R(	c #8A694A",
"S(	c #A79281",
"T(	c #A18C7B",
"U(	c #A08675",
"V(	c #8A6A51",
"W(	c #AF907C",
"X(	c #8E7058",
"Y(	c #BBA598",
"Z(	c #A39187",
"`(	c #AA988E",
" _	c #B4A39B",
"._	c #B19786",
"+_	c #A2846A",
"@_	c #987D62",
"#_	c #A98E79",
"$_	c #B8A18F",
"%_	c #836D60",
"&_	c #9A867D",
"*_	c #BAA8A4",
"=_	c #9B8A82",
"-_	c #8D7769",
";_	c #9C8774",
">_	c #AD9480",
",_	c #A38A74",
"'_	c #846853",
")_	c #9A785F",
"!_	c #9B7B62",
"~_	c #A18E8A",
"{_	c #AFA6A9",
"]_	c #8B694D",
"^_	c #A28367",
"/_	c #97775E",
"(_	c #8D745E",
"__	c #886D58",
":_	c #997B61",
"<_	c #A68870",
"[_	c #977B65",
"}_	c #BCAEAE",
"|_	c #B8B2B2",
"1_	c #907155",
"2_	c #B9A8A1",
"3_	c #988372",
"4_	c #8A6E56",
"5_	c #8C6A4F",
"6_	c #AF937B",
"7_	c #A68B76",
"8_	c #B09D8F",
"9_	c #B09A8D",
"0_	c #B39E99",
"a_	c #9F8876",
"b_	c #AD9382",
"c_	c #B4988D",
"d_	c #917357",
"e_	c #B19482",
"f_	c #988889",
"g_	c #A79999",
"h_	c #A99795",
"i_	c #805F40",
"j_	c #937158",
"k_	c #9A887A",
"l_	c #B3A197",
"m_	c #9A8479",
"n_	c #77583C",
"o_	c #A08067",
"p_	c #917256",
"q_	c #9F7F66",
"r_	c #9D816B",
"s_	c #A99687",
"t_	c #B2A59F",
"u_	c #A29189",
"v_	c #B5ACAD",
"w_	c #B5ACAF",
"x_	c #95755C",
"y_	c #AB9075",
"z_	c #AA8B79",
"A_	c #826651",
"B_	c #B2A096",
"C_	c #B3A49D",
"D_	c #A99789",
"E_	c #856E5E",
"F_	c #B5A9A9",
"G_	c #997F68",
"H_	c #BCA295",
"I_	c #896E5B",
"J_	c #A5826E",
"K_	c #B89C8E",
"L_	c #B49988",
"M_	c #AA9489",
"N_	c #A88B7B",
"O_	c #9A7968",
"P_	c #AD9F9F",
"Q_	c #725035",
"R_	c #906E53",
"S_	c #8A6F5A",
"T_	c #77614A",
"U_	c #B1A096",
"V_	c #8E7360",
"W_	c #8B6D55",
"X_	c #AC8C73",
"Y_	c #7C5D41",
"Z_	c #7E6350",
"`_	c #AB8F77",
" :	c #9E8B7A",
".:	c #B49581",
"+:	c #816C59",
"@:	c #B7A9A0",
"#:	c #BAA496",
"$:	c #7C6253",
"%:	c #958377",
"&:	c #8C715C",
"*:	c #A58576",
"=:	c #B3988D",
"-:	c #987964",
";:	c #846A5B",
">:	c #8A7061",
",:	c #8F6D52",
"':	c #816750",
"):	c #81654F",
"!:	c #A08A7C",
"~:	c #7F5F48",
"{:	c #907057",
"]:	c #88684F",
"^:	c #896D57",
"/:	c #8E7056",
"(:	c #9D8877",
"_:	c #BCAA9E",
"::	c #8A7361",
"<:	c #A68A74",
"[:	c #937C6C",
"}:	c #AE9F98",
"|:	c #9F856E",
"1:	c #AF9481",
"2:	c #B3A9A8",
"3:	c #947D6B",
"4:	c #82634E",
"5:	c #B69E92",
"6:	c #96745B",
"7:	c #B7A098",
"8:	c #B5A19A",
"9:	c #AB8F81",
"0:	c #B4998E",
"a:	c #A59A9E",
"b:	c #ADA4A9",
"c:	c #8C6D51",
"d:	c #A39690",
"e:	c #978C86",
"f:	c #90745E",
"g:	c #9A7B5F",
"h:	c #BEA390",
"i:	c #876B56",
"j:	c #9E8473",
"k:	c #83634A",
"l:	c #99836E",
"m:	c #8F6F58",
"n:	c #826047",
"o:	c #A8978D",
"p:	c #BFADA3",
"q:	c #9C897B",
"r:	c #8D7364",
"s:	c #8D6E5C",
"t:	c #A69BA1",
"u:	c #ABA4AB",
"v:	c #968C94",
"w:	c #A3989E",
"x:	c #816246",
"y:	c #8A7862",
"z:	c #937F78",
"A:	c #886A50",
"B:	c #997960",
"C:	c #9C7D61",
"D:	c #927965",
"E:	c #AC9583",
"F:	c #B59F92",
"G:	c #BBACA5",
"H:	c #AA988C",
"I:	c #A18B76",
"J:	c #B59B8A",
"K:	c #B09783",
"L:	c #AB907D",
"M:	c #7F644F",
"N:	c #B79D8C",
"O:	c #B69C8F",
"P:	c #B6A4A0",
"Q:	c #B39887",
"R:	c #886C56",
"S:	c #A68677",
"T:	c #AF9586",
"U:	c #AEA2A4",
"V:	c #B8AEB9",
"W:	c #A99EA2",
"X:	c #887161",
"Y:	c #988B85",
"Z:	c #8C7065",
"  . + @ # $ % & * * = $ - ; > , ' ) ! ~ { ] ^ / ( _ : < [ } | 1 2 3 4 5 6 7 8 9 0 a b c d e f g h i j k l m n o p q r s t u v w ",
"x y z A B C D E F $ G # 2 H I J K L M N O P Q R S T U V W X Y Z `  ...+.@.#.K $.%.&.*.=.-.;.>.,.'.).!.~.{.].^./.(._.:.<.[.}.|.1.",
"2.3.E 4.A 5.6.7.8.9.0.a.b.c.d.e.f.g.h.i.j.k.l.m.n.o.p.q.r.s.t.u.v.w.x.x q.y.z.w A.B.C.D.E.F.z.G.H.I.J.K.L.M.N.O.P.Q.R.S.T.U.V.W.",
"X._ Y.Z.9.`. +.+Y ++@+#+$+%+&+*+=+j -+;+>+,+'+)+!+W >+~+{+]+^+/+(+_+:+<+o [+}+|+1+2+3+4+5+6+7+8+9+0+a+b+c+d+e+f+g+h+i+j+k+l+m+n+",
"o+. & 4.p+q+ +r+A s+t+u+g v+w+x+y+h+-+z+A+B+C+2 D+E+F+G+H+I+J+K+L+M+N+O+P+Q+k.R+S+L T+U+V+W+X+Y+Z+`+ @.@+@@@#@H $@%@&@*@=@-@;@>@",
",@'@)@C !@~@{@]@^@/@' (@x. ._@:@<@R+[@}@|@1@2@3@4@5@6@7@8@9@0@a@(+b@c@d@e@f@F g@h@c i@j@k@l@O m@n@o@d+p@q@r@s@t@u@r v@w@x@y@z@A@",
".+B@t.C@D@c@E@F@G@H@I@..J@f.K@L@M@N@W O@P@Q@R@S@T@U@V@W@X@f@b.Y@Z@`@2  #3 .#g +#9+@###$#%#&#O *#=#-#;#>#,#'#)#!#~#{#]#^#/#(#_#:#",
"<#[#}#|#1#2#3#4#!@5#q 6#7#d 8#1@X+9#h.0#a#b#c#d#{#e#f#u+g#h#i#j#k#l#m#n#o#p#q#r#s#t#u#v#g@w#x#y#L z#q A#B#C#D#E#F#..G#H#I#J#K#L#",
"$ 8@M#N#O#P#O#Q#R#T+S#T#l.U#V#W#X#Y#Z#`# $.$( +$@$M #$$$f %$&$*$$#q.I@=$`@p.-$;$>$,$X.'$)$G+]+!$_.` ~$0+{$Z+F.]$^$7+/$($_$:$<$[$",
"f@S#}$|$1$2$3$4$5$6$D+7$=$8$9$0$f@a$b$@$c$d$e$f$c g$a@f@-$h$i$j$_+k$l$m$n$7@q#o$p$q$r$s$p.t$&.u$j$%$v$m w$6#x$y$z$A$B$C$D$E$F$G$",
"H$4@O $$I$J$9@K$L$M$N${+=$O$v P$Q$X.R$S$T$U$V$W$X$g#Y$!@T$g#Z$$+`$ %9#.%p.+%H$@%#%$%8.R#%%&%^+*%=%e -%;%r >%,%'%)%!%.#~%{%]%^%/%",
"(%_%:%g$<%<%o+c$[%}%|%j.1%2%3%4%k.c 5%6%5%7%} 8%1 d$!@9%0%a%b%c%d%e%z.H@O f%g%h%x.i%j%t+t.i%Y R#+$k%}$l%m%n%o%Z+p%q%+$r%s%t%>@u%",
"v%w%x%v.r+y%z%4@A%I@)$M#B%C%D%E%F%G%V$H%I%J%0%6%K%L%M%N%O%e$P%Q%R%S%H$z#=#T%U%H@+%V%W%X%Y%Z%`% &U@.&+&/%@&#&$&%&&&d#*&=&-&;&>&) ",
"l$,&)+v.'&)&L+!&y+~&*%{&]&^&/&(&X#_&X$:&5%<&[&}&|&1&2&B@:&3&4&u#5&6&7&8&d$9&z#0&a&'$Y$b&c&d&e&f&g&m$D$h&i&j&1%k&l&m&n&]$-&o&p&q&",
"3+=+%$r&1#s&t&X+u&'%v&K$w&x&U#e@V y&z&f$3.A&B&V$C&D&E&f@3&F&G&8%H&'+I&J&(@)+k.K&L&M&N&u#z%O&J@z+P&Q&R&S&h+T&e U&V&W&*@*%%&X&Y&Z&",
"K@f.q$`& *a@.*+*@*#*$*X+%*R+&*N@z#+.**M%=*-*8%N#4&;*u&Y@M#F%{@P%>*,*'*)*!*~*M@{*]*^*(+v.:./*(*+%_*,%#@q%1+:*<*/*x.[*_*~$+#}*W+y.",
"|*1*2*3*4*5*6*7*u&E+8*8*h%) 9*0*J@l@a*b*7*'*c*d*<&;+M%g$Z$i$e*f*g*;+h*L@X+j@!&K i*j*q+a@_&C%~ k*l*m*A@n*9+z#o*.#p*W+q*K&r*s*t*z#",
"u*v*w*,@x*y*z*|$A*B*w.$#C*9+D* .m#E*F*G*;*H*I*J*K*L*M*4&<&I*J$b@t.N*P@O*-$5@P*L e Q*X%c%H@D+R*0&S*E*T*U*V**$W*+$k%X*Y*n&7@Z*}+`*",
";% =.=+=@=]@.=z%#=[@$=' %=Q@o&&=*===-=;=>=,=]+c$'=)=!==*u&c$|%u#6.8%~=f%F+z#J@@*k.Z a.{=]=^=@$*.6+/=(=_=:=<=[=u#}=|=1=_&  2=3=4=",
"z$5=6=7= *8=9=0=a=b=c=T@d=e=f=g=!%h=i=j=k=l=m=n=o=p=h*q=r=s=N*a%7%t=u=v=5%f#w=8*x=y=4.z=1=A=B=C=)$N+D=D.E=D@F=G=G@H=I=B+J=` Q&e ",
"K=L=M#<%M=N=X$,=O=P=Q=R=S=d#T=U=V=W=X=Y=Z=9#+%`=[+ -.-6#%*+-@-#-$-%-&-*-=-B*}*--;->-,.9=g#b.$+,-'-&$t$N c%w*3$)-!-c 8*~-{-]-^-j@",
"/-(-_-:-.=*&%-<-[-}-1&|-1-E%4@(@$$i$P=S+2-3.c {&&.3-4-2&c*W#5-6-7-< 8-]+9-' 0-a-b-c-c$u+d-R$e-C.f-~$k+%$g-h-Z.i-j-k-w#l&l-=$=+m-",
"n-o-p-q-<%M%r-s-t-u-v-l%S=Z=u*w-5.<&p.j.x-r*y-'%=#z-A-B-C-D-P*Z#E-x=4 **F-G->.H-I-J-z#*$K-L-n&o*j@~$- M-N-t+O-C T$P-Q-R-S-S#T-2+",
"U-V-W-X-!@Y-8-Z-`- ;.;R=+#!&+;@;Z 6=#;$;h.%;G.&;*;=;-;;;>;,;';);l#1 !;~;{;];^;q /;(;_;y&X+];:;X+<;<;Y&[;&.};%$|;L&1;J&^;2;3;4;h@",
"5;6;v#N#i$~*7;7$9+8;8;9;0;a;b;c;'+N+:&6;!*d;u#e;N%f;g;4&$$N$h;h$F-t$l#,-]=<*i;j;k;_=T%l;m;J=t$@*n;o;p;q;_*r;s;M%y#t;V*u;v;_ w;x;",
"y;z;5.A;B;E+8;C;D;E;F;G;H;V-8#o&I;<;]+^*-$J;+%K;L;2*M;A&f$s-E&N;+*3&O;C.g@+.P;Q;R;S;&*j#Y@$+*@*$$-G+T;%$X$Q**.*@U;!&V;O+)$Z W;h%",
"X;D-e;u.Y;Z;`; >S${@.>N*+>M m=A*1 1=@>#>J%j.$>%>[&&>7-7-u&*>=>->;>+%+%3.@$];>>,>'>)>!>Y@~>{>]>g$t$^>/>*$n;f#G-(>_>t*1%:>C=p.!*<>",
"[>}>Y$|>d$)+0&1>2>3>4>5>6>7>j.8>5.9>b@0>,-d;a>b>p+B%M%~@4@c>*;d>e>f>n;O e%!*g>(=h>k&5$w*0@y&8&1=K;I=i>j>k.T;k>l>(=m>n>o>p>q>m r>",
"s>t>W$8%u>v>r;w>_$x>n%;*-*y>z>h@A>& B>0$g#M;C>P%D>E>F>K-G>)=3.H>I>.$d;J>K>#-^;L>d=^-& M>+$I=N>/>N F-6=$#O>#.^;1;P>Q>R>S>T>U>V>W>",
"O*x%X>Y>Z>`>:= ,.,H;+,N>t&@,#,$,V=%,&,*,X$~@} 5%=,-,[&;,>,7*,,r;',O&>+),!,%*1;~,{,u*^+a&&._*+.I=h#*>X+],^,M-V;/,(,_,:,2><,[,@%/*",
"},|,g$1,2,3,4,5,P '%6,u%7,$;g@M@6;8,9,H$0,V=a,$$b,c,d,e,f,g,h,i, $V=A&j,k,k&l,F*:+m,O&n,0*+-9*#-U@o,p,q,,.r,b s,t,u,v,w,x,y,o$k=",
".*@*z,0,A,l#d>)%B,x,{;H>C,6#D,E,F,G,H,m=I,0,J,M%K,L,M,N,+>O,P,Q,R,S,N*@>T,' #,V-w&^=B%H&d&D%U,V,2*2 W,I=I+X,{>Y,+#Z,M$)%m@@-`,- ",
" 'l@r=.'D;+'c>@'#'$'%%;*%'u;&'l&*'L,7=l#='-';'>',''')'>*q+!'h,~'{']'g@^')=7#$>O*/'('4._'9%.-:'$+{&u#v.} _-<'['= }'|*e@|=G+h#C.:;",
"^;V-|'T$P%<%1'^$2'3'##p-4'W#s*5'6'`%7'8'8,->9'0'a'b'c'd'e',-r;f'g'h'~;z*C>K@i'j'k's;l'm'n'o'f#p'd&Y@q'5.r's't'3$u'v'w'~+y&q#V+H.",
"x'y'M%z'9'A'K>B'C'D'V E'$#F'l#G'H'I'J'K'# N*L'M'N'O'P'Q'`%|#s*R'G-S'#;T'9#3@U'e$V'W'}>4*X'Y'W-Z'`'Y t.W-.= ).)+)c@s>:,o @)'-+.:;",
"#)$)%)&)P'v#.$*)=)-)!%;)>);+,)T%')))!)~)*'=,+-K@F'{)])c'^)/)()_):)K,4$<)*;[)})R*|)R#N&D 1)2)5&3)W,!;4)a@C@5)6)8=z%7)8)<;e@<@9)}$",
"0)<@7&a)b)c)d)e)5%h#f)F&g)h)2&i)D j)k)l)m)n)o)p)q)r)s)t)X'u)v)0=w)x)8=y)z)S*A)->B)C)D)E)4)F)4.<%G)2$| H)Y#`&I)4*4.X$(>_*e J)K)L)",
"M)N)^;h)O)P)I)4#|;Q)R)t&W$l=#=S)T)U)V)W)X)Y)-*Z)`) !.!+!@!#!$!%!&!*!% v.=!o-#)h -!;!`%>!,!'!o+s&o+)!!!~!{!'+R%<)]!^!J%k$/!(!_!:!",
"<![!a=}!|!1!2!3!4!5!6!d,#$!>X-7!8!9!1!0!a!b!c!U$d!e!f!u)g!h!i!j!.!k!l!m!+*'*A'R):%n!o! +p!= q!N&r! +g$s!{#;+t!|## Y;K-2*u!t*v!w!",
"T%x!l=y!d,q-z!A!5!B!C!D!E!p-d;F!G!H!j)I!J!K!L!M!r!9.N!O! *P!<)G*g)Q!R!N!H%d>S!T!U!)='&O'V!5%W!X!.=Y!Z!`!^;n;Y@ ~X-.~0%@-M$+~@~t$",
"#~>+I*6%.!5!$~%~&~7'j)l!g)V$5-X>*~=~-~;~2&>~,~'~)~!~7!0>~~P;{~]~^~/~=~(~_~<&7$h):~k#b&9=<~[~}~5*0!|~n=u;1~2~n$I%9%H&B;a#3~m.4~5~",
"X$f 7,6~(~7~.!8~9~0~f!a~0=e'b~c~d~e~f~g~h~i~*,=,b)e)&~j~k~l~m~.'n~)'o~p~_'5%q~8-r~z)I!Y!6=*!~@s~t~4.'=n%u~}*K-v~9>z)U%w~x~y~<!p.",
"z~A~B~%)}>C~D~E~F~P;e'G~)'H~I~J~`)K~L~%>M~N~T'O~P~u)7'y)Q~R~S~T~U~V~#!u),@W~1@X~Y~R*2$a!Z~`~v.f*O)t.J$D%O, {g@d&p..{P@),+{@{;%C.",
"#{~!U%${$$0%%{;=&{*{={-{;{>{s.,{'{){!{~{W {{]{^{0'/{({V!l'e;_{:{<{[{s~<&}{|{1{.%2{B%X%3{4{X,X-0$7=5{n=]'6{7{8{l;z*@*,{8+=;9{0{a{",
"b{c{d{9,)=7%e{f{`-g{h{i{j{k{R)l{m{n{H'o{p{q{r{Z)e{s{t{u{v{j>U~w{x{J*b,=*y{z{A{T@R''~4#B{N#x)J*C{D{E{g@E%V>,)F{0&G{H{O*m#v>y+s*G+",
"I{J{K{E+L{E~M{N{O{P{+'Q{R{S{9%T{U{m'V{W{p-X{Y{Z{`{ ].]+]@]#];)$]%]&]y)*]9'=]-];]>],]3!i-']C+x=r=O q))]$*!]O{@*~]o,C>W {]7@4=F+r,",
"3,]]{{^]/]F>(].-J-_]:]<][]}]|]U%1]2]F'7&3]4]5]6]7]O{8]:*)-9]0]a]b]c]7'd]e]3,f]g]o{h].)i]|;%%0,j](@t{k]y~v,l]m]e*a%O&r>n]]+;+^*t.",
"`,[)A~O,o]p]u{q]b;r]s]({7-t]u]v]w]x]y]z]A]B]C]a)D]E]F]G]H]+]I]J]G)K]L]M]N]H]w#(@O]k-R#W%=~^!P]9-X$M,s{Q]R]S]a$T]A;N 3@X>N i>K;7@",
"/;U]V]W]X]y>Y]L)Z]`]2% ^7&.^+^@^#^$^%^&^*^=^B>~{-^U!;^>^m{,^'''^)^!^y]~^w~k{{^G+C>p;]^^^}~/^:&:-B>(^J%=#_^P*:^7=.=B-<^w#9>`$|;$+",
"[^g,*! )f!}^|^1^F]2^3^4^5^6^7^8^b*7&E!9^0^a^b^c^d^^{e^f^6'g^h^F'i^j^k^l^2&8%/^_+9-!'Y$p!m^`%b@5{%%>>E{g.:+{+& /^n^y&>>y&T'C o^$#",
"h>;+j!p^0=*'q^t>r^s^t^u^v^w^x^y^z^A^M%B^^{C^D^E^(]F^G^H^0=w)I^J^K^L^M^/^K*A^S)b&4)#$N^%!O^r!<%**P^Q^c@0*R^S^F)z%i$T^U^<+:^t.v./*",
"s#p#V^W^X^%'Y^Z^`^ /D>./+/@/<&#/M*$/%/&//{*/=/-/C>/{;/5)u^>/,/A]'/3)))-,)/!/~/{/5*0%e*]/.+e)@$k-^/;=//7;(/&*f@]+7%_/o$:/B@D@</[/",
"}/|/8&1/y+2/G!3/e{6>.~=/./4/x'5/6/7/8/9/0/Q!a/b/c/d/e/f/g/z*,'h/i/j/k/o'l/b)d,v^>/#;c&X-m/N&!*^*n/,+o/]/!@2*u.F+d&{&&;t.-$,)j$h#",
"p/=*F%.>q/r/{)s/t/u/0=v/w/x/y/z/A/B/C/f).'D/S!E/F/G/=/a!e;H/I/J/K/#]L/M/N/&^H&l!O/P/]/Q/b&t!0,z,R/S/W$T/U/d;V'V/@$Y~W/_/N ^*J,K,",
"d$6;-*7-X/Y/Z/`/&]5%k/ (.(z*e!e{+(@(#(I%m!$(%(K*>;&(G,d^*(=($;-({^;(>(5/,('()(!(~([&{(}~]({)^(=~/(B=i@;+X+N+n&5-((j'i;s{t>_(i>i@",
":(}&6=C,d <(g>M![(>(t)}(v^|(m=1(r/K'c!2(y'3(2/8&,+E^F^4(5(d]~=I;6(7(8(9(0(a(b(5>b*c@c(d(.!e( *](~)M]y>f(#$g#*;g(/ h(i(j(#$t.O-k(",
"{)l(7'G)m(n(o(p(X%q(r(s(0!&>0,t(u(D>j^v(O~w(x(d$1 U)S)y(z(A(B({{B~C(D(7$E(F(G(H(-~0>I(N%+*J(K(L(4)H,M(N( +K,O(n%]$]$m*P(Q(u#|;% ",
"p!R(i-D 8'S(`)I%T(U(V(W(t!B;f{L{X(q^A/Y(Z(`( _E(._+_@_#_d,$_v]7$%_='&_*_=_-_;_>_,_G.I$G/'_)_I)!_>!T/J@'=`$^>z#+#~_{'{_R;R=(*^!z%",
"B)]_^_/_z((_8'__[%#{:_5)<_[_}_|_'~O^1_[_E(2_3_4_8&5_.!6_7_$;({a*8_9_+>#{0_a_b_n{2$$;u(9%c_$!d_e_R%$#@>%, &C Z (@1;n%f_g_h_/+j-G*",
"H!i_j_C!;+k_l_N%m_m*n_o_p_q_G/U'E^8/r_G/s_t_u_v_w_x_y_z_A_B_C_&{D_E_P@N^F_9-G_))N=**H_I__&J_[~K_L_b.M_>+i%N_]!Q$O_>,P_:/^&C@6=a;",
"X(Q_R_*'S_T_U_V_d H$W_D X_Y_u)4&Z_6^G/`_F'Y- :k^x!g!.:N!+:2%@:!>=,#:$:g(%:&:'~G,!@y&o=} a&*:A==:6=-$9],-j-I$-:>*y]h.%:m#;:*&l=>:",
"$!,:P)%~':&^n=):!:0#~:{:^_]:}~}^^:H]q-/:(:_:::X-V!u)4)<:[:}:{]|:a!1:P%O~2:3:.>q!4:5:X+F!$$6:[~#>T$7:8:-$9:|;p-0:h.>=a:b:%=f(q.z.",
"-:5_5)c:d:e:B_f:~*W `~U)R_g:|:h:i:j:b,k:5>l:m:[_N&n:^)K'7*o:p:^{f:C@N*n^q:r:d]n{B%6;2*)=T'm^8=N%s:p'*_h$j>f*$#y&h@K/t:u:v:w:D%Q^",
"E~x:V('&y:2/f*c!A(z:A:B:C:5)H!p]D:E:F:S+G:H:K+I:J:}&K:L:M:);u{N:b>O:I%(]P:#*i;r{D>Q:N,4'X),~P)5&5{R:S:9:  T:U:V:W:X:Y:2,Z:7$7{D#"};
