/* XPM */
static char * player_xpm[] = {
"64 64 3372 2",
"  	c #99796A",
". 	c #8E6D5A",
"+ 	c #8C6955",
"@ 	c #A78772",
"# 	c #92725D",
"$ 	c #91715C",
"% 	c #957560",
"& 	c #937460",
"* 	c #A98A78",
"= 	c #977762",
"- 	c #A2877E",
"; 	c #948484",
"> 	c #9B9096",
", 	c #A2979D",
"' 	c #977F73",
") 	c #967B72",
"! 	c #90756A",
"~ 	c #9B8075",
"{ 	c #AF9892",
"] 	c #9C9090",
"^ 	c #9A8B8E",
"/ 	c #9C8C8D",
"( 	c #896E5D",
"_ 	c #957664",
": 	c #937364",
"< 	c #988074",
"[ 	c #937B6F",
"} 	c #967B68",
"| 	c #8C705B",
"1 	c #9D8173",
"2 	c #997D71",
"3 	c #957C75",
"4 	c #957D73",
"5 	c #96827B",
"6 	c #95827E",
"7 	c #99857E",
"8 	c #927D78",
"9 	c #947F7C",
"0 	c #9A8486",
"a 	c #816154",
"b 	c #967969",
"c 	c #A08478",
"d 	c #91796D",
"e 	c #A1897F",
"f 	c #95796D",
"g 	c #987C6E",
"h 	c #937769",
"i 	c #977C73",
"j 	c #9A8685",
"k 	c #94858A",
"l 	c #947C7A",
"m 	c #9E8580",
"n 	c #A68B84",
"o 	c #9A7F74",
"p 	c #896E63",
"q 	c #9B827D",
"r 	c #A28E8D",
"s 	c #968283",
"t 	c #9F8785",
"u 	c #9C878C",
"v 	c #A69699",
"w 	c #927A76",
"x 	c #9D8176",
"y 	c #A68A7E",
"z 	c #987764",
"A 	c #967562",
"B 	c #92725B",
"C 	c #A38472",
"D 	c #9F8169",
"E 	c #957662",
"F 	c #8F705C",
"G 	c #8D6A54",
"H 	c #97888B",
"I 	c #918589",
"J 	c #8F7E77",
"K 	c #998079",
"L 	c #9D8279",
"M 	c #987E71",
"N 	c #95796B",
"O 	c #9C8176",
"P 	c #998680",
"Q 	c #988888",
"R 	c #9D8D8E",
"S 	c #A89A99",
"T 	c #0C2132",
"U 	c #0F2032",
"V 	c #152532",
"W 	c #0C1C2B",
"X 	c #0E2128",
"Y 	c #0A1B23",
"Z 	c #06141F",
"` 	c #0D1B28",
" .	c #141A2F",
"..	c #0A1025",
"+.	c #050B20",
"@.	c #0D1A33",
"#.	c #9C7F77",
"$.	c #917C79",
"%.	c #9F8A87",
"&.	c #A2867A",
"*.	c #977A6C",
"=.	c #9A7C71",
"-.	c #8B7065",
";.	c #AC958F",
">.	c #B1998F",
",.	c #977866",
"'.	c #8E6E5F",
").	c #927567",
"!.	c #97796E",
"~.	c #8F8387",
"{.	c #A0939D",
"].	c #86716E",
"^.	c #9A8783",
"/.	c #9E8F96",
"(.	c #A09198",
"_.	c #917569",
":.	c #9B7D72",
"<.	c #927162",
"[.	c #8B6B60",
"}.	c #907874",
"|.	c #958180",
"1.	c #998483",
"2.	c #8E7161",
"3.	c #977D6E",
"4.	c #9D7E6A",
"5.	c #9D806E",
"6.	c #A68977",
"7.	c #906F5C",
"8.	c #A18270",
"9.	c #93735E",
"0.	c #876750",
"a.	c #9B7A67",
"b.	c #987B6B",
"c.	c #96878A",
"d.	c #9E9198",
"e.	c #9C8E8E",
"f.	c #967E74",
"g.	c #A38D82",
"h.	c #998175",
"i.	c #8F7463",
"j.	c #9B8174",
"k.	c #A1867B",
"l.	c #08202B",
"m.	c #0C1D25",
"n.	c #0C1922",
"o.	c #09161F",
"p.	c #0D1721",
"q.	c #101721",
"r.	c #0A1119",
"s.	c #0A0F15",
"t.	c #080C15",
"u.	c #02060F",
"v.	c #00030C",
"w.	c #030712",
"x.	c #020612",
"y.	c #08121E",
"z.	c #091221",
"A.	c #0B182B",
"B.	c #03112B",
"C.	c #132340",
"D.	c #A48F8C",
"E.	c #91766D",
"F.	c #AC9186",
"G.	c #A4887D",
"H.	c #8F746B",
"I.	c #A28B85",
"J.	c #A68E84",
"K.	c #977A6A",
"L.	c #9F8479",
"M.	c #907267",
"N.	c #9D8180",
"O.	c #918289",
"P.	c #9E919A",
"Q.	c #9C8C8F",
"R.	c #A79CA2",
"S.	c #90868E",
"T.	c #8F848C",
"U.	c #886C60",
"V.	c #8F6E5D",
"W.	c #8D6C59",
"X.	c #A08277",
"Y.	c #8F7672",
"Z.	c #927D7C",
"`.	c #A38D8F",
" +	c #A48777",
".+	c #9D7C69",
"++	c #9E7D6A",
"@+	c #997A65",
"#+	c #93745F",
"$+	c #AA8B77",
"%+	c #A18472",
"&+	c #9A7966",
"*+	c #85654E",
"=+	c #8C6B5A",
"-+	c #9D8070",
";+	c #998A8D",
">+	c #A09196",
",+	c #917D7C",
"'+	c #A58E88",
")+	c #A9A0A5",
"!+	c #0E1C29",
"~+	c #0E1924",
"{+	c #161F28",
"]+	c #0C1319",
"^+	c #05080D",
"/+	c #0D1015",
"(+	c #03060B",
"_+	c #00030A",
":+	c #000106",
"<+	c #010006",
"[+	c #030208",
"}+	c #04030B",
"|+	c #020109",
"1+	c #02020A",
"2+	c #000108",
"3+	c #000509",
"4+	c #05000B",
"5+	c #04010C",
"6+	c #00010D",
"7+	c #010818",
"8+	c #0E1A2A",
"9+	c #0B162E",
"0+	c #0A1935",
"a+	c #A28780",
"b+	c #A18581",
"c+	c #A4908F",
"d+	c #AA9592",
"e+	c #9F8882",
"f+	c #A18F8B",
"g+	c #9E8B85",
"h+	c #947F7A",
"i+	c #9F94A4",
"j+	c #A9A0B1",
"k+	c #998890",
"l+	c #948485",
"m+	c #9D939B",
"n+	c #938991",
"o+	c #A297A5",
"p+	c #A39595",
"q+	c #906F5E",
"r+	c #937261",
"s+	c #997D72",
"t+	c #9F939D",
"u+	c #A89EA7",
"v+	c #A7989D",
"w+	c #A48571",
"x+	c #9F836E",
"y+	c #947863",
"z+	c #94745D",
"A+	c #9E7F6D",
"B+	c #8B6C58",
"C+	c #987B6D",
"D+	c #9C8889",
"E+	c #A79798",
"F+	c #AE9E9F",
"G+	c #9B8A83",
"H+	c #0A141E",
"I+	c #0F1719",
"J+	c #070E16",
"K+	c #080D13",
"L+	c #04050A",
"M+	c #060409",
"N+	c #050007",
"O+	c #090307",
"P+	c #040003",
"Q+	c #050004",
"R+	c #020106",
"S+	c #000105",
"T+	c #010207",
"U+	c #010005",
"V+	c #030207",
"W+	c #040308",
"X+	c #020107",
"Y+	c #000005",
"Z+	c #010008",
"`+	c #03030F",
" @	c #08091B",
".@	c #04061B",
"+@	c #050F29",
"@@	c #001A38",
"#@	c #8C7265",
"$@	c #987D72",
"%@	c #9A8073",
"&@	c #8C7468",
"*@	c #9A837D",
"=@	c #9C8782",
"-@	c #9C929D",
";@	c #988E99",
">@	c #948389",
",@	c #948282",
"'@	c #9E8E8F",
")@	c #8E8286",
"!@	c #998989",
"~@	c #826553",
"{@	c #9E8173",
"]@	c #8C6F67",
"^@	c #908186",
"/@	c #938791",
"(@	c #9E8E91",
"_@	c #AE8F7B",
":@	c #8F6F5A",
"<@	c #AD9082",
"[@	c #977A68",
"}@	c #AD9688",
"|@	c #A78C79",
"1@	c #94715B",
"2@	c #977663",
"3@	c #95786A",
"4@	c #A38B7F",
"5@	c #A48980",
"6@	c #A18C87",
"7@	c #92817A",
"8@	c #A49592",
"9@	c #102231",
"0@	c #18202B",
"a@	c #0F1219",
"b@	c #070707",
"c@	c #07060B",
"d@	c #030007",
"e@	c #05040A",
"f@	c #06030A",
"g@	c #070208",
"h@	c #050006",
"i@	c #030104",
"j@	c #07060C",
"k@	c #020308",
"l@	c #020005",
"m@	c #030106",
"n@	c #07060E",
"o@	c #03030D",
"p@	c #050713",
"q@	c #020818",
"r@	c #0A162E",
"s@	c #13233F",
"t@	c #9C8478",
"u@	c #978176",
"v@	c #8E756E",
"w@	c #9B847E",
"x@	c #988B94",
"y@	c #A19299",
"z@	c #9A8688",
"A@	c #A49292",
"B@	c #918383",
"C@	c #9E8F94",
"D@	c #94766B",
"E@	c #8F7167",
"F@	c #907772",
"G@	c #8C7D82",
"H@	c #A197A2",
"I@	c #9A8A8B",
"J@	c #90715D",
"K@	c #9A7D6B",
"L@	c #A1826E",
"M@	c #9D7E6C",
"N@	c #A28C7F",
"O@	c #AF9691",
"P@	c #926F59",
"Q@	c #A07F6E",
"R@	c #A4897E",
"S@	c #9A817A",
"T@	c #9C857D",
"U@	c #A38B81",
"V@	c #A8938E",
"W@	c #181C27",
"X@	c #11111B",
"Y@	c #120F18",
"Z@	c #08050C",
"`@	c #06050D",
" #	c #110E15",
".#	c #110C12",
"+#	c #150E15",
"@#	c #171017",
"##	c #1C121A",
"$#	c #261B23",
"%#	c #241A22",
"&#	c #181118",
"*#	c #0D0C12",
"=#	c #08070D",
"-#	c #040309",
";#	c #05050D",
">#	c #010409",
",#	c #01040B",
"'#	c #04040C",
")#	c #01010B",
"!#	c #03030B",
"~#	c #0D0F1C",
"{#	c #0D1023",
"]#	c #142243",
"^#	c #91796F",
"/#	c #9E867C",
"(#	c #997E75",
"_#	c #886F6A",
":#	c #968281",
"<#	c #917D7E",
"[#	c #978281",
"}#	c #9C8480",
"|#	c #98847D",
"1#	c #857166",
"2#	c #A08D87",
"3#	c #806355",
"4#	c #957870",
"5#	c #978486",
"6#	c #90838A",
"7#	c #91848D",
"8#	c #98878D",
"9#	c #A68773",
"0#	c #8E6F5D",
"a#	c #A18474",
"b#	c #9B7C68",
"c#	c #91715A",
"d#	c #A4846D",
"e#	c #9E7B65",
"f#	c #947259",
"g#	c #9B7F74",
"h#	c #9E877F",
"i#	c #A18881",
"j#	c #0B131F",
"k#	c #17161B",
"l#	c #0F0E13",
"m#	c #08070C",
"n#	c #020307",
"o#	c #09080E",
"p#	c #211E25",
"q#	c #2A2529",
"r#	c #271E21",
"s#	c #221819",
"t#	c #25191B",
"u#	c #1F1013",
"v#	c #2D1E21",
"w#	c #352629",
"x#	c #1D1314",
"y#	c #191013",
"z#	c #150F13",
"A#	c #19141B",
"B#	c #100D16",
"C#	c #08070F",
"D#	c #0A0911",
"E#	c #06060E",
"F#	c #03010C",
"G#	c #01030F",
"H#	c #070C29",
"I#	c #122646",
"J#	c #A68F87",
"K#	c #9D8277",
"L#	c #A48E90",
"M#	c #9F8B8C",
"N#	c #9D8887",
"O#	c #A18985",
"P#	c #8B7874",
"Q#	c #A39491",
"R#	c #8A6C61",
"S#	c #9D817E",
"T#	c #9F8F92",
"U#	c #928388",
"V#	c #8B7C81",
"W#	c #9B8C8F",
"X#	c #947767",
"Y#	c #9D8271",
"Z#	c #A28671",
"`#	c #8C6A51",
" $	c #916F56",
".$	c #8F6D54",
"+$	c #967763",
"@$	c #A28982",
"#$	c #A99491",
"$$	c #88746D",
"%$	c #948077",
"&$	c #131A24",
"*$	c #11161A",
"=$	c #0E1116",
"-$	c #0E0F14",
";$	c #0C0B10",
">$	c #090408",
",$	c #261A1E",
"'$	c #2A1A1D",
")$	c #322020",
"!$	c #3B2323",
"~$	c #4C302F",
"{$	c #5C3E36",
"]$	c #6B4A45",
"^$	c #5A3934",
"/$	c #60413E",
"($	c #4A2E2A",
"_$	c #361C1B",
":$	c #2E1616",
"<$	c #2A1618",
"[$	c #231419",
"}$	c #261B21",
"|$	c #190D17",
"1$	c #190F18",
"2$	c #150E16",
"3$	c #100B12",
"4$	c #0A070E",
"5$	c #130D17",
"6$	c #0D080F",
"7$	c #0B080F",
"8$	c #080611",
"9$	c #030511",
"0$	c #060A16",
"a$	c #080F22",
"b$	c #131E3C",
"c$	c #987C70",
"d$	c #9F847B",
"e$	c #99817F",
"f$	c #9C8881",
"g$	c #8A7268",
"h$	c #957E78",
"i$	c #9B8E95",
"j$	c #A79CA4",
"k$	c #908083",
"l$	c #9D8C92",
"m$	c #A6959B",
"n$	c #957866",
"o$	c #987F78",
"p$	c #A89183",
"q$	c #906D59",
"r$	c #A58A77",
"s$	c #9E7E69",
"t$	c #9A7A65",
"u$	c #90705B",
"v$	c #997B70",
"w$	c #A58C85",
"x$	c #988277",
"y$	c #131D2B",
"z$	c #1A151C",
"A$	c #0C0D11",
"B$	c #100E11",
"C$	c #140A0B",
"D$	c #321D1C",
"E$	c #46292D",
"F$	c #553536",
"G$	c #64413D",
"H$	c #6E4541",
"I$	c #794E48",
"J$	c #865B54",
"K$	c #92635D",
"L$	c #976860",
"M$	c #97685E",
"N$	c #8B5F54",
"O$	c #6F473F",
"P$	c #5C3731",
"Q$	c #5A3B38",
"R$	c #452D2D",
"S$	c #2F1B1C",
"T$	c #221117",
"U$	c #1E0F16",
"V$	c #1A0F15",
"W$	c #1E151A",
"X$	c #1C1316",
"Y$	c #1A1418",
"Z$	c #1D161D",
"`$	c #1C151D",
" %	c #15121B",
".%	c #0D0D19",
"+%	c #0F121B",
"@%	c #050A1D",
"#%	c #0C162F",
"$%	c #091C39",
"%%	c #A3877B",
"&%	c #8C746A",
"*%	c #9E8986",
"=%	c #9B8079",
"-%	c #9D8D8D",
";%	c #AA9BA0",
">%	c #AD9DA0",
",%	c #886C61",
"'%	c #998584",
")%	c #978488",
"!%	c #95898D",
"~%	c #A89EA6",
"{%	c #ABA0A8",
"]%	c #A0887C",
"^%	c #A48F8A",
"/%	c #9E8372",
"(%	c #A18570",
"_%	c #AE968A",
":%	c #997A68",
"<%	c #977C71",
"[%	c #A18C8B",
"}%	c #A89694",
"|%	c #8E7467",
"1%	c #0F1C2A",
"2%	c #1C2029",
"3%	c #101115",
"4%	c #0E0F13",
"5%	c #151016",
"6%	c #190E12",
"7%	c #473332",
"8%	c #6F504B",
"9%	c #896358",
"0%	c #986C5F",
"a%	c #A17262",
"b%	c #A87564",
"c%	c #A77262",
"d%	c #AA7263",
"e%	c #AA7062",
"f%	c #AF7464",
"g%	c #AD7260",
"h%	c #A9705D",
"i%	c #A06C5F",
"j%	c #98665B",
"k%	c #91665D",
"l%	c #805952",
"m%	c #65443F",
"n%	c #4B2D2B",
"o%	c #4A3031",
"p%	c #543E40",
"q%	c #4F3B3C",
"r%	c #503C3B",
"s%	c #523C3E",
"t%	c #583F43",
"u%	c #533E45",
"v%	c #48343D",
"w%	c #34242E",
"x%	c #191321",
"y%	c #14101F",
"z%	c #121423",
"A%	c #0A0F23",
"B%	c #161A3D",
"C%	c #8F766F",
"D%	c #9E8781",
"E%	c #927972",
"F%	c #9A7D75",
"G%	c #9F8C86",
"H%	c #9D8B89",
"I%	c #A19393",
"J%	c #987C71",
"K%	c #A898A2",
"L%	c #ABA1AA",
"M%	c #93868D",
"N%	c #A696A0",
"O%	c #A398A0",
"P%	c #ABA1A9",
"Q%	c #9F9191",
"R%	c #AC9995",
"S%	c #9A7F6E",
"T%	c #9A7B67",
"U%	c #997F72",
"V%	c #988275",
"W%	c #927C6F",
"X%	c #101A24",
"Y%	c #12161F",
"Z%	c #0A090E",
"`%	c #140F16",
" &	c #261D22",
".&	c #382527",
"+&	c #634640",
"@&	c #946C60",
"#&	c #A37261",
"$&	c #AA7764",
"%&	c #B17865",
"&&	c #B17763",
"*&	c #B37965",
"=&	c #B37866",
"-&	c #B27562",
";&	c #B17461",
">&	c #AE705B",
",&	c #AB7060",
"'&	c #A66C5E",
")&	c #A67163",
"!&	c #9A6A5E",
"~&	c #926359",
"{&	c #7D554B",
"]&	c #734E46",
"^&	c #795650",
"/&	c #7C5B56",
"(&	c #795851",
"_&	c #7C5A58",
":&	c #775353",
"<&	c #77575A",
"[&	c #725359",
"}&	c #6B5258",
"|&	c #4F4351",
"1&	c #221624",
"2&	c #1F1923",
"3&	c #171522",
"4&	c #0D0D25",
"5&	c #10163B",
"6&	c #9C8784",
"7&	c #AA9697",
"8&	c #9F8A85",
"9&	c #A58C87",
"0&	c #B2A0A0",
"a&	c #AB989A",
"b&	c #917466",
"c&	c #947B76",
"d&	c #A699A0",
"e&	c #978989",
"f&	c #A39594",
"g&	c #A09498",
"h&	c #998785",
"i&	c #A0887E",
"j&	c #9C7F6D",
"k&	c #987863",
"l&	c #90715C",
"m&	c #AEA0A0",
"n&	c #1C2A38",
"o&	c #1B2228",
"p&	c #050A0E",
"q&	c #130E12",
"r&	c #151014",
"s&	c #291D1F",
"t&	c #573D3C",
"u&	c #8F6960",
"v&	c #AA7766",
"w&	c #B17968",
"x&	c #B37A69",
"y&	c #B37664",
"z&	c #B67967",
"A&	c #B57768",
"B&	c #B07766",
"C&	c #AF7766",
"D&	c #AE7564",
"E&	c #B17364",
"F&	c #AF7260",
"G&	c #AB7261",
"H&	c #A87061",
"I&	c #AA7265",
"J&	c #A16D5F",
"K&	c #99675C",
"L&	c #92665D",
"M&	c #956862",
"N&	c #94685F",
"O&	c #946962",
"P&	c #936764",
"Q&	c #8E6664",
"R&	c #896567",
"S&	c #86666B",
"T&	c #7C6871",
"U&	c #796976",
"V&	c #3A2E3C",
"W&	c #07010B",
"X&	c #0F0D1B",
"Y&	c #18263F",
"Z&	c #A4989C",
"`&	c #947C78",
" *	c #B59D99",
".*	c #9D8883",
"+*	c #9B8786",
"@*	c #9C8985",
"#*	c #9B7E70",
"$*	c #A4918D",
"%*	c #A38F8E",
"&*	c #977F7B",
"**	c #947874",
"=*	c #977F75",
"-*	c #A49089",
";*	c #9F877B",
">*	c #987861",
",*	c #A0806B",
"'*	c #9F806E",
")*	c #9A8278",
"!*	c #121D22",
"~*	c #0B0A10",
"{*	c #090A0F",
"]*	c #090D0E",
"^*	c #0F1110",
"/*	c #151314",
"(*	c #2A1E1E",
"_*	c #5A3E3A",
":*	c #9E7468",
"<*	c #AD7866",
"[*	c #AE7A65",
"}*	c #B37A66",
"|*	c #B57C68",
"1*	c #B47B6A",
"2*	c #B67966",
"3*	c #B27361",
"4*	c #AD7463",
"5*	c #AE7665",
"6*	c #A97162",
"7*	c #A36E5E",
"8*	c #9E6A5D",
"9*	c #98685E",
"0*	c #996A62",
"a*	c #9A685F",
"b*	c #9A6763",
"c*	c #996967",
"d*	c #94676A",
"e*	c #8F686D",
"f*	c #8D7075",
"g*	c #8B7083",
"h*	c #7B657C",
"i*	c #302334",
"j*	c #06000B",
"k*	c #0A0815",
"l*	c #14112E",
"m*	c #AFA4AC",
"n*	c #A38E8B",
"o*	c #A68F89",
"p*	c #9D8982",
"q*	c #A38E89",
"r*	c #AA968F",
"s*	c #A18579",
"t*	c #A89591",
"u*	c #A0857E",
"v*	c #9F827A",
"w*	c #AE9181",
"x*	c #AA8D7B",
"y*	c #A08574",
"z*	c #232833",
"A*	c #13161D",
"B*	c #100B0F",
"C*	c #05040C",
"D*	c #1B191A",
"E*	c #1A1A1C",
"F*	c #322626",
"G*	c #634A43",
"H*	c #9B7165",
"I*	c #B37B6A",
"J*	c #B07C66",
"K*	c #B17962",
"L*	c #B47A64",
"M*	c #B67D69",
"N*	c #B67C68",
"O*	c #B27864",
"P*	c #B07662",
"Q*	c #AE7562",
"R*	c #B07565",
"S*	c #AC7362",
"T*	c #A77260",
"U*	c #A06C5E",
"V*	c #99685A",
"W*	c #996A60",
"X*	c #986961",
"Y*	c #9C6C62",
"Z*	c #9A6A60",
"`*	c #936B6B",
" =	c #937279",
".=	c #977583",
"+=	c #907385",
"@=	c #846D7F",
"#=	c #2B202E",
"$=	c #05000D",
"%=	c #181528",
"&=	c #1B1C3A",
"*=	c #98837E",
"==	c #8E7267",
"-=	c #94776F",
";=	c #A38881",
">=	c #927668",
",=	c #A99692",
"'=	c #9A7F76",
")=	c #A3877C",
"!=	c #A98E85",
"~=	c #907059",
"{=	c #927259",
"]=	c #9F8270",
"^=	c #B39C94",
"/=	c #AD9589",
"(=	c #1E212A",
"_=	c #0E1215",
":=	c #080609",
"<=	c #100F15",
"[=	c #1A1519",
"}=	c #2D272B",
"|=	c #332525",
"1=	c #6D524B",
"2=	c #956D61",
"3=	c #AE7B68",
"4=	c #AD7964",
"5=	c #B17864",
"6=	c #B57B65",
"7=	c #B37963",
"8=	c #B47A66",
"9=	c #B07764",
"0=	c #A67161",
"a=	c #9E6D5F",
"b=	c #9D6D63",
"c=	c #9A6B63",
"d=	c #95665E",
"e=	c #946865",
"f=	c #916969",
"g=	c #937172",
"h=	c #927178",
"i=	c #937483",
"j=	c #8D7688",
"k=	c #5C4E5D",
"l=	c #140C19",
"m=	c #0F0C1D",
"n=	c #13152E",
"o=	c #9B8379",
"p=	c #AD9289",
"q=	c #A68B80",
"r=	c #AA8F88",
"s=	c #977B6F",
"t=	c #9E8984",
"u=	c #AA9793",
"v=	c #95796E",
"w=	c #A08B86",
"x=	c #99827A",
"y=	c #A78D80",
"z=	c #9B7B64",
"A=	c #9A7A63",
"B=	c #9A7B66",
"C=	c #AD948D",
"D=	c #9F887A",
"E=	c #111217",
"F=	c #090A0C",
"G=	c #08060B",
"H=	c #18151C",
"I=	c #1F1A20",
"J=	c #30252B",
"K=	c #382829",
"L=	c #60453E",
"M=	c #926A5E",
"N=	c #AB7B67",
"O=	c #B27A69",
"P=	c #AF7662",
"Q=	c #B57865",
"R=	c #B37663",
"S=	c #B17664",
"T=	c #AC7264",
"U=	c #A57060",
"V=	c #9F6B5D",
"W=	c #A16D60",
"X=	c #9D6B60",
"Y=	c #99695F",
"Z=	c #98695F",
"`=	c #946762",
" -	c #936A68",
".-	c #8F6C6A",
"+-	c #926E72",
"@-	c #92727D",
"#-	c #8F7483",
"$-	c #7B6B78",
"%-	c #1D1220",
"&-	c #181423",
"*-	c #08061B",
"=-	c #1E2340",
"--	c #AE9388",
";-	c #8C7064",
">-	c #A68A7F",
",-	c #A88D84",
"'-	c #A48C88",
")-	c #AB9995",
"!-	c #9D827B",
"~-	c #A99999",
"{-	c #AC9A9A",
"]-	c #977864",
"^-	c #A18168",
"/-	c #9A7763",
"(-	c #A3897A",
"_-	c #08171E",
":-	c #04080B",
"<-	c #09040A",
"[-	c #1B181F",
"}-	c #231C24",
"|-	c #422F31",
"1-	c #674A44",
"2-	c #A67360",
"3-	c #AF7768",
"4-	c #B47764",
"5-	c #AF7663",
"6-	c #AC7463",
"7-	c #A87361",
"8-	c #AE7667",
"9-	c #A87466",
"0-	c #A36F62",
"a-	c #9F6B5E",
"b-	c #9D695E",
"c-	c #9A685D",
"d-	c #97675D",
"e-	c #92655F",
"f-	c #8F6968",
"g-	c #90696C",
"h-	c #937076",
"i-	c #8F737F",
"j-	c #84737D",
"k-	c #3E3240",
"l-	c #211E29",
"m-	c #1C192A",
"n-	c #12122A",
"o-	c #9F8274",
"p-	c #987A6F",
"q-	c #A58880",
"r-	c #A5897E",
"s-	c #907363",
"t-	c #8F7264",
"u-	c #A58A83",
"v-	c #B39891",
"w-	c #998272",
"x-	c #9C7D69",
"y-	c #A38470",
"z-	c #9B7960",
"A-	c #121F28",
"B-	c #000407",
"C-	c #090209",
"D-	c #050409",
"E-	c #100F14",
"F-	c #1F1C23",
"G-	c #251E26",
"H-	c #2D2228",
"I-	c #433334",
"J-	c #684B45",
"K-	c #956B5F",
"L-	c #A46F5D",
"M-	c #AF7665",
"N-	c #AC7360",
"O-	c #A57261",
"P-	c #A97464",
"Q-	c #A77365",
"R-	c #A47063",
"S-	c #9F6B60",
"T-	c #A07066",
"U-	c #9B6B61",
"V-	c #996A64",
"W-	c #966964",
"X-	c #906868",
"Y-	c #926A6B",
"Z-	c #94767E",
"`-	c #8A767F",
" ;	c #554754",
".;	c #241E28",
"+;	c #25212F",
"@;	c #110D24",
"#;	c #191A3B",
"$;	c #9E816F",
"%;	c #917162",
"&;	c #92766A",
"*;	c #9A7E72",
"=;	c #A4887C",
"-;	c #896C5E",
";;	c #A4877F",
">;	c #A98E83",
",;	c #A69395",
"';	c #A5897B",
");	c #A0816D",
"!;	c #A1816C",
"~;	c #A58674",
"{;	c #051019",
"];	c #060006",
"^;	c #08080A",
"/;	c #09080D",
"(;	c #131217",
"_;	c #252328",
":;	c #2D262D",
"<;	c #382B32",
"[;	c #463335",
"};	c #664B42",
"|;	c #8D6657",
"1;	c #A5705E",
"2;	c #AD7662",
"3;	c #B27765",
"4;	c #B77A67",
"5;	c #B47765",
"6;	c #B57866",
"7;	c #AF7462",
"8;	c #AB7364",
"9;	c #A87365",
"0;	c #A97567",
"a;	c #AB7267",
"b;	c #A77165",
"c;	c #9B6A5C",
"d;	c #9C6B5D",
"e;	c #9E6C61",
"f;	c #9F6D64",
"g;	c #9A6B65",
"h;	c #936B69",
"i;	c #956B6D",
"j;	c #946D70",
"k;	c #927277",
"l;	c #90777D",
"m;	c #705C68",
"n;	c #31262E",
"o;	c #18121C",
"p;	c #1C192C",
"q;	c #110E23",
"r;	c #967661",
"s;	c #AA8E82",
"t;	c #AD9185",
"u;	c #93796C",
"v;	c #8C6F5F",
"w;	c #A89392",
"x;	c #95837F",
"y;	c #A39CA3",
"z;	c #9B7B66",
"A;	c #9F806C",
"B;	c #A18577",
"C;	c #0F1922",
"D;	c #0E0D13",
"E;	c #0B030E",
"F;	c #0D0B10",
"G;	c #0D0C11",
"H;	c #19191B",
"I;	c #302B2F",
"J;	c #372E31",
"K;	c #3D2E31",
"L;	c #463231",
"M;	c #6C4E44",
"N;	c #906658",
"O;	c #AE7466",
"P;	c #B57A68",
"Q;	c #B37868",
"R;	c #B17666",
"S;	c #B17867",
"T;	c #AE7669",
"U;	c #AC7368",
"V;	c #AA7567",
"W;	c #AB7569",
"X;	c #AA7468",
"Y;	c #A26C60",
"Z;	c #A16D62",
"`;	c #A16F66",
" >	c #9E6C63",
".>	c #9C6D67",
"+>	c #966D6B",
"@>	c #936B6C",
"#>	c #916A6D",
"$>	c #93787D",
"%>	c #77626B",
"&>	c #362930",
"*>	c #211C23",
"=>	c #201929",
"->	c #191120",
";>	c #31212F",
">>	c #9D7C6B",
",>	c #967C6F",
"'>	c #A08B88",
")>	c #A99CA3",
"!>	c #A18E92",
"~>	c #988A87",
"{>	c #A3887D",
"]>	c #A59393",
"^>	c #A9A2AA",
"/>	c #AB8E80",
"(>	c #AB8F7A",
"_>	c #A39393",
":>	c #18222B",
"<>	c #07080C",
"[>	c #0F0A10",
"}>	c #16131A",
"|>	c #161419",
"1>	c #2D2B2E",
"2>	c #382F30",
"3>	c #3B2F2F",
"4>	c #3F302D",
"5>	c #4A332D",
"6>	c #725044",
"7>	c #996E5E",
"8>	c #A87562",
"9>	c #B07563",
"0>	c #B67B6B",
"a>	c #AF7864",
"b>	c #AE7967",
"c>	c #AB7668",
"d>	c #A97367",
"e>	c #A76E65",
"f>	c #A87266",
"g>	c #AD776B",
"h>	c #A16B5F",
"i>	c #A56F63",
"j>	c #A46E62",
"k>	c #A47065",
"l>	c #A27067",
"m>	c #986B66",
"n>	c #93696A",
"o>	c #946E6D",
"p>	c #8C6868",
"q>	c #8B6B6E",
"r>	c #8F7276",
"s>	c #866F75",
"t>	c #3C2D32",
"u>	c #282129",
"v>	c #2D2534",
"w>	c #261A24",
"x>	c #20070F",
"y>	c #A68979",
"z>	c #B0988E",
"A>	c #A88D82",
"B>	c #A39799",
"C>	c #9E8E8E",
"D>	c #B09B96",
"E>	c #AB9F9F",
"F>	c #AEA7AE",
"G>	c #9D826F",
"H>	c #A48873",
"I>	c #A68C7D",
"J>	c #8E786A",
"K>	c #142029",
"L>	c #080C0F",
"M>	c #161417",
"N>	c #16131C",
"O>	c #1E1C21",
"P>	c #3D3334",
"Q>	c #3D2F2E",
"R>	c #382924",
"S>	c #523B33",
"T>	c #7F5B4D",
"U>	c #9B705F",
"V>	c #AB7865",
"W>	c #B27965",
"X>	c #B67C70",
"Y>	c #AF7A6A",
"Z>	c #AD796B",
"`>	c #AC7B6D",
" ,	c #A9776C",
".,	c #A47365",
"+,	c #A97369",
"@,	c #AA746A",
"#,	c #AC766C",
"$,	c #AB776A",
"%,	c #AE786C",
"&,	c #AC766A",
"*,	c #A06A5E",
"=,	c #A67064",
"-,	c #946A6B",
";,	c #926C6B",
">,	c #92706F",
",,	c #8A6C6E",
"',	c #8C6F71",
"),	c #8D7376",
"!,	c #48393C",
"~,	c #2F2732",
"{,	c #281D2D",
"],	c #251520",
"^,	c #321717",
"/,	c #9F8473",
"(,	c #A08780",
"_,	c #9C837C",
":,	c #8B746C",
"<,	c #AC9897",
"[,	c #8E776F",
"},	c #A48982",
"|,	c #B1A2A5",
"1,	c #998274",
"2,	c #A78A7A",
"3,	c #A78B76",
"4,	c #AC9488",
"5,	c #9E887B",
"6,	c #162328",
"7,	c #111516",
"8,	c #131116",
"9,	c #18131A",
"0,	c #252024",
"a,	c #2B2525",
"b,	c #433836",
"c,	c #473835",
"d,	c #3C2420",
"e,	c #5F4139",
"f,	c #936E5E",
"g,	c #A17260",
"h,	c #A87766",
"i,	c #A97963",
"j,	c #AD7A67",
"k,	c #AD7A69",
"l,	c #A9796B",
"m,	c #91655A",
"n,	c #875D51",
"o,	c #825C51",
"p,	c #845E53",
"q,	c #896159",
"r,	c #876158",
"s,	c #8E635A",
"t,	c #9A7064",
"u,	c #9A6E61",
"v,	c #A37264",
"w,	c #AA786D",
"x,	c #A2695E",
"y,	c #9A6659",
"z,	c #A27266",
"A,	c #946A5E",
"B,	c #906B63",
"C,	c #8D6764",
"D,	c #836160",
"E,	c #80615E",
"F,	c #836364",
"G,	c #7B5D5F",
"H,	c #85686A",
"I,	c #8B7275",
"J,	c #6E5B5F",
"K,	c #24141E",
"L,	c #3A2D37",
"M,	c #221316",
"N,	c #35201F",
"O,	c #A1867D",
"P,	c #B09993",
"Q,	c #A7908A",
"R,	c #A58E86",
"S,	c #98817B",
"T,	c #A6928B",
"U,	c #937366",
"V,	c #9E8378",
"W,	c #9B8F93",
"X,	c #9B8172",
"Y,	c #A98C7C",
"Z,	c #A48A7B",
"`,	c #9D8579",
" '	c #9B8577",
".'	c #17292E",
"+'	c #13181C",
"@'	c #18171F",
"#'	c #1D1A21",
"$'	c #272226",
"%'	c #2A2426",
"&'	c #423433",
"*'	c #473430",
"='	c #7D5B52",
"-'	c #A07467",
";'	c #A47563",
">'	c #A77463",
",'	c #A57666",
"''	c #A47565",
")'	c #A07265",
"!'	c #815D51",
"~'	c #755349",
"{'	c #5C3E34",
"]'	c #492E25",
"^'	c #40281E",
"/'	c #381F18",
"('	c #43261E",
"_'	c #5F3D34",
":'	c #765246",
"<'	c #805B4B",
"['	c #976759",
"}'	c #AB7A6C",
"|'	c #A26D5F",
"1'	c #9B6658",
"2'	c #8C584D",
"3'	c #875A54",
"4'	c #77524A",
"5'	c #654643",
"6'	c #614343",
"7'	c #513B3D",
"8'	c #5F4747",
"9'	c #5A4144",
"0'	c #664D51",
"a'	c #74595E",
"b'	c #846B6E",
"c'	c #8B7675",
"d'	c #897979",
"e'	c #2B1C1F",
"f'	c #413036",
"g'	c #35231F",
"h'	c #3E241C",
"i'	c #9A8580",
"j'	c #AD9690",
"k'	c #9F8B84",
"l'	c #B19C99",
"m'	c #8D7062",
"n'	c #887169",
"o'	c #A79B9D",
"p'	c #A7968C",
"q'	c #A38674",
"r'	c #967B6A",
"s'	c #A69085",
"t'	c #A69696",
"u'	c #AE9F9C",
"v'	c #181F25",
"w'	c #202028",
"x'	c #1E1920",
"y'	c #231E24",
"z'	c #292325",
"A'	c #402E2E",
"B'	c #472D2C",
"C'	c #745249",
"D'	c #A2786C",
"E'	c #A47364",
"F'	c #A6715F",
"G'	c #885A4B",
"H'	c #75493C",
"I'	c #754F42",
"J'	c #6A4A3F",
"K'	c #62463B",
"L'	c #563933",
"M'	c #3C201C",
"N'	c #230E09",
"O'	c #230E0B",
"P'	c #240F0E",
"Q'	c #220B05",
"R'	c #42241C",
"S'	c #4C2C21",
"T'	c #6C4639",
"U'	c #916354",
"V'	c #9F6A5A",
"W'	c #925D4F",
"X'	c #7C4C40",
"Y'	c #825A52",
"Z'	c #553230",
"`'	c #432A26",
" )	c #311D1C",
".)	c #1C080A",
"+)	c #16070A",
"@)	c #140508",
"#)	c #26151B",
"$)	c #2D1C22",
"%)	c #432E33",
"&)	c #644F54",
"*)	c #786368",
"=)	c #8E7E81",
"-)	c #4F3E44",
";)	c #2F1C1E",
">)	c #3E2A23",
",)	c #94786A",
"')	c #A48B84",
"))	c #A68D86",
"!)	c #997D6F",
"~)	c #9A7D6D",
"{)	c #A2867B",
"])	c #A48D85",
"^)	c #A29493",
"/)	c #B0A19E",
"()	c #987C67",
"_)	c #A08371",
":)	c #AA8F7E",
"<)	c #8B7160",
"[)	c #ACA3A8",
"})	c #B6ADB0",
"|)	c #252A30",
"1)	c #27242B",
"2)	c #2D262E",
"3)	c #2A252C",
"4)	c #2A2428",
"5)	c #382423",
"6)	c #543834",
"7)	c #916B60",
"8)	c #A27465",
"9)	c #90614F",
"0)	c #6B3D2E",
"a)	c #5D3323",
"b)	c #593525",
"c)	c #57372A",
"d)	c #64463B",
"e)	c #5D3C33",
"f)	c #4F322A",
"g)	c #503430",
"h)	c #4B322E",
"i)	c #472929",
"j)	c #462A26",
"k)	c #46231D",
"l)	c #4E2A1E",
"m)	c #5B3423",
"n)	c #8A5948",
"o)	c #A06B5B",
"p)	c #885748",
"q)	c #72463B",
"r)	c #3B1D1B",
"s)	c #25100D",
"t)	c #150301",
"u)	c #190608",
"v)	c #110104",
"w)	c #0F0101",
"x)	c #160609",
"y)	c #2E1A1C",
"z)	c #3E2A2B",
"A)	c #4D373A",
"B)	c #766264",
"C)	c #6E5E61",
"D)	c #271315",
"E)	c #3F2822",
"F)	c #AB8F84",
"G)	c #8E7368",
"H)	c #A08479",
"I)	c #937666",
"J)	c #957868",
"K)	c #A99185",
"L)	c #9E857E",
"M)	c #A89899",
"N)	c #8B6C57",
"O)	c #9B7E6C",
"P)	c #A79080",
"Q)	c #A58D81",
"R)	c #A3897C",
"S)	c #968784",
"T)	c #2B2B33",
"U)	c #2B242B",
"V)	c #30262E",
"W)	c #2F2830",
"X)	c #282226",
"Y)	c #301C1B",
"Z)	c #644844",
"`)	c #9E786B",
" !	c #A77769",
".!	c #A97560",
"+!	c #936653",
"@!	c #8D604D",
"#!	c #8D6452",
"$!	c #8A6753",
"%!	c #846352",
"&!	c #836253",
"*!	c #7C6052",
"=!	c #72564A",
"-!	c #70554A",
";!	c #6C4F49",
">!	c #593735",
",!	c #563331",
"'!	c #5B322E",
")!	c #663C30",
"!!	c #734837",
"~!	c #925F4C",
"{!	c #A9725E",
"]!	c #9F6A58",
"^!	c #895849",
"/!	c #73483F",
"(!	c #694640",
"_!	c #391D19",
":!	c #2B1611",
"<!	c #301D19",
"[!	c #3A2124",
"}!	c #402C2E",
"|!	c #4E3C3C",
"1!	c #544242",
"2!	c #4E3A3B",
"3!	c #422E2F",
"4!	c #36231F",
"5!	c #3E2624",
"6!	c #5A4743",
"7!	c #857371",
"8!	c #1A0605",
"9!	c #422E23",
"0!	c #A9928C",
"a!	c #9F8F8F",
"b!	c #AEA6B1",
"c!	c #ACA1A7",
"d!	c #9C8786",
"e!	c #ACA4B1",
"f!	c #A8A0AB",
"g!	c #9F877D",
"h!	c #A29899",
"i!	c #A28B7D",
"j!	c #997C6A",
"k!	c #9A7F6C",
"l!	c #AF9D99",
"m!	c #A1928F",
"n!	c #A6938D",
"o!	c #A39497",
"p!	c #7C6869",
"q!	c #4D3533",
"r!	c #2D1817",
"s!	c #2E2321",
"t!	c #2D2729",
"u!	c #392628",
"v!	c #6A4D47",
"w!	c #A87D74",
"x!	c #AC786B",
"y!	c #A97661",
"z!	c #9D6D59",
"A!	c #986550",
"B!	c #956654",
"C!	c #8D6856",
"D!	c #614436",
"E!	c #4C342A",
"F!	c #5B443C",
"G!	c #4E3731",
"H!	c #3E2924",
"I!	c #361D19",
"J!	c #2D0B09",
"K!	c #391715",
"L!	c #451E17",
"M!	c #512316",
"N!	c #703B2B",
"O!	c #9E6655",
"P!	c #B0765E",
"Q!	c #9B675A",
"R!	c #895C56",
"S!	c #664B44",
"T!	c #24110B",
"U!	c #2E1A19",
"V!	c #301E1C",
"W!	c #412D2C",
"X!	c #4D3835",
"Y!	c #4D3833",
"Z!	c #47322D",
"`!	c #523A36",
" ~	c #6E5551",
".~	c #684F4B",
"+~	c #6D5150",
"@~	c #7A635D",
"#~	c #9F8C88",
"$~	c #220A0A",
"%~	c #492B1F",
"&~	c #9A8884",
"*~	c #8F8586",
"=~	c #A79DA5",
"-~	c #957D79",
";~	c #9E9399",
">~	c #A29BA3",
",~	c #AD9B99",
"'~	c #93786D",
")~	c #AA9791",
"!~	c #B0988C",
"~~	c #B19A92",
"{~	c #B09E9E",
"]~	c #A79593",
"^~	c #A38D80",
"/~	c #9B8B8B",
"(~	c #B58C86",
"_~	c #9D7168",
":~	c #5E3835",
"<~	c #402421",
"[~	c #362325",
"}~	c #452C2F",
"|~	c #75544F",
"1~	c #A87D6D",
"2~	c #AE7969",
"3~	c #AB725F",
"4~	c #A6725C",
"5~	c #9B6853",
"6~	c #925F4A",
"7~	c #7C4E3E",
"8~	c #401C10",
"9~	c #523730",
"0~	c #220F0B",
"a~	c #120000",
"b~	c #110200",
"c~	c #0F0100",
"d~	c #140200",
"e~	c #4C3430",
"f~	c #230704",
"g~	c #320F09",
"h~	c #5D3124",
"i~	c #744032",
"j~	c #975E4D",
"k~	c #B17761",
"l~	c #B07867",
"m~	c #90635D",
"n~	c #63453D",
"o~	c #25100F",
"p~	c #150303",
"q~	c #140606",
"r~	c #130407",
"s~	c #221414",
"t~	c #140603",
"u~	c #251311",
"v~	c #483531",
"w~	c #321A18",
"x~	c #6B4F4C",
"y~	c #7F695E",
"z~	c #A5908B",
"A~	c #402627",
"B~	c #3B1D13",
"C~	c #9D8680",
"D~	c #9D8B87",
"E~	c #A5989F",
"F~	c #ADA2A8",
"G~	c #AA9B9E",
"H~	c #A69FA7",
"I~	c #AFA7B2",
"J~	c #967F79",
"K~	c #B5A29C",
"L~	c #AF988A",
"M~	c #A89086",
"N~	c #A2908C",
"O~	c #A59691",
"P~	c #A9968F",
"Q~	c #7B5F5E",
"R~	c #773E35",
"S~	c #A4685D",
"T~	c #9F6D62",
"U~	c #866057",
"V~	c #492D29",
"W~	c #422A28",
"X~	c #775C53",
"Y~	c #A97B6B",
"Z~	c #AB7666",
"`~	c #AC7561",
" {	c #A27059",
".{	c #98624A",
"+{	c #85503E",
"@{	c #714232",
"#{	c #4D2519",
"${	c #300F08",
"%{	c #4A2E2B",
"&{	c #69514D",
"*{	c #210905",
"={	c #1C0702",
"-{	c #28100C",
";{	c #5B3E38",
">{	c #3D1B19",
",{	c #472019",
"'{	c #5B2B1F",
"){	c #854D3C",
"!{	c #A06553",
"~{	c #B17769",
"{{	c #A67066",
"]{	c #996863",
"^{	c #7C5550",
"/{	c #1B0605",
"({	c #220F11",
"_{	c #53494A",
":{	c #0F090B",
"<{	c #030102",
"[{	c #070302",
"}{	c #2D2523",
"|{	c #1D1210",
"1{	c #1C0D0A",
"2{	c #392524",
"3{	c #371B1A",
"4{	c #6C544A",
"5{	c #967D76",
"6{	c #694B4B",
"7{	c #55372D",
"8{	c #B29D9A",
"9{	c #B4A0A2",
"0{	c #8E736A",
"a{	c #ABA0A4",
"b{	c #9F8F90",
"c{	c #B1AAB2",
"d{	c #A2979B",
"e{	c #A49696",
"f{	c #ADA1A5",
"g{	c #977D70",
"h{	c #AA9083",
"i{	c #A89084",
"j{	c #917E70",
"k{	c #9A7E70",
"l{	c #A48E81",
"m{	c #754F4A",
"n{	c #925246",
"o{	c #C58375",
"p{	c #9B6251",
"q{	c #694841",
"r{	c #432724",
"s{	c #795D52",
"t{	c #A97665",
"u{	c #AC7765",
"v{	c #A1715A",
"w{	c #9E6A52",
"x{	c #96614F",
"y{	c #9A6756",
"z{	c #926353",
"A{	c #7B4F42",
"B{	c #724A3E",
"C{	c #6B4135",
"D{	c #754D45",
"E{	c #6D473E",
"F{	c #6B433B",
"G{	c #693D34",
"H{	c #673832",
"I{	c #724037",
"J{	c #844C3F",
"K{	c #9B6050",
"L{	c #B17261",
"M{	c #B77A68",
"N{	c #B3796B",
"O{	c #A87268",
"P{	c #A3706D",
"Q{	c #472826",
"R{	c #4F3234",
"S{	c #443232",
"T{	c #443838",
"U{	c #2A201F",
"V{	c #291F1E",
"W{	c #453736",
"X{	c #362626",
"Y{	c #1E0A0B",
"Z{	c #1A0406",
"`{	c #3F2224",
" ]	c #654A41",
".]	c #8B6E68",
"+]	c #947572",
"@]	c #523227",
"#]	c #967765",
"$]	c #A79392",
"%]	c #988173",
"&]	c #8C7263",
"*]	c #B29E95",
"=]	c #AD968E",
"-]	c #A08977",
";]	c #A2938E",
">]	c #A29896",
",]	c #AEA2A2",
"']	c #77463F",
")]	c #B67360",
"!]	c #C68370",
"~]	c #A1644F",
"{]	c #A06B59",
"]]	c #845950",
"^]	c #4B2927",
"/]	c #815C54",
"(]	c #A67868",
"_]	c #A67767",
":]	c #AA735E",
"<]	c #A66F5B",
"[]	c #A46D59",
"}]	c #A46B58",
"|]	c #A16654",
"1]	c #975C4C",
"2]	c #985A4B",
"3]	c #8E5345",
"4]	c #7F4537",
"5]	c #7A3E33",
"6]	c #824439",
"7]	c #96574E",
"8]	c #A26457",
"9]	c #A46252",
"0]	c #AF6D5D",
"a]	c #B27060",
"b]	c #B77869",
"c]	c #AF7368",
"d]	c #A56E67",
"e]	c #A16E6B",
"f]	c #946764",
"g]	c #744B49",
"h]	c #6B4445",
"i]	c #634344",
"j]	c #5D3F41",
"k]	c #5A3D3F",
"l]	c #513534",
"m]	c #523635",
"n]	c #5E4241",
"o]	c #634545",
"p]	c #6C4C4F",
"q]	c #79535E",
"r]	c #75574F",
"s]	c #81665F",
"t]	c #AF8D8E",
"u]	c #5B3329",
"v]	c #AB9691",
"w]	c #9F867F",
"x]	c #9F8377",
"y]	c #A08476",
"z]	c #A58A7F",
"A]	c #AEA3A1",
"B]	c #957A67",
"C]	c #9B806F",
"D]	c #825049",
"E]	c #BF7C6B",
"F]	c #C88572",
"G]	c #BD806B",
"H]	c #AA715E",
"I]	c #4A2723",
"J]	c #815A53",
"K]	c #A87A6A",
"L]	c #A37464",
"M]	c #A77665",
"N]	c #AD7460",
"O]	c #AC715F",
"P]	c #A96C5A",
"Q]	c #9F604F",
"R]	c #9E5C4E",
"S]	c #9A5B4C",
"T]	c #9D5F50",
"U]	c #96564A",
"V]	c #A56357",
"W]	c #A6665C",
"X]	c #AA685A",
"Y]	c #AE6C5C",
"Z]	c #B37161",
"`]	c #B16F5F",
" ^	c #BA786A",
".^	c #B6766D",
"+^	c #B07571",
"@^	c #A87071",
"#^	c #976564",
"$^	c #855759",
"%^	c #7A4D50",
"&^	c #7B5256",
"*^	c #6F464A",
"=^	c #684041",
"-^	c #6E4647",
";^	c #704848",
">^	c #684241",
",^	c #6F484B",
"'^	c #754D58",
")^	c #7E5D58",
"!^	c #8A6D69",
"~^	c #A88486",
"{^	c #643732",
"]^	c #A08981",
"^^	c #AA9FA5",
"/^	c #AB9798",
"(^	c #84685A",
"_^	c #9D8376",
":^	c #9D8175",
"<^	c #A69897",
"[^	c #90786C",
"}^	c #B59A8F",
"|^	c #9F8B80",
"1^	c #AC9C9C",
"2^	c #A88F88",
"3^	c #976661",
"4^	c #AD695C",
"5^	c #A35B4D",
"6^	c #8C4939",
"7^	c #541206",
"8^	c #9B645F",
"9^	c #552C2A",
"0^	c #8C635D",
"a^	c #A47669",
"b^	c #A97867",
"c^	c #B27465",
"d^	c #AB6C5D",
"e^	c #A96357",
"f^	c #A96558",
"g^	c #A66255",
"h^	c #B57166",
"i^	c #AE685E",
"j^	c #B16E65",
"k^	c #AE6C5E",
"l^	c #B26F5F",
"m^	c #B36F62",
"n^	c #B37367",
"o^	c #B4756C",
"p^	c #AD726C",
"q^	c #A97373",
"r^	c #9D696B",
"s^	c #88565F",
"t^	c #85565C",
"u^	c #85575A",
"v^	c #895B5D",
"w^	c #8D5D5D",
"x^	c #855354",
"y^	c #875554",
"z^	c #885856",
"A^	c #8C5E5E",
"B^	c #8A5E5F",
"C^	c #875E64",
"D^	c #866465",
"E^	c #89696C",
"F^	c #A27B80",
"G^	c #784B48",
"H^	c #B79A8A",
"I^	c #B1968D",
"J^	c #A78C81",
"K^	c #A2877C",
"L^	c #B6B1B8",
"M^	c #A29795",
"N^	c #A58F84",
"O^	c #B49E91",
"P^	c #9B806D",
"Q^	c #AD9A93",
"R^	c #9D6E69",
"S^	c #99554A",
"T^	c #904339",
"U^	c #843B32",
"V^	c #712D24",
"W^	c #A06662",
"X^	c #5E322F",
"Y^	c #80554E",
"Z^	c #A77868",
"`^	c #A87864",
" /	c #B67D6C",
"./	c #B87D6D",
"+/	c #B47667",
"@/	c #B17263",
"#/	c #B27062",
"$/	c #B67265",
"%/	c #B47063",
"&/	c #B36F64",
"*/	c #B27064",
"=/	c #AD6A61",
"-/	c #A05C51",
";/	c #AA6659",
">/	c #B26E61",
",/	c #B5776A",
"'/	c #B3776C",
")/	c #B07770",
"!/	c #A56F6D",
"~/	c #A06C6E",
"{/	c #92636D",
"]/	c #86595E",
"^/	c #835758",
"//	c #885A5A",
"(/	c #845754",
"_/	c #875755",
":/	c #91615D",
"</	c #90635E",
"[/	c #916562",
"}/	c #936766",
"|/	c #8F6567",
"1/	c #8B666D",
"2/	c #946F76",
"3/	c #9D7679",
"4/	c #845855",
"5/	c #9D8072",
"6/	c #A78F85",
"7/	c #A0857A",
"8/	c #968075",
"9/	c #A08C8B",
"0/	c #AEA3A7",
"a/	c #A89285",
"b/	c #A79183",
"c/	c #A38772",
"d/	c #A98D78",
"e/	c #9E7F63",
"f/	c #956C6A",
"g/	c #97524B",
"h/	c #8B3C37",
"i/	c #8A413B",
"j/	c #A8615B",
"k/	c #C28582",
"l/	c #6D413E",
"m/	c #704840",
"n/	c #9E6F65",
"o/	c #9E6E60",
"p/	c #A67662",
"q/	c #AB7362",
"r/	c #B57B6F",
"s/	c #B67E6D",
"t/	c #B97B6C",
"u/	c #B8796A",
"v/	c #B67768",
"w/	c #B47566",
"x/	c #AE6E62",
"y/	c #9A5C4F",
"z/	c #87443B",
"A/	c #A76358",
"B/	c #B67066",
"C/	c #BC766E",
"D/	c #BD776B",
"E/	c #BD796E",
"F/	c #B37369",
"G/	c #AF6F6D",
"H/	c #A36769",
"I/	c #9A656F",
"J/	c #945F65",
"K/	c #7B4B4B",
"L/	c #855352",
"M/	c #966465",
"N/	c #966664",
"O/	c #996864",
"P/	c #9C6B67",
"Q/	c #996766",
"R/	c #996768",
"S/	c #996B6B",
"T/	c #90676F",
"U/	c #936B73",
"V/	c #A07D7B",
"W/	c #77524C",
"X/	c #917A72",
"Y/	c #9E979F",
"Z/	c #A29494",
"`/	c #A49898",
" (	c #9C8A80",
".(	c #9B8474",
"+(	c #A48570",
"@(	c #96765D",
"#(	c #A2826B",
"$(	c #987B76",
"%(	c #9F5C53",
"&(	c #894135",
"*(	c #9B504A",
"=(	c #AF665F",
"-(	c #A86B66",
";(	c #754E47",
">(	c #735145",
",(	c #94685D",
"'(	c #A37365",
")(	c #B57B6D",
"!(	c #B77F70",
"~(	c #B87E70",
"{(	c #BD8274",
"](	c #C18374",
"^(	c #B67869",
"/(	c #B07263",
"((	c #9F6154",
"_(	c #85473A",
":(	c #813F33",
"<(	c #B06B5C",
"[(	c #B77567",
"}(	c #B5766D",
"|(	c #B4746B",
"1(	c #B8756D",
"2(	c #BE7A71",
"3(	c #B5756B",
"4(	c #A56A64",
"5(	c #9C6664",
"6(	c #93666D",
"7(	c #987174",
"8(	c #8B6363",
"9(	c #774546",
"0(	c #905A5A",
"a(	c #966561",
"b(	c #986561",
"c(	c #9B6662",
"d(	c #9D6A66",
"e(	c #9A6965",
"f(	c #9B6D6D",
"g(	c #936A6E",
"h(	c #936F71",
"i(	c #977373",
"j(	c #855F5C",
"k(	c #5B2F24",
"l(	c #A2836F",
"m(	c #A88D7C",
"n(	c #947968",
"o(	c #937668",
"p(	c #AC999D",
"q(	c #A69EA9",
"r(	c #ABA5B1",
"s(	c #9D8E91",
"t(	c #937F74",
"u(	c #B9B3BD",
"v(	c #947D6F",
"w(	c #B7ADAE",
"x(	c #8B6F59",
"y(	c #A88A72",
"z(	c #A98B73",
"A(	c #A3836A",
"B(	c #B87C72",
"C(	c #A05E50",
"D(	c #9C564C",
"E(	c #BD746B",
"F(	c #AB7068",
"G(	c #68413A",
"H(	c #7C584C",
"I(	c #8B6155",
"J(	c #AD7564",
"K(	c #B37B6C",
"L(	c #B47F6F",
"M(	c #B57D6E",
"N(	c #BD8272",
"O(	c #BA7C6D",
"P(	c #AA6C5D",
"Q(	c #A16354",
"R(	c #925447",
"S(	c #7B3D30",
"T(	c #8F4D41",
"U(	c #A15E4E",
"V(	c #AF7164",
"W(	c #A1655D",
"X(	c #9D6157",
"Y(	c #9E6459",
"Z(	c #935E58",
"`(	c #855853",
" _	c #6D4A50",
"._	c #735557",
"+_	c #916F6E",
"@_	c #906262",
"#_	c #7A4849",
"$_	c #8C5D57",
"%_	c #92615A",
"&_	c #96645D",
"*_	c #996760",
"=_	c #986762",
"-_	c #9A6D6A",
";_	c #987071",
">_	c #906C6C",
",_	c #94716F",
"'_	c #916C66",
")_	c #633428",
"!_	c #A68A7C",
"~_	c #886E61",
"{_	c #907A6F",
"]_	c #A69898",
"^_	c #A9928A",
"/_	c #958176",
"(_	c #A89287",
"__	c #B9A7A5",
":_	c #9C816C",
"<_	c #D2BFB9",
"[_	c #9B7C60",
"}_	c #986759",
"|_	c #BB8372",
"1_	c #B97767",
"2_	c #A36250",
"3_	c #9C6256",
"4_	c #663F38",
"5_	c #6A453C",
"6_	c #8B6357",
"7_	c #9D6F60",
"8_	c #AA7968",
"9_	c #AF7A68",
"0_	c #B07B6B",
"a_	c #B17E6D",
"b_	c #B37E6E",
"c_	c #B57D6C",
"d_	c #A76C5A",
"e_	c #9F6452",
"f_	c #8E5343",
"g_	c #7B4032",
"h_	c #804439",
"i_	c #9D5A51",
"j_	c #945244",
"k_	c #8C5749",
"l_	c #592E25",
"m_	c #381209",
"n_	c #390C06",
"o_	c #714039",
"p_	c #7D4E46",
"q_	c #714842",
"r_	c #5E3F3A",
"s_	c #3A2828",
"t_	c #423233",
"u_	c #543C3C",
"v_	c #6F4849",
"w_	c #6C3E3E",
"x_	c #7A4F49",
"y_	c #8D5E56",
"z_	c #96665C",
"A_	c #94645A",
"B_	c #96675F",
"C_	c #966963",
"D_	c #9C7472",
"E_	c #987573",
"F_	c #94716D",
"G_	c #97726A",
"H_	c #5D2E22",
"I_	c #8E735E",
"J_	c #A18673",
"K_	c #A08983",
"L_	c #785A42",
"M_	c #9F8375",
"N_	c #91776A",
"O_	c #A1877A",
"P_	c #A58E80",
"Q_	c #9C8170",
"R_	c #9D7F67",
"S_	c #A0826A",
"T_	c #B2947C",
"U_	c #947559",
"V_	c #996C5A",
"W_	c #B27D6B",
"X_	c #A76A57",
"Y_	c #A46651",
"Z_	c #69433A",
"`_	c #603B33",
" :	c #866053",
".:	c #986D5D",
"+:	c #A0715F",
"@:	c #AC7966",
"#:	c #B17C6C",
"$:	c #AA7160",
"%:	c #A06753",
"&:	c #945B48",
"*:	c #814837",
"=:	c #682E20",
"-:	c #975D51",
";:	c #9F6156",
">:	c #9B5D4E",
",:	c #885749",
"':	c #58312A",
"):	c #3C1913",
"!:	c #58302E",
"~:	c #5A312D",
"{:	c #522721",
"]:	c #45221E",
"^:	c #0D0302",
"/:	c #0F0504",
"(:	c #281517",
"_:	c #674448",
"::	c #6E4445",
"<:	c #714640",
"[:	c #7D504B",
"}:	c #86574F",
"|:	c #8E5E54",
"1:	c #8F6058",
"2:	c #926B64",
"3:	c #9B7874",
"4:	c #926F69",
"5:	c #9C776F",
"6:	c #5A3224",
"7:	c #977B66",
"8:	c #A68B78",
"9:	c #9B877E",
"0:	c #9B8D8D",
"a:	c #9E8C8A",
"b:	c #9B9295",
"c:	c #AB9EA5",
"d:	c #B09E9A",
"e:	c #BAAFAD",
"f:	c #90725A",
"g:	c #A2836E",
"h:	c #9E8068",
"i:	c #B29C8F",
"j:	c #A26E59",
"k:	c #B37560",
"l:	c #643C34",
"m:	c #5B342F",
"n:	c #734D42",
"o:	c #976D5D",
"p:	c #A37663",
"q:	c #A97965",
"r:	c #AD7868",
"s:	c #9F6655",
"t:	c #94604A",
"u:	c #794432",
"v:	c #622F1E",
"w:	c #824E40",
"x:	c #996558",
"y:	c #9A6557",
"z:	c #996154",
"A:	c #956559",
"B:	c #734C47",
"C:	c #57312E",
"D:	c #462422",
"E:	c #4D2724",
"F:	c #56302D",
"G:	c #472825",
"H:	c #301B1A",
"I:	c #201615",
"J:	c #33292A",
"K:	c #514144",
"L:	c #67484D",
"M:	c #734F4F",
"N:	c #6C4341",
"O:	c #6C403D",
"P:	c #7C4F49",
"Q:	c #82534B",
"R:	c #855650",
"S:	c #885D54",
"T:	c #8B655C",
"U:	c #8C6963",
"V:	c #86645B",
"W:	c #A17C73",
"X:	c #411D0A",
"Y:	c #9F8272",
"Z:	c #997E6D",
"`:	c #AC988F",
" <	c #B29F98",
".<	c #A09593",
"+<	c #A89C9E",
"@<	c #AE988D",
"#<	c #B2A09C",
"$<	c #A8968C",
"%<	c #AD917C",
"&<	c #C2A792",
"*<	c #A38A76",
"=<	c #A18E7F",
"-<	c #AB7762",
";<	c #B97A68",
"><	c #B7806B",
",<	c #60392A",
"'<	c #5C3530",
")<	c #714B40",
"!<	c #8D6154",
"~<	c #9E715E",
"{<	c #A1715D",
"]<	c #A57163",
"^<	c #AB7460",
"/<	c #AB745F",
"(<	c #A66F5A",
"_<	c #96624D",
":<	c #824D3B",
"<<	c #643324",
"[<	c #6E3E32",
"}<	c #93645A",
"|<	c #7A4C3D",
"1<	c #84554B",
"2<	c #784C41",
"3<	c #694338",
"4<	c #4F2D24",
"5<	c #32140C",
"6<	c #3D201C",
"7<	c #30110E",
"8<	c #341713",
"9<	c #351918",
"0<	c #321A1A",
"a<	c #1A0C0B",
"b<	c #29191A",
"c<	c #4A3638",
"d<	c #6C5253",
"e<	c #6D4F4F",
"f<	c #724F4D",
"g<	c #68413C",
"h<	c #6D423B",
"i<	c #784B45",
"j<	c #7B5049",
"k<	c #70453C",
"l<	c #805A4F",
"m<	c #87655C",
"n<	c #8B665E",
"o<	c #9D7569",
"p<	c #4F2414",
"q<	c #A99890",
"r<	c #A7948E",
"s<	c #B19E98",
"t<	c #8B7F7F",
"u<	c #9B8F91",
"v<	c #AA9790",
"w<	c #948278",
"x<	c #B8A49B",
"y<	c #AE9581",
"z<	c #9D8374",
"A<	c #A29086",
"B<	c #A88575",
"C<	c #AE8571",
"D<	c #B78270",
"E<	c #B5806E",
"F<	c #755040",
"G<	c #56382D",
"H<	c #895F53",
"I<	c #976A57",
"J<	c #9F6F5B",
"K<	c #A16E5D",
"L<	c #A4715E",
"M<	c #A36C58",
"N<	c #9B624F",
"O<	c #8A5241",
"P<	c #723D2D",
"Q<	c #6F3F31",
"R<	c #81594F",
"S<	c #643D36",
"T<	c #49231A",
"U<	c #4A2920",
"V<	c #492821",
"W<	c #462923",
"X<	c #2F120E",
"Y<	c #2A110D",
"Z<	c #331B1B",
"`<	c #301615",
" [	c #311814",
".[	c #301816",
"+[	c #1A0808",
"@[	c #1C0A0A",
"#[	c #261315",
"$[	c #432E2D",
"%[	c #573D3E",
"&[	c #614240",
"*[	c #6F4E49",
"=[	c #59342E",
"-[	c #674039",
";[	c #714941",
">[	c #71493F",
",[	c #7A5545",
"'[	c #7E584D",
")[	c #835B53",
"![	c #926858",
"~[	c #421700",
"{[	c #B09D96",
"][	c #9D8F8E",
"^[	c #AA9FA3",
"/[	c #AB9C9F",
"([	c #9B8377",
"_[	c #BBA9A5",
":[	c #9D8A7B",
"<[	c #AC988D",
"[[	c #B19F95",
"}[	c #9E8779",
"|[	c #AE9382",
"1[	c #AA9486",
"2[	c #A28F81",
"3[	c #2C1A18",
"4[	c #1A0500",
"5[	c #947769",
"6[	c #A67C70",
"7[	c #9F6F63",
"8[	c #624034",
"9[	c #4B2F24",
"0[	c #5E3D36",
"a[	c #805C50",
"b[	c #9B7260",
"c[	c #976854",
"d[	c #9A6A56",
"e[	c #9F6C59",
"f[	c #A16D58",
"g[	c #A26B57",
"h[	c #9B6352",
"i[	c #814C3C",
"j[	c #683728",
"k[	c #754B3F",
"l[	c #522F29",
"m[	c #462520",
"n[	c #391813",
"o[	c #3E231C",
"p[	c #412420",
"q[	c #442723",
"r[	c #391B19",
"s[	c #240B07",
"t[	c #36191B",
"u[	c #311313",
"v[	c #361816",
"w[	c #2D0F0D",
"x[	c #2B120E",
"y[	c #2C1716",
"z[	c #220E0F",
"A[	c #1F0B0D",
"B[	c #2B1517",
"C[	c #2E1918",
"D[	c #462A27",
"E[	c #543835",
"F[	c #5B3C37",
"G[	c #6C473E",
"H[	c #6D473C",
"I[	c #714C3C",
"J[	c #6E483B",
"K[	c #7F574D",
"L[	c #986F5D",
"M[	c #481D03",
"N[	c #9B8170",
"O[	c #A99385",
"P[	c #9F8D89",
"Q[	c #AE9A91",
"R[	c #846E59",
"S[	c #9C8678",
"T[	c #A18B7D",
"U[	c #0B0205",
"V[	c #030000",
"W[	c #010000",
"X[	c #0D0200",
"Y[	c #1D0A06",
"Z[	c #3A2721",
"`[	c #110000",
" }	c #4E322E",
".}	c #6A4C41",
"+}	c #8D6A56",
"@}	c #8F6650",
"#}	c #966952",
"$}	c #9A6A54",
"%}	c #996651",
"&}	c #804F40",
"*}	c #784F3D",
"=}	c #563226",
"-}	c #321710",
";}	c #2F1312",
">}	c #3B1C1A",
",}	c #462722",
"'}	c #552D2B",
")}	c #4D2324",
"!}	c #532D2C",
"~}	c #5A3232",
"{}	c #5C3233",
"]}	c #643C3A",
"^}	c #5E3837",
"/}	c #3E1C1B",
"(}	c #3D1F21",
"_}	c #311418",
":}	c #32191C",
"<}	c #2E181A",
"[}	c #260E0C",
"}}	c #422A26",
"|}	c #583B35",
"1}	c #67453B",
"2}	c #66463B",
"3}	c #654435",
"4}	c #6E4A3E",
"5}	c #6F493E",
"6}	c #7C5744",
"7}	c #B09687",
"8}	c #AE9284",
"9}	c #A38C7E",
"0}	c #9E887D",
"a}	c #B19D92",
"b}	c #9C8072",
"c}	c #8C6F5D",
"d}	c #A5948A",
"e}	c #A49087",
"f}	c #B09F97",
"g}	c #1E0C08",
"h}	c #060000",
"i}	c #060203",
"j}	c #040203",
"k}	c #010101",
"l}	c #000201",
"m}	c #150F11",
"n}	c #2A2122",
"o}	c #0B0300",
"p}	c #1B1110",
"q}	c #403030",
"r}	c #533B31",
"s}	c #846350",
"t}	c #8E6A52",
"u}	c #966C56",
"v}	c #8D624F",
"w}	c #90634E",
"x}	c #9A6B57",
"y}	c #8C5D4B",
"z}	c #8B5D4D",
"A}	c #845D4C",
"B}	c #361408",
"C}	c #290E05",
"D}	c #270B07",
"E}	c #230100",
"F}	c #3C1711",
"G}	c #4E231D",
"H}	c #5D2D29",
"I}	c #51201C",
"J}	c #41100C",
"K}	c #3D090B",
"L}	c #582222",
"M}	c #683635",
"N}	c #532527",
"O}	c #3E1718",
"P}	c #30110F",
"Q}	c #290D0C",
"R}	c #2F1717",
"S}	c #271314",
"T}	c #241011",
"U}	c #1F0C08",
"V}	c #1E0908",
"W}	c #4D312D",
"X}	c #614537",
"Y}	c #654538",
"Z}	c #6C4E43",
"`}	c #6B4B40",
" |	c #77513E",
".|	c #A88E7F",
"+|	c #A78C7B",
"@|	c #967C6D",
"#|	c #B09A8F",
"$|	c #A58B7E",
"%|	c #997F70",
"&|	c #A98F82",
"*|	c #A8958E",
"=|	c #150000",
"-|	c #150707",
";|	c #11080B",
">|	c #000000",
",|	c #171518",
"'|	c #050100",
")|	c #47383B",
"!|	c #4F3632",
"~|	c #775748",
"{|	c #916E58",
"]|	c #825842",
"^|	c #845742",
"/|	c #855740",
"(|	c #875844",
"_|	c #8D5F4F",
":|	c #876051",
"<|	c #4F2B1F",
"[|	c #351309",
"}|	c #542D26",
"||	c #854E49",
"1|	c #773C36",
"2|	c #773B33",
"3|	c #8A4B46",
"4|	c #8F4F4D",
"5|	c #8D504D",
"6|	c #81413F",
"7|	c #763636",
"8|	c #7B3F41",
"9|	c #6E3A3E",
"0|	c #633639",
"a|	c #50292A",
"b|	c #371718",
"c|	c #210708",
"d|	c #210909",
"e|	c #1A0502",
"f|	c #210C0B",
"g|	c #583F3B",
"h|	c #63483D",
"i|	c #5E4236",
"j|	c #5B3B2E",
"k|	c #69473D",
"l|	c #79544B",
"m|	c #764936",
"n|	c #B79A88",
"o|	c #998177",
"p|	c #A78B7D",
"q|	c #AD9183",
"r|	c #39201D",
"s|	c #220D0A",
"t|	c #110303",
"u|	c #050001",
"v|	c #000002",
"w|	c #060407",
"x|	c #010002",
"y|	c #020204",
"z|	c #0B0B0D",
"A|	c #202022",
"B|	c #030305",
"C|	c #050505",
"D|	c #030303",
"E|	c #3C3034",
"F|	c #442C2A",
"G|	c #5D4136",
"H|	c #725341",
"I|	c #87604F",
"J|	c #7D5440",
"K|	c #7D503B",
"L|	c #7B4E39",
"M|	c #835643",
"N|	c #835545",
"O|	c #7C5546",
"P|	c #4B2518",
"Q|	c #53291D",
"R|	c #906054",
"S|	c #A56B5F",
"T|	c #AA6C5F",
"U|	c #A7645B",
"V|	c #A9665D",
"W|	c #98554D",
"X|	c #87443E",
"Y|	c #843F38",
"Z|	c #813C37",
"`|	c #7E3A39",
" 1	c #814142",
".1	c #77393E",
"+1	c #632E34",
"@1	c #522427",
"#1	c #512A2B",
"$1	c #533736",
"%1	c #3A221E",
"&1	c #38201E",
"*1	c #2C1412",
"=1	c #543B36",
"-1	c #583F38",
";1	c #543C32",
">1	c #5B3A31",
",1	c #603E34",
"'1	c #714B42",
")1	c #5E2E20",
"!1	c #A48C80",
"~1	c #A89189",
"{1	c #9E8171",
"]1	c #A28573",
"^1	c #21120F",
"/1	c #0D0101",
"(1	c #070101",
"_1	c #010300",
":1	c #010103",
"<1	c #0C0C0E",
"[1	c #1D1D1F",
"}1	c #010204",
"|1	c #4D362E",
"11	c #594234",
"21	c #775345",
"31	c #7B5643",
"41	c #7D5442",
"51	c #784D3C",
"61	c #7E5343",
"71	c #774D3F",
"81	c #6F4B3B",
"91	c #421B0C",
"01	c #704535",
"a1	c #9D6858",
"b1	c #AB6C5B",
"c1	c #AB6C5A",
"d1	c #B06E5E",
"e1	c #AC6C60",
"f1	c #A3675C",
"g1	c #9D5D54",
"h1	c #8E4F4A",
"i1	c #884B4A",
"j1	c #864B4D",
"k1	c #7E4647",
"l1	c #744648",
"m1	c #74474A",
"n1	c #734C4D",
"o1	c #704E4D",
"p1	c #674544",
"q1	c #5D413E",
"r1	c #3B221E",
"s1	c #2D1410",
"t1	c #4C3831",
"u1	c #4F3B34",
"v1	c #54362C",
"w1	c #63423B",
"x1	c #6A4741",
"y1	c #552B1F",
"z1	c #A98C7A",
"A1	c #B69F91",
"B1	c #AC958D",
"C1	c #B19788",
"D1	c #866753",
"E1	c #A28678",
"F1	c #070400",
"G1	c #040301",
"H1	c #000100",
"I1	c #040406",
"J1	c #101012",
"K1	c #0D0D0F",
"L1	c #0A080D",
"M1	c #040207",
"N1	c #121116",
"O1	c #040509",
"P1	c #080307",
"Q1	c #271B1D",
"R1	c #44352E",
"S1	c #513F33",
"T1	c #543729",
"U1	c #684738",
"V1	c #6D4838",
"W1	c #744E41",
"X1	c #704A3F",
"Y1	c #704F3E",
"Z1	c #5F3A2A",
"`1	c #794B3C",
" 2	c #945F4F",
".2	c #A76954",
"+2	c #AC6956",
"@2	c #A46351",
"#2	c #915346",
"$2	c #783C31",
"%2	c #6B3630",
"&2	c #5D2C28",
"*2	c #572929",
"=2	c #59312F",
"-2	c #532D2A",
";2	c #53312F",
">2	c #563432",
",2	c #5C3D3A",
"'2	c #694745",
")2	c #6C4A48",
"!2	c #634642",
"~2	c #472B27",
"{2	c #371E19",
"]2	c #402D27",
"^2	c #3C2B24",
"/2	c #4D352B",
"(2	c #4F3330",
"_2	c #51302B",
":2	c #2E0501",
"<2	c #A5928B",
"[2	c #AF9FA2",
"}2	c #AA918A",
"|2	c #997A66",
"12	c #050102",
"22	c #020001",
"32	c #020202",
"42	c #050304",
"52	c #070709",
"62	c #1D1C22",
"72	c #18171D",
"82	c #09090B",
"92	c #40322F",
"02	c #4F3832",
"a2	c #3D2B1D",
"b2	c #462E22",
"c2	c #5A3E33",
"d2	c #654339",
"e2	c #674239",
"f2	c #643F36",
"g2	c #6A463A",
"h2	c #694137",
"i2	c #6E4237",
"j2	c #8F5A4C",
"k2	c #A56752",
"l2	c #A76950",
"m2	c #A86751",
"n2	c #A2644F",
"o2	c #874D3F",
"p2	c #734234",
"q2	c #5D2E26",
"r2	c #4F2622",
"s2	c #442221",
"t2	c #3C1E1E",
"u2	c #3B1F1E",
"v2	c #422521",
"w2	c #543733",
"x2	c #634441",
"y2	c #684645",
"z2	c #2D1A14",
"A2	c #352621",
"B2	c #32231E",
"C2	c #372A22",
"D2	c #3A2B26",
"E2	c #43312F",
"F2	c #3A2427",
"G2	c #3A2127",
"H2	c #1B0005",
"I2	c #8B705D",
"J2	c #B0A5A9",
"K2	c #B0958A",
"L2	c #8F7367",
"M2	c #020003",
"N2	c #0B0C0E",
"O2	c #020305",
"P2	c #25242C",
"Q2	c #17161C",
"R2	c #0F0B0A",
"S2	c #3F3130",
"T2	c #2D1513",
"U2	c #311E17",
"V2	c #3C2A1E",
"W2	c #51392F",
"X2	c #391E15",
"Y2	c #40251A",
"Z2	c #482A1F",
"`2	c #55352A",
" 3	c #613B30",
".3	c #724234",
"+3	c #935C47",
"@3	c #A7674E",
"#3	c #A2614B",
"$3	c #9F614C",
"%3	c #8F5643",
"&3	c #7D4C3D",
"*3	c #693A32",
"=3	c #562B25",
"-3	c #482221",
";3	c #411F1E",
">3	c #3B1E1A",
",3	c #4D2B2A",
"'3	c #5D3E3B",
")3	c #60413C",
"!3	c #5F403D",
"~3	c #543C3A",
"{3	c #2E1916",
"]3	c #23140F",
"^3	c #291A17",
"/3	c #1F110E",
"(3	c #2A1C19",
"_3	c #231514",
":3	c #261817",
"<3	c #342528",
"[3	c #1A0F13",
"}3	c #3A211C",
"|3	c #4A2E18",
"13	c #AA9288",
"23	c #9B7F71",
"33	c #AE9A93",
"43	c #94786C",
"53	c #0F0D12",
"63	c #030408",
"73	c #14181B",
"83	c #1A1B1F",
"93	c #18171C",
"03	c #121119",
"a3	c #2A2931",
"b3	c #16151D",
"c3	c #040000",
"d3	c #6E605D",
"e3	c #553D39",
"f3	c #2C1913",
"g3	c #301F15",
"h3	c #44332B",
"i3	c #412E27",
"j3	c #342019",
"k3	c #382419",
"l3	c #351D13",
"m3	c #50352A",
"n3	c #4F2F22",
"o3	c #6C4534",
"p3	c #865745",
"q3	c #9A5D48",
"r3	c #A2664E",
"s3	c #A46752",
"t3	c #8A5746",
"u3	c #73443A",
"v3	c #6C3D37",
"w3	c #4D211E",
"x3	c #542D28",
"y3	c #502D27",
"z3	c #5B3534",
"A3	c #66433F",
"B3	c #66453E",
"C3	c #5D403A",
"D3	c #583C38",
"E3	c #432E2B",
"F3	c #1E0E0E",
"G3	c #1E1212",
"H3	c #150909",
"I3	c #120608",
"J3	c #0D0304",
"K3	c #2C2326",
"L3	c #342B2E",
"M3	c #0C060A",
"N3	c #0E090F",
"O3	c #1D040A",
"P3	c #3C1A19",
"Q3	c #A29187",
"R3	c #967A6C",
"S3	c #A88C7E",
"T3	c #19181E",
"U3	c #1C1B21",
"V3	c #15141C",
"W3	c #1F1D28",
"X3	c #090502",
"Y3	c #52413A",
"Z3	c #967973",
"`3	c #31140E",
" 4	c #24110A",
".4	c #25130F",
"+4	c #42302E",
"@4	c #3F2D29",
"#4	c #352319",
"$4	c #37231A",
"%4	c #422A1E",
"&4	c #482C20",
"*4	c #5D392B",
"=4	c #7D5343",
"-4	c #93634D",
";4	c #AA735F",
">4	c #A16958",
",4	c #996655",
"'4	c #925E51",
")4	c #976356",
"!4	c #885449",
"~4	c #8B5950",
"{4	c #8E6257",
"]4	c #724A42",
"^4	c #734C45",
"/4	c #6F4E47",
"(4	c #5C3F3B",
"_4	c #513736",
":4	c #3C2827",
"<4	c #1B0B0B",
"[4	c #1B0F0F",
"}4	c #170C10",
"|4	c #0D0405",
"14	c #1B1215",
"24	c #0E0910",
"34	c #161118",
"44	c #0C0411",
"54	c #0F020B",
"64	c #18030A",
"74	c #321519",
"84	c #52362B",
"94	c #B1978A",
"04	c #907361",
"a4	c #1E1B22",
"b4	c #0C0910",
"c4	c #111016",
"d4	c #020006",
"e4	c #121117",
"f4	c #1D1B26",
"g4	c #151419",
"h4	c #090401",
"i4	c #37241D",
"j4	c #94736A",
"k4	c #805E54",
"l4	c #250C08",
"m4	c #1E0906",
"n4	c #301E1E",
"o4	c #382624",
"p4	c #412D26",
"q4	c #4B322B",
"r4	c #4C3225",
"s4	c #5E3E31",
"t4	c #61392D",
"u4	c #7E5340",
"v4	c #885947",
"w4	c #94614E",
"x4	c #8E5949",
"y4	c #A26E60",
"z4	c #A06B5D",
"A4	c #976254",
"B4	c #986355",
"C4	c #97655A",
"D4	c #82574E",
"E4	c #6B453C",
"F4	c #62413A",
"G4	c #5B3F3C",
"H4	c #442A2B",
"I4	c #32201E",
"J4	c #180A09",
"K4	c #15090B",
"L4	c #10070A",
"M4	c #130A0F",
"N4	c #1B1517",
"O4	c #0E080C",
"P4	c #060009",
"Q4	c #16101C",
"R4	c #120C1A",
"S4	c #120F16",
"T4	c #0F060B",
"U4	c #1C050D",
"V4	c #53382B",
"W4	c #A68775",
"X4	c #957461",
"Y4	c #000004",
"Z4	c #0E0D15",
"`4	c #20202C",
" 5	c #21212B",
".5	c #090A0E",
"+5	c #000103",
"@5	c #12101D",
"#5	c #080206",
"$5	c #130100",
"%5	c #946A54",
"&5	c #896356",
"*5	c #37160F",
"=5	c #210907",
"-5	c #372221",
";5	c #3F2D2B",
">5	c #3F2C28",
",5	c #321E17",
"'5	c #372018",
")5	c #4B2E26",
"!5	c #6E4E41",
"~5	c #714F43",
"{5	c #785446",
"]5	c #774F43",
"^5	c #7C5244",
"/5	c #85594C",
"(5	c #815548",
"_5	c #7A5042",
":5	c #81574B",
"<5	c #7D5347",
"[5	c #725046",
"}5	c #65473D",
"|5	c #4F362F",
"15	c #402B28",
"25	c #3A2826",
"35	c #221411",
"45	c #180C0E",
"55	c #12070F",
"65	c #150B14",
"75	c #0E070E",
"85	c #0B060A",
"95	c #05020B",
"05	c #0A0614",
"a5	c #12121E",
"b5	c #06040F",
"c5	c #0C070E",
"d5	c #0E010B",
"e5	c #1E0912",
"f5	c #371E21",
"g5	c #3C241B",
"h5	c #282834",
"i5	c #1F1E2C",
"j5	c #14151A",
"k5	c #0E0D12",
"l5	c #0F0D1A",
"m5	c #7A5D4F",
"n5	c #9B6F54",
"o5	c #9E6E58",
"p5	c #794E3D",
"q5	c #311007",
"r5	c #1B0300",
"s5	c #1D0B0B",
"t5	c #2B1D1C",
"u5	c #352623",
"v5	c #362420",
"w5	c #38201C",
"x5	c #4F392E",
"y5	c #5A4238",
"z5	c #573B30",
"A5	c #5E3D34",
"B5	c #5B392F",
"C5	c #644439",
"D5	c #614338",
"E5	c #6B4D43",
"F5	c #5D453B",
"G5	c #432C24",
"H5	c #402F28",
"I5	c #281818",
"J5	c #1E1412",
"K5	c #10050D",
"L5	c #09010C",
"M5	c #231B28",
"N5	c #040108",
"O5	c #060612",
"P5	c #070918",
"Q5	c #070614",
"R5	c #080412",
"S5	c #08000D",
"T5	c #120411",
"U5	c #311C2D",
"V5	c #3C252D",
"W5	c #191923",
"X5	c #252432",
"Y5	c #181820",
"Z5	c #010206",
"`5	c #0D0C14",
" 6	c #0B0914",
".6	c #2F1B12",
"+6	c #9D755B",
"@6	c #A67054",
"#6	c #A06E55",
"$6	c #906552",
"%6	c #614031",
"&6	c #2C130E",
"*6	c #1B0A03",
"=6	c #200E0C",
"-6	c #1C0E0D",
";6	c #201212",
">6	c #1A0C09",
",6	c #241510",
"'6	c #311F1D",
")6	c #321D1A",
"!6	c #361E1C",
"~6	c #3D2521",
"{6	c #331F18",
"]6	c #3D2823",
"^6	c #3B2925",
"/6	c #2B1917",
"(6	c #1E100F",
"_6	c #1B0D0D",
":6	c #1A0A0D",
"<6	c #0E0604",
"[6	c #110507",
"}6	c #13060D",
"|6	c #5A4E5A",
"16	c #68606F",
"26	c #221E2C",
"36	c #000207",
"46	c #00020B",
"56	c #0C0B19",
"66	c #070916",
"76	c #020411",
"86	c #050310",
"96	c #0B0513",
"06	c #231522",
"a6	c #302023",
"b6	c #452F29",
"c6	c #272733",
"d6	c #1C1C26",
"e6	c #0B0B13",
"f6	c #0E0C11",
"g6	c #0F0F19",
"h6	c #0D0A13",
"i6	c #1A0B08",
"j6	c #9F7C68",
"k6	c #A16D55",
"l6	c #A26F54",
"m6	c #9D6B52",
"n6	c #865B48",
"o6	c #67473A",
"p6	c #483024",
"q6	c #25110A",
"r6	c #1D0B09",
"s6	c #180C0C",
"t6	c #130806",
"u6	c #080000",
"v6	c #150B0A",
"w6	c #0E0403",
"x6	c #1D1113",
"y6	c #180F0A",
"z6	c #170E09",
"A6	c #150B09",
"B6	c #1A120F",
"C6	c #110907",
"D6	c #100B08",
"E6	c #0A0200",
"F6	c #190D0D",
"G6	c #544646",
"H6	c #695C65",
"I6	c #473C4C",
"J6	c #4B4758",
"K6	c #010109",
"L6	c #090915",
"M6	c #03060F",
"N6	c #04020D",
"O6	c #07040F",
"P6	c #140D1D",
"Q6	c #251925",
"R6	c #2C2024",
"S6	c #262431",
"T6	c #1B1924",
"U6	c #0D0A11",
"V6	c #13131B",
"W6	c #170B0B",
"X6	c #533229",
"Y6	c #9E755F",
"Z6	c #A47058",
"`6	c #A76E51",
" 7	c #915E41",
".7	c #82553E",
"+7	c #6D4836",
"@7	c #4E3224",
"#7	c #2A130B",
"$7	c #210F0B",
"%7	c #0B0100",
"&7	c #060201",
"*7	c #0B0207",
"=7	c #090001",
"-7	c #241512",
";7	c #574440",
">7	c #655150",
",7	c #72636A",
"'7	c #312637",
")7	c #67637A",
"!7	c #00000B",
"~7	c #060411",
"{7	c #080812",
"]7	c #04040E",
"^7	c #080613",
"/7	c #040311",
"(7	c #12111F",
"_7	c #15111F",
":7	c #1B131E",
"<7	c #0A090F",
"[7	c #14131B",
"}7	c #1B1A22",
"|7	c #1B1A20",
"17	c #0D0B16",
"27	c #1E1C2A",
"37	c #25232E",
"47	c #0F0F17",
"57	c #171115",
"67	c #160100",
"77	c #806353",
"87	c #A2694E",
"97	c #A0694A",
"07	c #956245",
"a7	c #905C46",
"b7	c #7B503D",
"c7	c #724E40",
"d7	c #473028",
"e7	c #2D1B17",
"f7	c #160704",
"g7	c #090000",
"h7	c #030200",
"i7	c #0A0001",
"j7	c #140907",
"k7	c #291919",
"l7	c #4C3A38",
"m7	c #5E4741",
"n7	c #69504B",
"o7	c #68504E",
"p7	c #58444F",
"q7	c #21172F",
"r7	c #7A7595",
"s7	c #020111",
"t7	c #02000B",
"u7	c #0B0B15",
"v7	c #01040D",
"w7	c #0A0A16",
"x7	c #040210",
"y7	c #0C0A17",
"z7	c #0E0C19",
"A7	c #17161E",
"B7	c #1A1921",
"C7	c #191722",
"D7	c #201E29",
"E7	c #212026",
"F7	c #1B1927",
"G7	c #211F2A",
"H7	c #161920",
"I7	c #240E03",
"J7	c #9D7667",
"K7	c #A06C54",
"L7	c #9E6748",
"M7	c #986142",
"N7	c #9A6146",
"O7	c #93644A",
"P7	c #835943",
"Q7	c #794F3F",
"R7	c #614230",
"S7	c #60433B",
"T7	c #563D38",
"U7	c #33201C",
"V7	c #1E100D",
"W7	c #130502",
"X7	c #0D0600",
"Y7	c #0A0000",
"Z7	c #0C0201",
"`7	c #1E0F0C",
" 8	c #352321",
".8	c #4C3734",
"+8	c #59443F",
"@8	c #6F524C",
"#8	c #6D5352",
"$8	c #3B2937",
"%8	c #241A33",
"&8	c #7F7B9E",
"*8	c #040217",
"=8	c #030504",
"-8	c #0A0A14",
";8	c #02050E",
">8	c #10101C",
",8	c #050412",
"'8	c #12101B",
")8	c #0D0B18",
"!8	c #0C0A18",
"~8	c #1D1C24",
"{8	c #1A1823",
"]8	c #22202B",
"^8	c #27262E",
"/8	c #26252D",
"(8	c #272530",
"_8	c #13111E",
":8	c #171520",
"<8	c #13121A",
"[8	c #06050B",
"}8	c #050308",
"|8	c #170E11",
"18	c #100300",
"28	c #4D2C23",
"38	c #A37460",
"48	c #A36D51",
"58	c #A16445",
"68	c #9D6242",
"78	c #925F42",
"88	c #906248",
"98	c #885A43",
"08	c #79533C",
"a8	c #724C39",
"b8	c #6D493B",
"c8	c #51362D",
"d8	c #472F25",
"e8	c #331E1B",
"f8	c #472E2A",
"g8	c #523531",
"h8	c #674C45",
"i8	c #70524A",
"j8	c #72544C",
"k8	c #5E4443",
"l8	c #281624",
"m8	c #302742",
"n8	c #817DA0",
"o8	c #020318",
"p8	c #000209",
"q8	c #050811",
"r8	c #0C0E1A",
"s8	c #05030E",
"t8	c #0B0B17",
"u8	c #0A0917",
"  . + @ # $ % & * * = $ - ; > , ' ) ! ~ { ] ^ / ( _ : < [ } | 1 2 3 4 5 6 7 8 9 0 a b c d e f g h i j k l m n o p q r s t u v w ",
"x y z A B C D E F $ G # 2 H I J K L M N O P Q R S T U V W X Y Z `  ...+.@.#.K $.%.&.*.=.-.;.>.,.'.).!.~.{.].^./.(._.:.<.[.}.|.1.",
"2.3.E 4.A 5.6.7.8.9.0.a.b.c.d.e.f.g.h.i.j.k.l.m.n.o.p.q.r.s.t.u.v.w.x.y.z.A.B.C.D.E.F.G.H.I.J.K.L.M.N.O.P.Q.R.S.T.U.V.W.X.Y.Z.`.",
" +_ .+++9.@+#+$+%+&+*+=+-+;+>+,+'+j )+!+~+{+]+^+/+(+_+:+<+[+}+|+1+2+3+4+5+6+7+8+9+0+a+b+c+d+e+f+g+h+i+j+k+l+m+n+o+p+q+r+s+t+u+v+",
"w+. & 4.x+y+#+z+A A+B+C+g D+E+F+G+p+H+I+J+K+L+M+N+O+P+Q+R+S+T+U+R+V+V+W+X+Y+Z+`+ @.@+@@@#@$@%@&@*@=@-@;@>@,@'@H )@!@~@{@]@^@/@(@",
"_@:@<@C [@}@|@1@2@3@' 4@5@6@7@8@9@0@a@b@c@V+W+[+d@e@f@g@h@i@j@X+Y+T+k@l@m@<+}+n@o@p@q@r@s@t@O u@v@w@l+x@y@z@A@B@C@r D@E@F@G@H@I@",
"$+J@K@L@M@N@O@P@Q@R@S@T@U@f.V@W@X@Y@Z@R+1+`@ #.#+#@###$#%#&#*#=#-#;#o@>#,#'#o@)#!#}+o@~#{#]#O ^#/#(#_#:#<#[#}#|#1#2#3#4#5#6#7#8#",
"9#0#a#b#c#d#e#f#[@g#q h#i#d j#k#l#W+m#n#o#p#q#r#s#t#u#v#w#x#y#z#@#A#B#C#D#E#}+F#>#k@:+o@G#H#I#J#L K#q L#M#N#O#P#Q#T@R#S#T#U#V#W#",
"$ X#Y#Z#`# $`#.$+$@$#$$$%$&$*$=$-$;$>$y#,$'$)$!$~${$]$^$/$($_$:$<$[$}$|$1$2$3$4$5$6$7$8$9$0$a$b$_.c$d$h+e$*@I.f$g$e+h$i$j$k$l$m$",
"n$#$o$p$q$r$s$t$u$v$w$x$y$z$@#A$;$B$C$D$E$F$G$H$I$J$K$L$M$N$O$P$Q$R$S$T$U$V$W$X$Y$Z$`$ %.%+%@%#%$%%%&%m *%h#=%-%;%>%,%'%)%!%~%{%",
"]%^%O /%(%_%:%<%[%}%|%1%2%3%4%7$5%6%7%8%9%0%a%b%c%d%e%f%g%h%i%j%k%l%m%n%o%p%q%r%s%t%u%v%w%x%y%z%A%B%C%D%r E%F%G%H%I%J%K%L%M%N%O%",
"P%Q%R%S%T%T%w+U%V%W%X%Y%=$l#Z%`% &.&+&@&#&$&%&&&*&=&-&-&;&>&,&'&)&!&~&{&]&^&/&(&_&:&<&[&}&|&1&2&3&4&5&6&7&8&9&*@0&a&b&c&d&e&(@f&",
"g&h&i&j&z+k&l&^%m&n&o&p&4%q&q&r&s&t&u&v&w&x&y&z&A&B&B&C&D&E&F&g%G&H&I&J&K&L&M&N&O&P&Q&R&S&T&U&V&W&X&.@Y&Z&`& *.*+*@*#*$*%*&***) ",
"=*-*;*j&>*,*'*)*G+!* %~*{*]*^*/*(*_*:*<*[*}*|**&1*2*&&&&-&3*4*D&5*6*d%7*8*9*0*L$a*b*c*d*e*f*g*h*i*j*k*l*m*n*o*p*q*r*s*f$%*t*u*v*",
"a+'+%%w*c#x*y*%@z*A*B*<+C*Z%D*E*F*G*H*I*J*K*K*L*M*N**&O*&&P*Q*f%R*S*d%T*U*V*W*X*Y*Z*L$P&`* =.=+=@=#=$=%=&=*=e ==-=;={@>=.*,='=)=",
"V@f.!=~={=]=^=/=(=_=:=e@n@<=[=}=|=1=2=3=4=5=6=7=5=8=*&O*O*&&9=f%R*S*d%0=U*a=b=c=Y*Z*d=e=f=g=h=i=j=k=l=m=n=o=p=q=5@r=s=d$t=u=$@v=",
"w=x=y=z=A=B=C=D=E=F=G=U+o#H=I=J=K=L=M=N=O=P=O*7=}*2*Q=Q=R=;&S=f%S*S*T=U=V=W=X=Y=Z=b=0*`= -.-+-@-#-$-%-&-*-=---J%;-$@>-,-'-)-!-K#",
"~-{-]-_@^-/-(-_-:-<-W+V+Z%[-}-J=|-1-@&2-3-S=4-2*8=Q=Q=Q=4--&5-6-7-T*8-9-0-a-b-c-W*Z*d-e-P&f-g-h-i-j-k-l-m-n-o-b&p-q-r-s*s-t-u-v-",
"D%w-x-y-z-1@x-A-B-C-D-n#E-F-G-H-I-J-K-L-M-=&4-4-O*4-4-4-4-R=N-7-2-O-P-Q-R-8*S-b-Y*T-U-V-W-X-Y-+-Z-`- ;.;+;@;#;$;%;&;*;=;  -;;;>;",
";%,;';);{=!;~;{;-$];^;/;(;_;:;<;[;};|;1;2;3;4;4;3;y&5;6;6;z&7;8;9;9-0;a;b;a-c;d;e;f;Z*L$g;h;i;j;k;l;m;n;o;p;q;r;Q@s;t;u;v;c$w;e ",
"x;y;Y#T%z;A;B;C;D;E;F;G;H;I;J;K;L;M;N;7-O;y&2*2*2*6;z&P;Q;R;S;T;U;a;V;W;X;Y;W=i%Z;`; >g;.>+>@>#>k;$>%>&>*>=>->;>>>c ,>'>)>!>~>{>",
"]>^>/>(>x-#*_>:><>[>}>|>1>2>3>4>5>6>7>8>5*9>*&=&0>M*|*a>O=b>c>d>e>f>X;g>d>h>i>j>b;k>l>.>m>n>o>p>q>r>s>t>u>v>w>x>y>z>A>q*B>C>'+D>",
"E>F>G>H>T%I>J>K>L>M>N>O>q#P>Q>R>S>T>U>V>[*5=W>Q;X>I*Y>Z>`> ,.,+,@,#,$,%,&,Y;*,d>=,Z; >g;m>-,;,>,,,',),!,~,{,],^,/,(,_,:,<,#$[,},",
"|,1,2,3,[@4,5,6,7,8,9,0,a,b,c,d,e,f,g,h,i,j,k,l,0%m,n,o,p,q,r,s,t,u,v,w,W;x,y,z,S-A,B,C,D,E,F,G,H,',I,J,K,L,M,N,O,P,Q,R,S,T,U,V,",
"W,X,Y,Z#Z,`, '.'+'@'#'$'%'&'*'($='-';'>',''')'t,!'~'{']'^'/'('_':'<'['}'|'1'2'Z=3'4'5'6'7'8'9'0'a'b'c'd'e'f'g'h'J#i'j'k'l'_ m'n'",
"o'p'5.q'r's't'u'v'w'x'y'z'A'B'C'D'E'F'h,G'H'I'J'K'L'M'N'O'P'Q'R'S'T'U'P-V'W'X'Y'Z'`' ).)+)@)#)$)%)&)*)=)-);)>){@,))*')))!)~){)])",
"^)/)()_):)<)[)})|)1)2)3)4)5)6)7)8)F'7-9)0)a)b)c)d)e)f)g)h)i)j)k)l)m)n)F'o)p)q)]&r)s)t)u)v)w)v)x)y)z)A)B)C)D)E)F)G)!-o*H)I)J)K)L)",
"M)N)O)P)Q);*R)S)T)U)V)W)X)Y)Z)`) !7-.!+!@!#!$!%!&!*!=!-!;!>!,!'!)!!!~!{!]!^!/!(!_!:!<![!}!|!1!2!3!4!5!6!7!8!9!0!a!b!c!d!e!f!m g!",
"h!i!j!k!l!m!n!o!p!q!r!s!t!u!v!w!x!5*y!z!A!B!C!D!E!F!G!H!I!J!K!L!M!N!O!P!.!Q!R!S!T!U!V!W!X!Y!Z!`! ~.~+~@~#~$~%~P,&~*~=~-~;~>~,~'~",
")~i&!~~~{~]~^~/~(~_~:~<~[~}~|~1~2~3~4~5~6~7~8~9~0~a~b~c~d~e~f~g~h~i~j~k~l~R-m~n~o~p~q~r~s~t~u~v~w~h)x~y~z~A~B~C~D~E~F~G~H~I~J~q=",
"K~L~S%M~N~O~P~Q~R~S~T~U~V~W~X~Y~Z~`~ {.{+{@{#{${%{&{*{={-{;{>{,{'{){!{R=~{{{]{^{/{({_{:{<{[{}{|{1{2{3{4{5{6{7{8{9{0{a{b{c{d{e{f{",
"^=g{h{i{j{k{l{m{n{o{p{ !q{r{s{Y~t{u{v{w{x{y{z{A{B{C{D{E{F{G{H{I{J{K{L{M{N{O{P{e=Q{R{S{T{U{V{W{X{Y{Z{`{ ].]+]@]#]t=$]}%H%u@%]&]- ",
"*]t@=]-];]>],]'])]!]~]{]]]^]/](]_]v&4=:]<][]}]|]1]2]3]4]5]6]7]8]9]0]a]b]c]d]e]f]g]h]i]j]k]l]m]n]o]p]q]r]s]t]u]= v]w=w]&;x]y]F.z]",
"R,1,A]/,B]T%C]D]E]F]G]H]X*I]J]K]L]M]`~N]`~N-O]P]Q]R]S]T]U]V]W]X]Y]Z]`] ^.^+^@^#^$^%^&^*^=^-^;^>^h],^'^)^!^~^{^s$]^^^/^(^_^:^#@L.",
"<^[^I>}^|^1^2^3^4^5^6^7^8^9^0^a^''b^6-5-l~M-Q;c^d^e^f^g^h^i^j^k^k^l^m^n^o^p^q^r^s^t^u^v^w^x^y^z^A^B^C^D^E^F^G^H^N@h!F~o I^J^K^z]",
"L^M^N^O^P^Y,Q^R^S^T^U^V^W^X^Y^a^Z^`^6-~{w& /./+/@/#/$/%/&/*/=/-/;/>/h^,/'/)/!/~/{/]/^///(/_/:/</[/}/|/1/2/3/4/!;l&5/6/7/w]8/9/o$",
"0/8/a/b/c/d/e/f/g/h/i/j/k/l/m/n/o/p/q/r/s/ /./t/u/Q;v/w/x/y/z/A/%/B/C/D/E/F/G/H/I/J/K/L/M/N/O/P/Q/R/S/T/U/V/W/A=4.B;F)s=e X/Y/Z/",
"`/ (R,.(+(@(#($(%(&(*(=(-(;(>(,('(k,C&)(!(~({(](b]^(c^/(((_(:(<([(}(|(1(2(3(4(5(6(7(8(9(0(a(b(c(d(e(f(g(h(i(j(k(l(m(n(o(p(q(r(s(",
"t(u(v(w(x(y(z(A(B(C(D(E(F(G(H(I('(t{J(K(L(M(!(N(O(A&P(Q(R(S(T(U(V(O{b-W(X(Y(Z(`( _._+_@_#_$_%_&_*_=_-_;_>_,_'_)_# :)!_y=~_!-{_]_",
"^_/_(___:_H><_[_}_|_1_2_3_4_5_6_7_8_9_0_a_L(b_c_S;d_e_f_g_h_i_j_k_l_m_n_o_p_q_r_s_t_u_v_w_x_y_z_A_B_C_D_E_F_G_H_3,I_J_%]}%K_L_M_",
"N_O_P_Q_R_S_T_U_V_W_X_Y_H&Z_`_ :.:+:@:v&Y>#:3-5*$:%:&:*:=:-:;:>:,:':):!:~:{:]:I!^:/:(:_:::<:[:}:|:1:L&2:3:4:5:6:7:8:r'9:0:a:b:c:",
"B;f d:e:f:g:R_h:i:j:R=k:b>l:m:n:o:p:q:v&r:8-M-G&s:t:u:v:w:x:y:z:A:B:C:D:E:F:G:H:I:J:K:L:M:N:O:P:Q:R:S:T:U:V:W:X:Y:Z:`: <.<+<t(J)",
"@<#<$<N^N)%<&<*<=<-<0>;<><,<'<)<!<~<{<]<t{^</<(<_<:<<<[<}<|<1<2<3<4<5<6<7<8<9<0<a<b<c<d<e<f<g<h<i<j<k<l<m<n<o<p<J)q<r<s<t<u<D%F.",
"v<w<`:x</%J_y<z<A<B<C<D<E<F<G<5_H<I<J<K<L<M<}]N<O<P<Q<R<S<T<U<V<W<X<Y<Z<`<Y< [.[+[@[#[$[%[&[*[=[-[;[>[,['[)[![~[(-g{{[f+][^[/[([",
"_[:[<[[[}[|[1[2[3[4[5[6[7[8[9[0[a[b[c[d[e[f[g[h[i[j[k[l[m[n[o[p[q[r[s[t[u[v[w[x[y[z[A[B[C[D[E[F[0[G[H[I[J[K[L[M[N[O[)~P[m!G+)-x]",
"Q[R[S[s'T[*<U[V[W[W[X[Y[Z[`[4! }.}+}@}#}c[$}%}~!&}*}=}-};}>},}C:'})}!}~}{}]}^}/}(}_}:}<}o~s)[}}}|}1}2}3}4}5}6}7}8}9}0}a}s->;b}c}",
"O~d}e}f}g}h}i}j}k}l}i}m}n}o}p}q}r}s}t}u}v}w}x}y}z}A}B}C}D}E}F}G}H}I}J}K}L}M}N}O}P}Q}R}S}T}U}V}w~W}.}X}Y}Z}`} |.|+|@|g!#|$|%|&|K@",
"&]*|=|-|;|i}<{<{k}>|B$,|<{V['|)|!|~|{|v}]|^|/|(|_|:|<|[|}|R:||1|2|3|4|5|6|7|8|9|0|a|b|c|d|e|f|$~g|h|i|j|k|l|m|n|q'N o|!~N p|q|s-",
"r|s|t|u|v|w|x|x|y|z|A|B|v|C|D|E|F|G|H|I|J|K|L|M|N|O|P|Q|R|S|T|U|V|W|X|Y|Z|`| 1.1+1@1#1F$$1%1&1*1=1-1;1>1,1'1)1);x-!1~1A>Y:{1]1-+",
"^1/1(1>|_1:1:1:1<1[1k#U+R+}1}1y#S{|111213141516171819101a1b1c1`]d1e1f1g1h1i1j1k1l1m1n1o1p1q1r1s1Y!t1u1v1w1x1y1z1A1_^B1_^C1C D1E1",
"F1G1H1v|v|v|I1z|J1K1L1M1G;N1O1P1Q1R1S1T1U1I[V1W1X1Y1Z1`1 2.2+2+2@2#2$2%2&2*2=2-2;2>2,2'2)2!2~2{2H!]2^2/29~(2_2:2Z,<2[2}2|2K@j&q=",
"1222323242I152U+o#j@m#627282>|v|:{9202a2b2c2d2e2f2g2h2i2j2k2l2m2n2o2p2q2r2s2t2u2v2w2F[x2y2E[%1z2A2B2C2D2E2F2G2H2|[I2e{J2J@M@K2L2",
"M282N2O2B|z|^;D-=#P2Q2o#e@:132M2R2S2T2U2V29!W2X2Y2Z2`2 3.3+3@3#3$3%3&3*3=3-3;3>3,3'3)3)3!3~3{3]3^3/3(3_3:3<3u#[3}3|313K@233343y]",
"5363A$7383I193m#03a3b3X+R+B|:1B|c3d3e3f3g3h3i3j3k3l3m3n3o3p3q3r3s3N<t3u3v3w3x3y3z3A3B3C3D3E3U!F3G3H3I3J3K3L3M3N3O3P3Q3I2N &|R3S3",
"3$T3Q2U3=#R+c@D;V3W3n@R+:1:1y|52X3Y3Z3`3 4.4+4@4#4$4%4&4*4=4-4j:;4>4,4'4)4!4~4{4]4^4/4(4_4:4<4[4}4;||4144)24344454647484i!94p|04",
"a4b4<=c4d4v|Z%e4P2f4~*U+y|:1W+g4h4i4j4k4l4m4n4o4>)p4q4r4s4t4u4v4w4x4y4z4A4B4Q!C4D4E4F4G4H4I4J4K4L4M4U[N4O4P4Q4R4S4T4U4t[V4K@W4X4",
"V+Y4U+R+v|32c@Z4`4 5.5v|+5:1<=@5#5$5t-%5&5*5=5P'-5;5>5,5'5)5!5~5{5]5^5/5(5_5:5<5[5}5|5152535455565758512M29505a5b5c5d5e5f5g5]1% ",
"k}3232y|U+v|[+|+h5i5j5n#v|y|k5l5c5t~m5n5o5p5q5r5s5_3t5u5v5w5x5y5z5A5B51}C5j|D5E5F5G5H5u5I5J5C$K5L5M5N5U+y|!#O5P5Q5R5S5T5U5V5m(l&",
":1y|y|:1Y4v|:1Y4W5X5Y5T+Z5U+/;`5 6T4.6+6@6#6$6%6&6*6=6-6;6>6,6'6)6!6r1W~~6j3{6]6^6/6(6_6:6<6[6}6|61626Y+Y436465666768696l=06a6b6",
"U+R+U+R+y|v|k}v|Y5c6d6e6S+V+W+f6g6h6i6j6k6l6m6n6o6p6q6r6s6t6u6v6w6t6|{x6s6y6z6A6B6C6D6|4J3E6F6G6H6I6J6`@63Z5K6O5L6M6N6O6 6P6Q6R6",
"Y4U+R+[+X+v|k}32e4S6T603e@B|B|U6V6K6W6X6Y6Z6`6 7.7+7@7#7$7%7E6D6&712[{*7O+#51222<{i}V[=7[6-7;7>7,7'7)7!7Z5:1|+~7{7)#]7^7/7(7_7:7",
"<+<7[7}7P2|7V+Y4172737Z4Y+v|:1L147E#576777x}879707a7b7c7e)d7e7f7g7=7h}h7j}j}j}G1u6i7j7k7l7m7n7o7p7q7r7s7n#D|Y+t7u7v7w7x7`+y7z7l5",
"V3A7B7C7D7P2E7o#k*F7G7B7X+:1y|M1e6H7G=+)I7J7K7L7M7N7O7P7Q7R7S7T7U7V7W7X7E6u6Y7Z7`7 8E3.8+8@8;!#8$8%8&8*8k@=8R+}+-8;8>8,8b5'8)8!8",
"~8~8V3{8]8^8/8(8G7_8:8<8X+v|v|M1[872}8|818283848586878889808a8b8D5c8d8p4d,e8H:e8U7f8g8+&h8i8j8k8l8m8n8o8p8+5L+Y4_+q8r8w7s8u7t8u8"};
