/* XPM */
static char * wall_xpm[] = {
"64 64 1766 2",
"  	c #CDA599",
". 	c #CEA69A",
"+ 	c #CDA79A",
"@ 	c #CCA699",
"# 	c #CBA397",
"$ 	c #CCA594",
"% 	c #CBA694",
"& 	c #CCA596",
"* 	c #CDA898",
"= 	c #CCA797",
"- 	c #CEA798",
"; 	c #CFA899",
"> 	c #CDA697",
", 	c #CEA796",
"' 	c #D0A998",
") 	c #D1AA9B",
"! 	c #CEA999",
"~ 	c #D0AB9B",
"{ 	c #D1A79B",
"] 	c #D1A799",
"^ 	c #CFA79D",
"/ 	c #CFA79B",
"( 	c #D0A89C",
"_ 	c #D0A698",
": 	c #D2A699",
"< 	c #D2A89A",
"[ 	c #D4A89B",
"} 	c #D1AA99",
"| 	c #CBA598",
"1 	c #CAA698",
"2 	c #CEA498",
"3 	c #CCA898",
"4 	c #CBA797",
"5 	c #CCA996",
"6 	c #CEA997",
"7 	c #CDA896",
"8 	c #CFAA98",
"9 	c #D0AB99",
"0 	c #D0A99A",
"a 	c #CFA99C",
"b 	c #CFAA9A",
"c 	c #D2A89C",
"d 	c #CFA597",
"e 	c #D3A99B",
"f 	c #D1A99D",
"g 	c #CFAB9B",
"h 	c #D1A797",
"i 	c #CCA69B",
"j 	c #CCA49A",
"k 	c #CAA394",
"l 	c #CCA498",
"m 	c #CBA495",
"n 	c #CDA397",
"o 	c #CEA496",
"p 	c #CAA296",
"q 	c #CEA494",
"r 	c #CBA696",
"s 	c #CCA294",
"t 	c #CDA395",
"u 	c #CCA795",
"v 	c #CBA493",
"w 	c #CDA695",
"x 	c #CFA595",
"y 	c #CDA492",
"z 	c #D3A999",
"A 	c #CFA897",
"B 	c #D0A696",
"C 	c #CEAB98",
"D 	c #CEA89B",
"E 	c #D4AA9C",
"F 	c #D2A898",
"G 	c #CDAA97",
"H 	c #D3A99D",
"I 	c #CCAB9A",
"J 	c #CEA895",
"K 	c #D3A898",
"L 	c #D1AC9A",
"M 	c #CEA996",
"N 	c #C9A79B",
"O 	c #8F7C76",
"P 	c #6F6D72",
"Q 	c #77767B",
"R 	c #6A6D74",
"S 	c #686F75",
"T 	c #62666F",
"U 	c #5D646E",
"V 	c #76777C",
"W 	c #747277",
"X 	c #747579",
"Y 	c #666573",
"Z 	c #72707B",
"` 	c #64616C",
" .	c #806E6C",
"..	c #998785",
"+.	c #756B73",
"@.	c #766F77",
"#.	c #756975",
"$.	c #776B77",
"%.	c #7C7177",
"&.	c #867679",
"*.	c #72757A",
"=.	c #717576",
"-.	c #777B7E",
";.	c #797D80",
">.	c #888483",
",.	c #7F7775",
"'.	c #8C766B",
").	c #CFA99E",
"!.	c #A38A83",
"~.	c #6F6969",
"{.	c #726A68",
"].	c #82706E",
"^.	c #816F6D",
"/.	c #C8A59F",
"(.	c #927E7D",
"_.	c #8B7975",
":.	c #9A8280",
"<.	c #B49590",
"[.	c #8C7679",
"}.	c #967C7F",
"|.	c #8E7578",
"1.	c #8B7776",
"2.	c #907876",
"3.	c #9C837F",
"4.	c #907375",
"5.	c #A38786",
"6.	c #A48A89",
"7.	c #656366",
"8.	c #AA908F",
"9.	c #7D7573",
"0.	c #8E7B77",
"a.	c #907E7C",
"b.	c #877573",
"c.	c #897672",
"d.	c #91796F",
"e.	c #D1AC99",
"f.	c #89817E",
"g.	c #5E7B81",
"h.	c #617C83",
"i.	c #67848C",
"j.	c #597782",
"k.	c #5E7E89",
"l.	c #507180",
"m.	c #527386",
"n.	c #5B7A8C",
"o.	c #59788A",
"p.	c #587A86",
"q.	c #5A7C88",
"r.	c #436473",
"s.	c #5F7781",
"t.	c #728A94",
"u.	c #547584",
"v.	c #5E7C87",
"w.	c #5B7D89",
"x.	c #557280",
"y.	c #5B7783",
"z.	c #628088",
"A.	c #5F7C84",
"B.	c #658087",
"C.	c #627D84",
"D.	c #5B767D",
"E.	c #62797F",
"F.	c #748686",
"G.	c #6B7F7E",
"H.	c #787973",
"I.	c #71726C",
"J.	c #5B7373",
"K.	c #627778",
"L.	c #778786",
"M.	c #708080",
"N.	c #6C7E7E",
"O.	c #7B8989",
"P.	c #8D9997",
"Q.	c #5F7479",
"R.	c #A09B95",
"S.	c #7F8D8D",
"T.	c #7D8B8B",
"U.	c #6F8286",
"V.	c #718385",
"W.	c #758487",
"X.	c #748484",
"Y.	c #6C8486",
"Z.	c #688084",
"`.	c #637F80",
" +	c #6A8187",
".+	c #798F8D",
"++	c #668081",
"@+	c #688283",
"#+	c #627E7F",
"$+	c #607878",
"%+	c #778A88",
"&+	c #9D9185",
"*+	c #C9A599",
"=+	c #A09591",
"-+	c #668188",
";+	c #617C85",
">+	c #64808C",
",+	c #5F7D88",
"'+	c #61818E",
")+	c #597A89",
"!+	c #517285",
"~+	c #577889",
"{+	c #5E7F90",
"]+	c #658290",
"^+	c #5E8290",
"/+	c #617E8E",
"(+	c #577C8C",
"_+	c #557687",
":+	c #618291",
"<+	c #6B8B9A",
"[+	c #567381",
"}+	c #65818C",
"|+	c #5A7882",
"1+	c #65808B",
"2+	c #5F7D87",
"3+	c #617A81",
"4+	c #6D8084",
"5+	c #657D7D",
"6+	c #757A74",
"7+	c #6E6B66",
"8+	c #607A79",
"9+	c #647C7E",
"0+	c #758384",
"a+	c #879294",
"b+	c #6B7B7B",
"c+	c #828D91",
"d+	c #7A8889",
"e+	c #6E7F86",
"f+	c #707F84",
"g+	c #7D8C8F",
"h+	c #6E8082",
"i+	c #6A7F84",
"j+	c #6A7D84",
"k+	c #788A8E",
"l+	c #999894",
"m+	c #7B8D8D",
"n+	c #698286",
"o+	c #71888E",
"p+	c #70858A",
"q+	c #6B8489",
"r+	c #75888C",
"s+	c #648081",
"t+	c #647D81",
"u+	c #5C7A7C",
"v+	c #617F7F",
"w+	c #657A7B",
"x+	c #7A7B76",
"y+	c #C9A895",
"z+	c #CAA69A",
"A+	c #8F8A86",
"B+	c #607E89",
"C+	c #5F7C8A",
"D+	c #62828F",
"E+	c #5C7C8B",
"F+	c #597A8D",
"G+	c #5C7D90",
"H+	c #5A7E8E",
"I+	c #628396",
"J+	c #5F7E90",
"K+	c #58798A",
"L+	c #5D7C8E",
"M+	c #597988",
"N+	c #607D8B",
"O+	c #67838E",
"P+	c #5F7B86",
"Q+	c #66828D",
"R+	c #69848D",
"S+	c #6E878C",
"T+	c #7B8E92",
"U+	c #4F6A71",
"V+	c #797E7A",
"W+	c #CFA694",
"X+	c #666865",
"Y+	c #678084",
"Z+	c #6F8487",
"`+	c #768485",
" @	c #849293",
".@	c #7B8D8F",
"+@	c #7B8B8A",
"@@	c #738184",
"#@	c #7B8D91",
"$@	c #6F8185",
"%@	c #738285",
"&@	c #6A7B82",
"*@	c #677A80",
"=@	c #687B81",
"-@	c #76888A",
";@	c #708188",
">@	c #6C8186",
",@	c #657D81",
"'@	c #648084",
")@	c #607C80",
"!@	c #5D7A82",
"~@	c #638086",
"{@	c #637F82",
"]@	c #617D81",
"^@	c #5E7B7F",
"/@	c #668286",
"(@	c #6A7974",
"_@	c #CAA59C",
":@	c #97928C",
"<@	c #587982",
"[@	c #617E86",
"}@	c #5F7F8E",
"|@	c #587789",
"1@	c #547588",
"2@	c #5D7E91",
"3@	c #597E8E",
"4@	c #5E7D8F",
"5@	c #638493",
"6@	c #5A7D90",
"7@	c #58798C",
"8@	c #5C7D8E",
"9@	c #5D7E8F",
"0@	c #577786",
"a@	c #64808B",
"b@	c #6C8893",
"c@	c #637E87",
"d@	c #6C7F86",
"e@	c #8E9698",
"f@	c #60797D",
"g@	c #727773",
"h@	c #D1A695",
"i@	c #5D6864",
"j@	c #6B8085",
"k@	c #718689",
"l@	c #7B8B8B",
"m@	c #818F8F",
"n@	c #78878A",
"o@	c #788888",
"p@	c #7F8E93",
"q@	c #74868A",
"r@	c #6E8084",
"s@	c #72858B",
"t@	c #7B8E94",
"u@	c #7A8D93",
"v@	c #7D8F93",
"w@	c #71868B",
"x@	c #6D848A",
"y@	c #677F83",
"z@	c #688188",
"A@	c #607B82",
"B@	c #5A767A",
"C@	c #637C80",
"D@	c #6D868A",
"E@	c #738C90",
"F@	c #6E8A8D",
"G@	c #688485",
"H@	c #6E8384",
"I@	c #778176",
"J@	c #CFAA97",
"K@	c #CBAA9B",
"L@	c #CCA49C",
"M@	c #AE9D96",
"N@	c #577985",
"O@	c #64818F",
"P@	c #668391",
"Q@	c #597A8B",
"R@	c #56778A",
"S@	c #517585",
"T@	c #658695",
"U@	c #608194",
"V@	c #5D7D8C",
"W@	c #66828E",
"X@	c #6B8792",
"Y@	c #637F8A",
"Z@	c #6F888F",
"`@	c #809495",
" #	c #848F91",
".#	c #5B7576",
"+#	c #7A807C",
"@#	c #CDA895",
"##	c #6F7877",
"$#	c #688185",
"%#	c #697E81",
"&#	c #5E7175",
"*#	c #839191",
"=#	c #79888B",
"-#	c #768588",
";#	c #829194",
">#	c #738289",
",#	c #72838A",
"'#	c #728589",
")#	c #6C7F85",
"!#	c #798B8F",
"~#	c #72878A",
"{#	c #6B8288",
"]#	c #6A838A",
"^#	c #5E7980",
"/#	c #5C797F",
"(#	c #6A8388",
"_#	c #657E83",
":#	c #637C81",
"<#	c #708485",
"[#	c #92887F",
"}#	c #C8A39A",
"|#	c #C5A1A1",
"1#	c #4F6F7C",
"2#	c #57757F",
"3#	c #627F8D",
"4#	c #608190",
"5#	c #5E7F92",
"6#	c #608192",
"7#	c #618293",
"8#	c #668798",
"9#	c #587B8E",
"0#	c #55788B",
"a#	c #5B7C8F",
"b#	c #5A7B8C",
"c#	c #5F808F",
"d#	c #638392",
"e#	c #617D8B",
"f#	c #65818D",
"g#	c #627E8A",
"h#	c #728691",
"i#	c #7E8B91",
"j#	c #7C8A8D",
"k#	c #607A7B",
"l#	c #7B807C",
"m#	c #CCA693",
"n#	c #CCA89A",
"o#	c #677170",
"p#	c #63787D",
"q#	c #6B8387",
"r#	c #7C8E92",
"s#	c #7F8E91",
"t#	c #6D8086",
"u#	c #6B7E84",
"v#	c #7D9094",
"w#	c #778A8E",
"x#	c #72858C",
"y#	c #72878C",
"z#	c #687D82",
"A#	c #6D848C",
"B#	c #688186",
"C#	c #718A8F",
"D#	c #6B878B",
"E#	c #698589",
"F#	c #637F83",
"G#	c #6C888B",
"H#	c #678387",
"I#	c #627E81",
"J#	c #667B7E",
"K#	c #6F756B",
"L#	c #CFAC99",
"M#	c #C7A59B",
"N#	c #C9A398",
"O#	c #B9A29A",
"P#	c #51737F",
"Q#	c #63818C",
"R#	c #668695",
"S#	c #60808F",
"T#	c #5B7C8D",
"U#	c #628394",
"V#	c #547586",
"W#	c #648898",
"X#	c #597D8D",
"Y#	c #5A7B8E",
"Z#	c #5D7E8D",
"`#	c #628291",
" $	c #678391",
".$	c #637F8B",
"+$	c #6A8590",
"@$	c #70848B",
"#$	c #708389",
"$$	c #698086",
"%$	c #797A75",
"&$	c #CDA794",
"*$	c #596563",
"=$	c #60787C",
"-$	c #6B7A7D",
";$	c #728486",
">$	c #75888E",
",$	c #76898F",
"'$	c #788B91",
")$	c #74878D",
"!$	c #778A90",
"~$	c #73868C",
"{$	c #73878E",
"]$	c #6C8389",
"^$	c #6D8589",
"/$	c #7A9398",
"($	c #678289",
"_$	c #668389",
":$	c #6A878D",
"<$	c #6C878E",
"[$	c #5C777E",
"}$	c #637E85",
"|$	c #60797E",
"1$	c #637B7F",
"2$	c #A09788",
"3$	c #C7A79A",
"4$	c #C8A498",
"5$	c #AE928E",
"6$	c #527480",
"7$	c #648491",
"8$	c #618190",
"9$	c #638495",
"0$	c #5F8093",
"a$	c #537487",
"b$	c #5E8194",
"c$	c #5C7F92",
"d$	c #5F8295",
"e$	c #6A8795",
"f$	c #6B8896",
"g$	c #6F8B99",
"h$	c #5F7B89",
"i$	c #5F7A85",
"j$	c #68808A",
"k$	c #6D8087",
"l$	c #7A8C90",
"m$	c #8C857B",
"n$	c #868B87",
"o$	c #6A8282",
"p$	c #6B8385",
"q$	c #869898",
"r$	c #708588",
"s$	c #6E858B",
"t$	c #5F7A83",
"u$	c #576F7B",
"v$	c #627A84",
"w$	c #6B848B",
"x$	c #6E858D",
"y$	c #718890",
"z$	c #72868D",
"A$	c #7C8F96",
"B$	c #6F878B",
"C$	c #76888C",
"D$	c #72898F",
"E$	c #758E92",
"F$	c #70898D",
"G$	c #7C989C",
"H$	c #6A7C7E",
"I$	c #B49489",
"J$	c #C6A99B",
"K$	c #C0A19C",
"L$	c #5F7F8C",
"M$	c #618595",
"N$	c #527588",
"O$	c #5D8093",
"P$	c #628598",
"Q$	c #5F8091",
"R$	c #6A8797",
"S$	c #6C8999",
"T$	c #688593",
"U$	c #617E8C",
"V$	c #5E7A86",
"W$	c #67828D",
"X$	c #687F87",
"Y$	c #7C8C8C",
"Z$	c #988A7F",
"`$	c #CEA89D",
" %	c #808684",
".%	c #6E8887",
"+%	c #6D8587",
"@%	c #718488",
"#%	c #6C858A",
"$%	c #5F7D85",
"%%	c #5B7782",
"&%	c #647F86",
"*%	c #6D868D",
"=%	c #768A91",
"-%	c #657E85",
";%	c #6A858C",
">%	c #6B868F",
",%	c #688488",
"'%	c #6A868A",
")%	c #658185",
"!%	c #5E777C",
"~%	c #7A8587",
"{%	c #857C77",
"]%	c #CDAB9F",
"^%	c #CBA59A",
"/%	c #C4A89D",
"(%	c #5D7D8A",
"_%	c #577887",
":%	c #56798C",
"<%	c #5E8292",
"[%	c #5B7E91",
"}%	c #597C8F",
"|%	c #59788C",
"1%	c #567587",
"2%	c #5B7886",
"3%	c #63808E",
"4%	c #6F868C",
"5%	c #827974",
"6%	c #7E8784",
"7%	c #617A7E",
"8%	c #6E878E",
"9%	c #70898E",
"0%	c #5E7B83",
"a%	c #6D858F",
"b%	c #6C848E",
"c%	c #6D868B",
"d%	c #697F8A",
"e%	c #607D83",
"f%	c #607D85",
"g%	c #638088",
"h%	c #69868E",
"i%	c #6A878F",
"j%	c #69848B",
"k%	c #59767C",
"l%	c #6B868D",
"m%	c #889492",
"n%	c #74807C",
"o%	c #C5A59A",
"p%	c #CAA497",
"q%	c #C5A8A0",
"r%	c #587583",
"s%	c #5B7B88",
"t%	c #507386",
"u%	c #597C90",
"v%	c #5B7E92",
"w%	c #56798D",
"x%	c #5A798B",
"y%	c #698591",
"z%	c #6A7E85",
"A%	c #7D7874",
"B%	c #727878",
"C%	c #6A8387",
"D%	c #7D9295",
"E%	c #789196",
"F%	c #648189",
"G%	c #6F8791",
"H%	c #69818B",
"I%	c #728B92",
"J%	c #54727D",
"K%	c #6E8A95",
"L%	c #5C7981",
"M%	c #66838B",
"N%	c #5D7A80",
"O%	c #68838A",
"P%	c #6B8488",
"Q%	c #7C8685",
"R%	c #6B7670",
"S%	c #C7A79C",
"T%	c #C7A697",
"U%	c #C39E98",
"V%	c #698792",
"W%	c #618498",
"X%	c #55788C",
"Y%	c #5B8092",
"Z%	c #668194",
"`%	c #6D8891",
" &	c #6E8994",
".&	c #698088",
"+&	c #6F8288",
"@&	c #79726C",
"#&	c #CDA79C",
"$&	c #768081",
"%&	c #6C8182",
"&&	c #829494",
"*&	c #87999B",
"=&	c #627F87",
"-&	c #607C87",
";&	c #62808A",
">&	c #728D94",
",&	c #778E94",
"'&	c #557580",
")&	c #6C8792",
"!&	c #68858D",
"~&	c #6C858C",
"{&	c #7C8886",
"]&	c #6F7B79",
"^&	c #D0AA97",
"/&	c #C7A798",
"(&	c #BDA29B",
"_&	c #62808B",
":&	c #5E7E8D",
"<&	c #5C8090",
"[&	c #4C7183",
"}&	c #608396",
"|&	c #638699",
"1&	c #577A8E",
"2&	c #5C7F93",
"3&	c #5F8296",
"4&	c #5D8094",
"5&	c #57788B",
"6&	c #64828D",
"7&	c #6A8286",
"8&	c #817D7A",
"9&	c #5E6E6E",
"0&	c #5E757B",
"a&	c #66848C",
"b&	c #617F89",
"c&	c #5D7B85",
"d&	c #5F7F8A",
"e&	c #5A7A87",
"f&	c #627E89",
"g&	c #65828A",
"h&	c #7D8987",
"i&	c #768078",
"j&	c #C7A395",
"k&	c #CBA59C",
"l&	c #C39F91",
"m&	c #64848F",
"n&	c #637F8D",
"o&	c #62828D",
"p&	c #6E909C",
"q&	c #577C8E",
"r&	c #618295",
"s&	c #678A9D",
"t&	c #54778A",
"u&	c #5A7D91",
"v&	c #567A8A",
"w&	c #648493",
"x&	c #727473",
"y&	c #586A6A",
"z&	c #647D84",
"A&	c #5C7A84",
"B&	c #64828C",
"C&	c #698791",
"D&	c #60818A",
"E&	c #61818C",
"F&	c #5C7C89",
"G&	c #597986",
"H&	c #5E7A85",
"I&	c #6D8A90",
"J&	c #5F7A81",
"K&	c #667F84",
"L&	c #758886",
"M&	c #7F897E",
"N&	c #CDA999",
"O&	c #CAA696",
"P&	c #C8A69A",
"Q&	c #BEA095",
"R&	c #567280",
"S&	c #678492",
"T&	c #547888",
"U&	c #638497",
"V&	c #567B8E",
"W&	c #54778B",
"X&	c #5E8195",
"Y&	c #5B8093",
"Z&	c #587B8F",
"`&	c #5B7B8A",
" *	c #68838E",
".*	c #6C7270",
"+*	c #86908F",
"@*	c #809198",
"#*	c #5C7D86",
"$*	c #6B8890",
"%*	c #718F97",
"&*	c #65868F",
"**	c #67858F",
"=*	c #597984",
"-*	c #60808D",
";*	c #6A8691",
">*	c #6D8893",
",*	c #647F88",
"'*	c #627D86",
")*	c #6E8990",
"!*	c #657E82",
"~*	c #7B8E8C",
"{*	c #778178",
"]*	c #CBAA97",
"^*	c #C5A99D",
"/*	c #C5A097",
"(*	c #5C7884",
"_*	c #668290",
":*	c #64808E",
"<*	c #5C7987",
"[*	c #537689",
"}*	c #557A8D",
"|*	c #507588",
"1*	c #507387",
"2*	c #80726F",
"3*	c #6A7C80",
"4*	c #648187",
"5*	c #607E88",
"6*	c #6E8B93",
"7*	c #6D8B93",
"8*	c #587680",
"9*	c #6C8A94",
"0*	c #6B8993",
"a*	c #5A7C86",
"b*	c #50727E",
"c*	c #587885",
"d*	c #768E98",
"e*	c #678087",
"f*	c #617E84",
"g*	c #6E8A8E",
"h*	c #637B7D",
"i*	c #697C7A",
"j*	c #707B77",
"k*	c #C8A899",
"l*	c #658089",
"m*	c #617B88",
"n*	c #658697",
"o*	c #517488",
"p*	c #527589",
"q*	c #618497",
"r*	c #90817E",
"s*	c #596D74",
"t*	c #638084",
"u*	c #5E7C86",
"v*	c #64828A",
"w*	c #63848D",
"x*	c #66848E",
"y*	c #557582",
"z*	c #587A84",
"A*	c #708990",
"B*	c #7B9498",
"C*	c #718A91",
"D*	c #748D92",
"E*	c #738C91",
"F*	c #6F8B8F",
"G*	c #6C8687",
"H*	c #6A807E",
"I*	c #6A7B75",
"J*	c #587681",
"K*	c #557584",
"L*	c #537485",
"M*	c #4D7084",
"N*	c #577A8D",
"O*	c #577782",
"P*	c #8A7574",
"Q*	c #CAA793",
"R*	c #5A7177",
"S*	c #68878A",
"T*	c #638189",
"U*	c #597A83",
"V*	c #5E7C84",
"W*	c #6A8890",
"X*	c #688690",
"Y*	c #5F8089",
"Z*	c #557783",
"`*	c #748B91",
" =	c #7C9194",
".=	c #748C90",
"+=	c #758D91",
"@=	c #5F7C82",
"#=	c #688080",
"$=	c #707B75",
"%=	c #C6A596",
"&=	c #CAA592",
"*=	c #C3A195",
"==	c #5B7880",
"-=	c #627D88",
";=	c #688895",
">=	c #577688",
",=	c #5A7A89",
"'=	c #658594",
")=	c #517688",
"!=	c #648598",
"~=	c #5C7C87",
"{=	c #666867",
"]=	c #CCA794",
"^=	c #678689",
"/=	c #617F87",
"(=	c #5E7F86",
"_=	c #607E86",
":=	c #5F8087",
"<=	c #5D7D88",
"[=	c #5D7E87",
"}=	c #698287",
"|=	c #5F787F",
"1=	c #678085",
"2=	c #688082",
"3=	c #79827D",
"4=	c #C4A497",
"5=	c #C7A198",
"6=	c #5D767D",
"7=	c #70888C",
"8=	c #738E97",
"9=	c #4F7081",
"0=	c #587887",
"a=	c #678792",
"b=	c #698996",
"c=	c #6A7370",
"d=	c #5A7378",
"e=	c #597A7F",
"f=	c #5C7D84",
"g=	c #5B7981",
"h=	c #67868B",
"i=	c #638287",
"j=	c #61848A",
"k=	c #68878C",
"l=	c #658288",
"m=	c #6D898D",
"n=	c #5D787F",
"o=	c #6B8383",
"p=	c #657E7B",
"q=	c #82887C",
"r=	c #CBAA99",
"s=	c #CAA99A",
"t=	c #C9A396",
"u=	c #C5A399",
"v=	c #6D8287",
"w=	c #74888F",
"x=	c #6F8A91",
"y=	c #658294",
"z=	c #628193",
"A=	c #618092",
"B=	c #6B8994",
"C=	c #65838E",
"D=	c #6A7672",
"E=	c #CDA99B",
"F=	c #556E72",
"G=	c #628486",
"H=	c #6B888E",
"I=	c #627F85",
"J=	c #66858A",
"K=	c #708F94",
"L=	c #67858D",
"M=	c #5D7B83",
"N=	c #799599",
"O=	c #6C888C",
"P=	c #677F7F",
"Q=	c #718785",
"R=	c #8F887E",
"S=	c #CAAA9D",
"T=	c #CAA49B",
"U=	c #5E777B",
"V=	c #637B87",
"W=	c #68808C",
"X=	c #68848F",
"Y=	c #668393",
"Z=	c #648191",
"`=	c #617F8A",
" -	c #6A706E",
".-	c #6F8485",
"+-	c #6B888C",
"@-	c #67848A",
"#-	c #647D82",
"$-	c #728B8F",
"%-	c #6C8589",
"&-	c #6B8586",
"*-	c #698183",
"=-	c #637879",
"--	c #88857C",
";-	c #CEAE9F",
">-	c #CAA499",
",-	c #C4A69E",
"'-	c #536C71",
")-	c #818B8D",
"!-	c #7E8F97",
"~-	c #54707C",
"{-	c #7B8F98",
"]-	c #688492",
"^-	c #5C7D8C",
"/-	c #5E7B89",
"(-	c #6D8B95",
"_-	c #617D89",
":-	c #6A6C69",
"<-	c #658286",
"[-	c #617E82",
"}-	c #648185",
"|-	c #59767A",
"1-	c #668387",
"2-	c #69868A",
"3-	c #69888D",
"4-	c #6A898E",
"5-	c #648388",
"6-	c #68858B",
"7-	c #577478",
"8-	c #6F888C",
"9-	c #6D8381",
"0-	c #718687",
"a-	c #7A8179",
"b-	c #CDAD9E",
"c-	c #C9A49B",
"d-	c #667676",
"e-	c #69787D",
"f-	c #677C81",
"g-	c #758A8F",
"h-	c #7F9193",
"i-	c #7A8B92",
"j-	c #557685",
"k-	c #648596",
"l-	c #688595",
"m-	c #688490",
"n-	c #607B84",
"o-	c #797977",
"p-	c #5B7375",
"q-	c #5F7C80",
"r-	c #678488",
"s-	c #5F7E83",
"t-	c #628186",
"u-	c #648386",
"v-	c #718A8E",
"w-	c #6A8485",
"x-	c #6E878B",
"y-	c #637D7E",
"z-	c #6D8180",
"A-	c #748783",
"B-	c #7A786C",
"C-	c #D3AA96",
"D-	c #CCAC9D",
"E-	c #C8A297",
"F-	c #928F8A",
"G-	c #748282",
"H-	c #63777E",
"I-	c #74898E",
"J-	c #60777D",
"K-	c #587178",
"L-	c #6C8290",
"M-	c #678190",
"N-	c #5C7989",
"O-	c #577784",
"P-	c #607C8A",
"Q-	c #7C949E",
"R-	c #728788",
"S-	c #807973",
"T-	c #D1A598",
"U-	c #4B6469",
"V-	c #537076",
"W-	c #59747D",
"X-	c #6D898C",
"Y-	c #728E91",
"Z-	c #6F8B8E",
"`-	c #698588",
" ;	c #687F85",
".;	c #667F83",
"+;	c #678182",
"@;	c #768A89",
"#;	c #738786",
"$;	c #708483",
"%;	c #798787",
"&;	c #828D85",
"*;	c #868279",
"=;	c #D0AA95",
"-;	c #C3A696",
";;	c #C6A198",
">;	c #788284",
",;	c #5D7178",
"';	c #59747B",
");	c #567178",
"!;	c #536E77",
"~;	c #57737F",
"{;	c #617983",
"];	c #7C9496",
"^;	c #456476",
"/;	c #627D8E",
"(;	c #5A7682",
"_;	c #657B86",
":;	c #667A83",
"<;	c #7E8889",
"[;	c #837B70",
"};	c #D5AB9D",
"|;	c #6B807B",
"1;	c #5E7D80",
"2;	c #658184",
"3;	c #5A7679",
"4;	c #637C83",
"5;	c #567377",
"6;	c #4F6C72",
"7;	c #657D7F",
"8;	c #657A7D",
"9;	c #6D8283",
"0;	c #7A8D8B",
"a;	c #748889",
"b;	c #69827F",
"c;	c #73827D",
"d;	c #888E84",
"e;	c #8D857A",
"f;	c #CFA996",
"g;	c #C3A396",
"h;	c #6E7271",
"i;	c #6C7773",
"j;	c #707B7D",
"k;	c #697476",
"l;	c #546265",
"m;	c #5F6F6E",
"n;	c #687877",
"o;	c #6A7770",
"p;	c #7D8A81",
"q;	c #6D7872",
"r;	c #7A857F",
"s;	c #7D908C",
"t;	c #7C8F8D",
"u;	c #70807F",
"v;	c #737D7F",
"w;	c #7B8F90",
"x;	c #8B969A",
"y;	c #7D868B",
"z;	c #778586",
"A;	c #828A8D",
"B;	c #878C86",
"C;	c #848685",
"D;	c #A09C93",
"E;	c #92938B",
"F;	c #8B8D80",
"G;	c #A89B92",
"H;	c #AB9486",
"I;	c #8E8F7D",
"J;	c #949F8E",
"K;	c #7F8A82",
"L;	c #828D87",
"M;	c #97A399",
"N;	c #96A298",
"O;	c #98A29A",
"P;	c #929D95",
"Q;	c #8C928E",
"R;	c #999F9B",
"S;	c #A4A4A2",
"T;	c #AFA79A",
"U;	c #B0A89B",
"V;	c #9F9D8E",
"W;	c #A89E92",
"X;	c #B6A89B",
"Y;	c #B1AA9A",
"Z;	c #979483",
"`;	c #B2AF9E",
" >	c #A3A091",
".>	c #969986",
"+>	c #AEAB9A",
"@>	c #A8A596",
"#>	c #9D9C88",
"$>	c #9EA28B",
"%>	c #9B9C8A",
"&>	c #A9A491",
"*>	c #BCAA96",
"=>	c #D1AB98",
"->	c #CEA69C",
";>	c #CCA69D",
">>	c #CEAA9C",
",>	c #CEAA94",
"'>	c #D0AB98",
")>	c #D3AA98",
"!>	c #D2AC97",
"~>	c #D0AC96",
"{>	c #CEAA9A",
"]>	c #CAA593",
"^>	c #D0A59C",
"/>	c #D1A59A",
"(>	c #CDAA96",
"_>	c #CEAB97",
":>	c #CBAB96",
"<>	c #D1AB96",
"[>	c #CAA794",
"}>	c #CDA59B",
"|>	c #CAA595",
"1>	c #C9A293",
"2>	c #CBA79B",
"3>	c #CAA89C",
"4>	c #C8A192",
"5>	c #C7A491",
"6>	c #C4A090",
"7>	c #C8A796",
"8>	c #CBA693",
"9>	c #C6A294",
"0>	c #C5A08E",
"a>	c #C7A693",
"b>	c #CDA993",
"c>	c #C8A58F",
"d>	c #C7A091",
"e>	c #CDA792",
"f>	c #D0A69A",
"g>	c #CBA099",
"h>	c #947573",
"i>	c #AD8B82",
"j>	c #8D7074",
"k>	c #9E8487",
"l>	c #6B6567",
"m>	c #696065",
"n>	c #777175",
"o>	c #6D636C",
"p>	c #6E5E69",
"q>	c #84757C",
"r>	c #A38B8B",
"s>	c #7A6F7D",
"t>	c #81787D",
"u>	c #877A81",
"v>	c #685E69",
"w>	c #717078",
"x>	c #6E6A78",
"y>	c #666B71",
"z>	c #5A5D64",
"A>	c #6B6A70",
"B>	c #55686F",
"C>	c #5F6E75",
"D>	c #687677",
"E>	c #69777A",
"F>	c #6A7476",
"G>	c #6E7877",
"H>	c #816D62",
"I>	c #715F5D",
"J>	c #837A7B",
"K>	c #676C72",
"L>	c #44626C",
"M>	c #46626D",
"N>	c #526A74",
"O>	c #58707A",
"P>	c #4D6E75",
"Q>	c #4C6A74",
"R>	c #5B7278",
"S>	c #61797D",
"T>	c #5A7276",
"U>	c #537678",
"V>	c #57797A",
"W>	c #5B7A7C",
"X>	c #5D7F80",
"Y>	c #5A7878",
"Z>	c #627A7A",
"`>	c #657E7A",
" ,	c #6B7E7A",
".,	c #7A877E",
"+,	c #7C7062",
"@,	c #CCA993",
"#,	c #AB9892",
"$,	c #537078",
"%,	c #5B7983",
"&,	c #5E8187",
"*,	c #4F7381",
"=,	c #527686",
"-,	c #547385",
";,	c #506F83",
">,	c #53798C",
",,	c #567788",
"',	c #547989",
"),	c #597D8B",
"!,	c #587E8B",
"~,	c #517180",
"{,	c #527281",
"],	c #96847A",
"^,	c #D1AC9C",
"/,	c #69726F",
"(,	c #617D88",
"_,	c #4E727E",
":,	c #5F8590",
"<,	c #537483",
"[,	c #567A86",
"},	c #517281",
"|,	c #5F818B",
"1,	c #5A7B84",
"2,	c #668790",
"3,	c #64858C",
"4,	c #5F8288",
"5,	c #5B7D86",
"6,	c #60828B",
"7,	c #5D7F88",
"8,	c #5D7E85",
"9,	c #607F84",
"0,	c #5E7D7F",
"a,	c #66807D",
"b,	c #70837D",
"c,	c #76867C",
"d,	c #7E7767",
"e,	c #D2A995",
"f,	c #CBA99D",
"g,	c #B59E90",
"h,	c #567882",
"i,	c #5A7880",
"j,	c #5B7984",
"k,	c #517283",
"l,	c #5D8191",
"m,	c #517487",
"n,	c #4D7181",
"o,	c #587C8C",
"p,	c #577B89",
"q,	c #567786",
"r,	c #8D7B77",
"s,	c #67706D",
"t,	c #708387",
"u,	c #587988",
"v,	c #648692",
"w,	c #5B7D87",
"x,	c #5D7F89",
"y,	c #5C7E88",
"z,	c #587D86",
"A,	c #597E87",
"B,	c #5E838C",
"C,	c #5D8086",
"D,	c #5E8089",
"E,	c #5C797D",
"F,	c #718B8C",
"G,	c #728782",
"H,	c #7B8C84",
"I,	c #938876",
"J,	c #CDA99D",
"K,	c #C2AB9D",
"L,	c #5E7E8B",
"M,	c #537787",
"N,	c #5B7C8B",
"O,	c #696B68",
"P,	c #696F6D",
"Q,	c #5A7883",
"R,	c #638591",
"S,	c #5E808C",
"T,	c #557985",
"U,	c #587C88",
"V,	c #537783",
"W,	c #547884",
"X,	c #557A83",
"Y,	c #5C7E87",
"Z,	c #718681",
"`,	c #71827A",
" '	c #8E7E6F",
".'	c #D0AD99",
"+'	c #C9A597",
"@'	c #B7A098",
"#'	c #4F6F7E",
"$'	c #60808B",
"%'	c #4C6E7A",
"&'	c #4E7184",
"*'	c #628696",
"='	c #537581",
"-'	c #56747C",
";'	c #61605C",
">'	c #6C6D67",
",'	c #657982",
"''	c #63838E",
")'	c #4F7383",
"!'	c #557987",
"~'	c #587C8A",
"{'	c #577B87",
"]'	c #5B7F8B",
"^'	c #5A7E8A",
"/'	c #577C85",
"('	c #567C85",
"_'	c #5A7C85",
":'	c #62838A",
"<'	c #627E82",
"['	c #6F847D",
"}'	c #817569",
"|'	c #C4A797",
"1'	c #BDA6A0",
"2'	c #4A6A79",
"3'	c #638795",
"4'	c #567A88",
"5'	c #5D7F8B",
"6'	c #55767D",
"7'	c #6B6A66",
"8'	c #908581",
"9'	c #58747F",
"0'	c #557989",
"a'	c #547886",
"b'	c #5A7E8C",
"c'	c #5D818D",
"d'	c #5F838F",
"e'	c #618591",
"f'	c #597D89",
"g'	c #6A878B",
"h'	c #6F8582",
"i'	c #738682",
"j'	c #796F63",
"k'	c #CEA893",
"l'	c #B9A59C",
"m'	c #496978",
"n'	c #5A7B8A",
"o'	c #627F8F",
"p'	c #577B8B",
"q'	c #5B7F8F",
"r'	c #547481",
"s'	c #64858E",
"t'	c #6C6461",
"u'	c #9F928C",
"v'	c #56737B",
"w'	c #5C808E",
"x'	c #5A7F88",
"y'	c #678587",
"z'	c #6C8582",
"A'	c #6B7F7D",
"B'	c #847C69",
"C'	c #C9A897",
"D'	c #C8A393",
"E'	c #BCA198",
"F'	c #547181",
"G'	c #5B7C85",
"H'	c #675F5C",
"I'	c #A0938D",
"J'	c #5F818D",
"K'	c #527787",
"L'	c #557A8A",
"M'	c #5A7F8F",
"N'	c #5B7F8D",
"O'	c #5C808C",
"P'	c #5E828E",
"Q'	c #688688",
"R'	c #728780",
"S'	c #B5A38F",
"T'	c #CCA995",
"U'	c #C2A69A",
"V'	c #C6A69B",
"W'	c #53768A",
"X'	c #537380",
"Y'	c #597A81",
"Z'	c #766865",
"`'	c #988E8D",
" )	c #5C8191",
".)	c #5B8090",
"+)	c #5F8391",
"@)	c #5D818F",
"#)	c #608490",
"$)	c #5C7E8A",
"%)	c #6D807C",
"&)	c #BDA08E",
"*)	c #CFA994",
"=)	c #C6A697",
"-)	c #C3A59D",
";)	c #698694",
">)	c #597684",
",)	c #5D7A88",
"')	c #698998",
"))	c #6E8B99",
"!)	c #587D8D",
"~)	c #608188",
"{)	c #827370",
"])	c #5C6668",
"^)	c #52747E",
"/)	c #587D8F",
"()	c #597E90",
"_)	c #567B8D",
":)	c #628694",
"<)	c #627F83",
"[)	c #638181",
"})	c #5D7A76",
"|)	c #AF9584",
"1)	c #C4A296",
"2)	c #C0A29A",
"3)	c #4A6B7A",
"4)	c #6A8694",
"5)	c #5D7A8A",
"6)	c #4B6B7A",
"7)	c #6A8A97",
"8)	c #60828E",
"9)	c #61828B",
"0)	c #887672",
"a)	c #566568",
"b)	c #4F7486",
"c)	c #507587",
"d)	c #6A8E9A",
"e)	c #618085",
"f)	c #5D7774",
"g)	c #827668",
"h)	c #D1A896",
"i)	c #CAA89E",
"j)	c #CCA79E",
"k)	c #3F5E73",
"l)	c #678494",
"m)	c #6B8793",
"n)	c #5B7888",
"o)	c #698593",
"p)	c #607D8F",
"q)	c #658292",
"r)	c #5C7B8D",
"s)	c #4C6F82",
"t)	c #567780",
"u)	c #706667",
"v)	c #707D83",
"w)	c #537888",
"x)	c #5C828F",
"y)	c #608693",
"z)	c #527684",
"A)	c #547982",
"B)	c #5D7C81",
"C)	c #698384",
"D)	c #5F7976",
"E)	c #807466",
"F)	c #D2A997",
"G)	c #C9A79D",
"H)	c #C2A198",
"I)	c #36596D",
"J)	c #597B84",
"K)	c #577283",
"L)	c #6F8996",
"M)	c #607D8D",
"N)	c #567383",
"O)	c #738F9B",
"P)	c #6A8596",
"Q)	c #638090",
"R)	c #6A899B",
"S)	c #496C7F",
"T)	c #638797",
"U)	c #668A9A",
"V)	c #5E7F8E",
"W)	c #8A7876",
"X)	c #697C82",
"Y)	c #4D6D7C",
"Z)	c #517686",
"`)	c #618593",
" !	c #628692",
".!	c #648894",
"+!	c #7F9392",
"@!	c #69847D",
"#!	c #B29D8A",
"$!	c #C2A391",
"%!	c #CEA7A0",
"&!	c #48687D",
"*!	c #507480",
"=!	c #66848F",
"-!	c #577484",
";!	c #5C798B",
">!	c #6E8A96",
",!	c #6D8995",
"'!	c #657F8C",
")!	c #708C9A",
"!!	c #78939C",
"~!	c #678698",
"{!	c #5F8393",
"]!	c #5A7A85",
"^!	c #877571",
"/!	c #71858C",
"(!	c #567C89",
"_!	c #638793",
":!	c #5C818A",
"<!	c #587980",
"[!	c #607C7F",
"}!	c #5D7A75",
"|!	c #887767",
"1!	c #D0A795",
"2!	c #C9A693",
"3!	c #C89F99",
"4!	c #3D6074",
"5!	c #537284",
"6!	c #6C8894",
"7!	c #7A94A1",
"8!	c #6D8A98",
"9!	c #5C7A82",
"0!	c #927A76",
"a!	c #697C83",
"b!	c #4E707C",
"c!	c #507585",
"d!	c #567B8B",
"e!	c #658793",
"f!	c #5E808A",
"g!	c #53757E",
"h!	c #607E80",
"i!	c #9D8C7A",
"j!	c #CBAAA3",
"k!	c #40647C",
"l!	c #648395",
"m!	c #76909D",
"n!	c #5B788A",
"o!	c #608494",
"p!	c #597B87",
"q!	c #567884",
"r!	c #72696A",
"s!	c #66777F",
"t!	c #60828C",
"u!	c #55767F",
"v!	c #54767F",
"w!	c #5E7C7C",
"x!	c #5F7A75",
"y!	c #A99886",
"z!	c #C7AAA2",
"A!	c #416478",
"B!	c #6B8898",
"C!	c #5A7785",
"D!	c #557689",
"E!	c #958B82",
"F!	c #617377",
"G!	c #688A96",
"H!	c #628490",
"I!	c #597B85",
"J!	c #618289",
"K!	c #667F79",
"L!	c #AB9683",
"M!	c #CAA392",
"N!	c #BEAAA1",
"O!	c #3F6477",
"P!	c #5F7C8C",
"Q!	c #5E7D91",
"R!	c #638294",
"S!	c #587A83",
"T!	c #50717A",
"U!	c #5F6563",
"V!	c #62848E",
"W!	c #63858F",
"X!	c #57757D",
"Y!	c #597576",
"Z!	c #657F76",
"`!	c #D2AB9A",
" ~	c #C49F96",
".~	c #3B6073",
"+~	c #45687B",
"@~	c #648193",
"#~	c #6C8997",
"$~	c #577983",
"%~	c #516F79",
"&~	c #686A69",
"*~	c #CDA393",
"=~	c #CFAB9D",
"-~	c #6E8283",
";~	c #708C97",
">~	c #537785",
",~	c #628388",
"'~	c #5A7C7E",
")~	c #658385",
"!~	c #637A74",
"~~	c #BCA38F",
"{~	c #CBA69D",
"]~	c #45687C",
"^~	c #4E6F82",
"/~	c #507484",
"(~	c #4F6D77",
"_~	c #7D827E",
":~	c #6A8A95",
"<~	c #567681",
"[~	c #547682",
"}~	c #547680",
"|~	c #587883",
"1~	c #5B7B86",
"2~	c #62838C",
"3~	c #67888F",
"4~	c #5B787E",
"5~	c #678384",
"6~	c #64817F",
"7~	c #647B73",
"8~	c #C4A994",
"9~	c #3E6278",
"0~	c #4D7083",
"a~	c #4D6E81",
"b~	c #6E8B9B",
"c~	c #4B7083",
"d~	c #57787F",
"e~	c #757470",
"f~	c #69878F",
"g~	c #5D7B86",
"h~	c #668691",
"i~	c #668381",
"j~	c #617B78",
"k~	c #5F766E",
"l~	c #C3A792",
"m~	c #3C6577",
"n~	c #43687B",
"o~	c #72716C",
"p~	c #586D6E",
"q~	c #56747E",
"r~	c #708D95",
"s~	c #6B8584",
"t~	c #64817D",
"u~	c #667D75",
"v~	c #B5927E",
"w~	c #C9A492",
"x~	c #CFAB9F",
"y~	c #3A6073",
"z~	c #57768A",
"A~	c #5A798D",
"B~	c #4D6E7F",
"C~	c #4B6E82",
"D~	c #7B7A75",
"E~	c #697B7D",
"F~	c #52707A",
"G~	c #55737D",
"H~	c #5E7F88",
"I~	c #728E92",
"J~	c #708A8B",
"K~	c #65838B",
"L~	c #63818B",
"M~	c #577881",
"N~	c #5B7778",
"O~	c #6D8683",
"P~	c #617D7E",
"Q~	c #647B71",
"R~	c #BF9E8B",
"S~	c #395E71",
"T~	c #5D7C90",
"U~	c #607F93",
"V~	c #517689",
"W~	c #5B7B90",
"X~	c #5B7478",
"Y~	c #647678",
"Z~	c #658489",
"`~	c #597781",
" {	c #53717B",
".{	c #4C6971",
"+{	c #758A8D",
"@{	c #768B8C",
"#{	c #869290",
"${	c #4D6E77",
"%{	c #738889",
"&{	c #627B78",
"*{	c #86938C",
"={	c #C6A18E",
"-{	c #385E71",
";{	c #5D8294",
">{	c #5D797C",
",{	c #71706B",
"'{	c #CBA799",
"){	c #6C7B80",
"!{	c #54757E",
"~{	c #5E7D82",
"{{	c #648083",
"]{	c #799191",
"^{	c #6B7E82",
"/{	c #939796",
"({	c #7A8E8F",
"_{	c #54747F",
":{	c #667E80",
"<{	c #6F8280",
"[{	c #637C79",
"}{	c #697A72",
"|{	c #BD9886",
"1{	c #43667A",
"2{	c #4F7083",
"3{	c #527287",
"4{	c #56768B",
"5{	c #527185",
"6{	c #58757B",
"7{	c #948D85",
"8{	c #50656A",
"9{	c #52757B",
"0{	c #59777F",
"a{	c #6D8A8E",
"b{	c #5B7A7F",
"c{	c #597578",
"d{	c #6D8788",
"e{	c #506E78",
"f{	c #6D817F",
"g{	c #85908A",
"h{	c #7B8C86",
"i{	c #6E7E74",
"j{	c #988670",
"k{	c #CFAC98",
"l{	c #C6A097",
"m{	c #466577",
"n{	c #4E6F80",
"o{	c #50707F",
"p{	c #4C6F83",
"q{	c #4F6E80",
"r{	c #5A7787",
"s{	c #516E7E",
"t{	c #53747B",
"u{	c #486573",
"v{	c #5E7A88",
"w{	c #5F787D",
"x{	c #576F6F",
"y{	c #8E766A",
"z{	c #626E6C",
"A{	c #848985",
"B{	c #5C6F69",
"C{	c #576C67",
"D{	c #5E7270",
"E{	c #667570",
"F{	c #57665F",
"G{	c #697E79",
"H{	c #667173",
"I{	c #556469",
"J{	c #818A89",
"K{	c #868686",
"L{	c #6B7576",
"M{	c #77807B",
"N{	c #646F6B",
"O{	c #6E756D",
"P{	c #85897B",
"Q{	c #787C6D",
"R{	c #788478",
"S{	c #909787",
"T{	c #A19C89",
"U{	c #A7A493",
"V{	c #969B85",
"W{	c #A8AA94",
"X{	c #A2A391",
"Y{	c #979682",
"Z{	c #B99E8B",
"`{	c #B49E90",
" ]	c #B4A495",
".]	c #B3A696",
"+]	c #B3A292",
"@]	c #AEA292",
"#]	c #B89D94",
"$]	c #BC9E94",
"%]	c #BF9F92",
"&]	c #C4A298",
"*]	c #C2A094",
"=]	c #C6A498",
"-]	c #CBA399",
";]	c #C7A194",
">]	c #C8A494",
",]	c #C9A595",
"']	c #CFA599",
")]	c #CFA39A",
"!]	c #CFA398",
"~]	c #D2AD9D",
"  . + @ # . $ % & . * = - - * + * = ; > ; * & > ; * * , , ; ' ) ! ~ ! { ] ; { ^ . ; . ; ] / ( ] _ : _ < ; ; - _ [ _ - _ ' } } } ",
"  . / / | 1   2   - - > - - . > = = * - = 3 4 5 5 6 7 8 9 ' ' } ' , 8 } - 0 ; a b c 0 : _ d : ] e f ] 0 0 g 0 < < - 8 h ' 9 } ' ",
"@ 4 i j k & l m # # n o o k p q r + o s t % u v $ w & x y 7 z ' A _ A B ' 8 < A A C _ w 8 = = D ( 0 E F z G H I J h B ! K } L M ",
"N O P Q R S T U V W X Y Z `  ...+.+.@.#.$.%.&.*.=.-.;.>.,.'.).b ! !.~.{.].^./.(._.:.<.[.}.:.|.1.2.3.4.5.6.7.8.9.0.a.b.c.d.e.( ! ",
"p f.g.h.i.j.k.l.m.n.o.p.q.r.s.t.u.v.w.x.y.z.A.B.C.D.E.F.G.H.8 b b I.J.K.L.M.N.O.P.Q.R.S.T.U.V.W.X.U.Y.Z.`. +.+++@+#+$+%+&+A ~ G ",
"*+=+-+;+>+,+'+)+!+o.~+{+]+^+/+(+_+:+<+[+v.}+|+1+2+3+E.4+5+6+$ _ ! 7+8+9+0+a+b+c+d+e+f+g+h+i+j+k+l+m+n+o+p+q+r+s+t+u+v+w+x+6 ' y+",
"z+A+B+A.C+D+E+~+F+G+H+_+)+I+J+K+_+:+L+M+N+O+P+Q+}+R+S+T+U+V+W+0 ! X+Y+Z+`+ @.@+@@@#@$@%@&@*@=@-@;@>@,@'@)@!@~@{@]@^@/@Y.(@) M 1 ",
"_@:@<@[@]+D+}@|@1@2@3@4@5@2@6@7@~+8@9@0@}@>+a@b@}+c@d@e@f@g@h@- a i@j@k@l@m@n@o@p@q@r@4+s@t@u@v@w@x@y@z@A@B@C@D@E@F@G@H@I@h J@K@",
"L@M@N@B+O@P@8@Q@F+R@S@9@T@U@7@7@K+K+9@V@V@W@X@}+Y@Z@`@ #.#+#@#- + ##$#%#&#*#=#-#;#>#,#'#)#!#k+p@~#{#q+]#^#A./#E@(#_#:#<#[#@#G _@",
"}#|#1#2#3#O@R@4#2@5#{+6#7#8#9#0#a#F+b#c#d#e#f#f#g#h#i#j#k#l#m#* n#o#p#q#r#s#*@t#u#u@v#w#x#y#z#d@A#x@B#C#D#E#F#G#H#B#I#J#K#, L#M#",
"N#O#P#Q#R#S#T#b#G+U@6#U#V#7#W#X#7@Y#Q@Z#`# $W@.$f#+$@$#$$$%$&$= @ *$=$q#-$;$k@>$,$'$e+,$)$!$~${$]$^$/$)@($_$:$<$[$}$|$1$2$A C 3$",
"4$5$6$7$}@8$T#9$5#0$7#R@a$Z#6@b$c$d$T#V@`#e$f$g$h$i$j$k$l$m$7 * i n$o$p$q$r$s$t$u$v$w$x$y$z$A${#B$y#C$F@D$E$F$S+G$D#'@H$I$6 b J$",
"# K$0@L$8$u.K+U#c$9#M$b$N$O$c$O$d$P$O$Q$T#R$S$T$U$V$W$X$Y$Z$= * `$ %.%+%@%q##%$%%%&%x$*%w$D$=%(#-%(#;%>%,%C.D.F#'%)%!%~%{%J G ]%",
"^%/%[+(%}@_%~+a#6@:%S@<%[%6@9#[%O$c$}%5#|%1%K+2%3%e#W$4%.@5%o b @ 6%C.7%q#8%9%Q+0%a%a%b%a%c%d%e%f%[@g%h%i%j%;%k%B.l%$#m%n%z * o%",
"p%q%r%s%4@n.T#Y#b$c$[%6@t%}%9#}%u%v%w%Y#6@x%9@L+S#y%+$z%Z+A%  ! @ B%_#C%D%B#E%i%F%G%a%H%a%I%J%i%K%g%L%M%i%j%<$N%B.O%P%Q%R%, ! S%",
"T%U%V%}@4@J+{+6#O$c$b$c$:%}%b$W%X%w%w%9#Y%8@8@Z%]+`% &.&+&@&$ D #&$&%&&&*&~@=&%%-&i%i%;&>&,&'&X@)&M%!&F%i.R+`%O%~&w$4%{&]&! ^&/&",
"p (&1#_&:&:&<&X#[&_+T#9@}&|&}&u%X%1&2&3&4&2@5&9@d#6&O@}+7&8&p%* * 9&0&}$Y@a&b&2+c&Y@}+6&Q#d&e&b&f&=&g&A.0%c@;+;%($w${#h&i&! 7 j&",
"k&l&m&n&o&p&<&K+q&I+6#r&s&t%t&c$4&w%u%u&3&U@a#v&w&O@3%g& +x&v u 3 y&z&=&A&F%M%;&B&B&C&D&E&F&G&B+2+H&}+i%A.`%I&`%^#J&K&L&M&, N&O&",
"P&Q&R&e#S&3#T&u.6#L+7#U&7#V&W&w%X&v%Y&Z&4&c$6@G+Q$U$`& *z&.*w * 3 +*@*'%#*i.$*%*&***B&=*-*s%e&Q#;*>*,*=&[@'*^#g%)*/@!*~*{*$ ]*^*",
"*+/*(*_*:*<*[*o.7#6#Q$c$8@u%}*|*1*v%Z&v%u&[%6@O$6#d#:&b&e%2*= * 3 3*|$4*5*[@6*7*8*9*0*L$a*b*c*D&O%a%d*e*f*)*,%,*D#g*h*i*j*h 6 k*",
"z+}#l*m*g#]+S#_%n*U#8@6@6#u%:%o*o*1&p*w%2&q*6@[%9#V@`#U$;%r** * O&s*t*b&u*P+=&v*w*0*x*y*z*6$L$C&8%~&A*B*B.C*D*-+E*F*G*H*I*F N&@ ",
"& /*J*a@W@_&K*4@L*_%4#I+6#1&N$M*Z&w%1&1&X%c$N*}%5&V@E+O*O%P*Q*7 @ R*S*T*U*8*V*a&W*X*Y*G&d&Z*=*$%D*`*s$ =9%.=+=@=(#B#@+#=$=' G %=",
"&=*===$*-=P+;=d#>=,=V@S#'=)=<&2&4&u&9#7@0$5#!=Q@Q@:&S#~=h.{=]=6 + !%^=M%#*/=a&T*(=_=:=<=[=a*_=7*}=D#/@]#E*|=Z@~@1=B#2=H@3=A 7 4=",
"n 5=6=7=A*8=,+(%9=0=S#R#w&N*b$O$1&b$9#a#5#0$2@8@8@a=b=6&f*c=x 7 1 d=e=0%f=g=a&h=i=T*B&B&0*j=k=l=)%]@m=_#}=}$n=C.}=D#o=p=q=F r=s=",
"t=u=v='#w=!$~&>%x=s%e&F&y=7#~+T#2@a#G+5#2@z=A=-*3#B=C=g%&%D=B 8 E=F=G=H=h=H=I=4*J=K=L=_=M=/=k=_$F*N=C#O=]@F#D#,%C%,%P=Q=R=z C S=",
"& T=U=;#,&P%S+V=W=X=y%D+Y=c#b#L*~+9@a#2@2@L+L+Z=f$`=`=g&}$ -> * n#.-l=h%[@~@I=+-@-<$F%$%a&a&4*H=B##-C#$-(#%-%-(#&-$#*-=---' 8 ;-",
">-,-'-)-!-v=o+~-e*{-Y@]-C=`#8$^-4#:+Q$z=8$/-r%`=(-_->+($K&:-+ ! n#Y.@-<-[-}-[-|-1-2-3-4-5-i=l=6-e%7-[-q+Y+%-C%Y+8-C%9-0-a-h@8 b-",
". c-d-e-z#f-,$g-h-i-c@3#n&,=,=j-_%9$k-V@N+l-T$_-O+m-f#n-)@o-d * O&p-@=I=_$l=4*q-^@r-t*6-l=s-t-l=($u-/@w$v-8-w-x-y-$#z-A-B-C-8 D-",
"l E-F-G-=$H-I-J-K-L-f&T$M-N-`#4#0@O-_%/-P-f#>+Q-8%~&b%{#R-S-T-! * U-V-W-,%X-Y-Z-`-m=,%($O%J&-+)%'%,% ;.;+;Y+k@@;#;$;%;&;*;=;F -;",
"p%;;%$>;f-,;R*R+';);!;v$2+(*~;{;];^;/;U$L$a@(;_;-=,*i$:;<;[;};D 7 |;1;@=B.2;3;F#&%B#4;l*e%5;6;*%8-7&7;y@8;y-9;0;a;b;c;d;e;f;g P&",
"@ g;h;i;j;k;l;m;n;o;p;q;r;s;t;u;v;w;x;`+y;z;A;B;C;D;E;F;G;H;$ F u I;J;K;L;M;N;O;P;Q;R;S;T;U;V;W;X;Y;Z;`; >.>+>@>#>$>%>&>*>=>^&P&",
"> = @ p%z+| p%r u > = = , u m q d o 2 2 ->L@;>- @ b D , = A A ' ! 7 u 7 & o < D f c { _ >>* - ' 3 ' 8 u , } ' C-,>'>=>)>!>~>{>h ",
"> - > l . | j l > + .   & m | | ]>*+#&^>->j />`$/ 0 ; * , 6 ' ' A J 6 6 3 8 6 D ; E=>>(>(>_>(>9 _>:>* N&6 } F M J@=>)>9 9 <>^&z ",
"& > A r r [>j }>* | # & |>= p%1>r G 2>K@4 3 3>->  4 * $ m ' } A * t - % 4>% % |>| |>5 5 5>6>7>8>8>&=9>7>* 0>a>- b>c>q d>e>C ^&} ",
"f>g>h>i>j>k>l>m>n>@.o>p>q>r>s>t>u>v>w>x>y>z>A>B>C>D>E>F>G>H>e ) , I>J>K>L>M>N>O>P>Q>J&!%|=R>S>T>3;U=U>V>W>X>Y>3;Z>`> ,.,+,=>@,6 ",
"n #,$,$,G&%,2+&,R+O**,=,-,;,v&>,S@v&,,',),!,*,~,{,T*x*_=G*],_ ; ^,/,v=(,_&_,:,<,[,},|,_&1,<@2,3,4,5,Y*6,7,8,_=9,0,a,b,c,d,L e,f,",
"> g,h,i,j,V$a@Y@R+~=)+k,-,l,[*0#m,n,v&=,o,o,p,q,_%x*<*<@1=r,= ; - s,t,|+h,u.q,u,4#7#^-q.v,w,x,a*y,z,A,B,C,5,D,_=E,F,G,H,I,{><>J,",
"& K,<,6&6$L,F&s%s%(%)+_+M,[%l,d$N*v&o,<%N,o,o,)+Q@s%G&k.l=O,> ; u P,i+Q,N@j-q,Z#u,)+N@Z*R,S,T,U,V,W,X,B,&,Y,#*v*e%@+Z,`, '.'=>+'",
"l @'#'$'%'O-L$L$(%V@Z#8@<&o,S@&':%[*)+5@*'X#L*,,_%='w.F&-';'+ - . >','''_%v&S@)'=,_+M,M,!'p,p,~'{']'U,^'/'('_':'1-<'$;['}'_>f;|'",
"& 1'2'7$N,0=F&,=F&'+4#b#_+0#}%9#0#N$o,3'O$o,T&4'T#)+5'O-6'7'. - . 8'9's%<&X#0'M,0'T&v&S@a'~'b'b'c'd'e'f'[,{'D,8,g'G#h'i'j'J@k'O&",
"|>l'm'c*n'o'(%,=(%;=u,~+,,[*t&}%N*9#}%p'S@0')'q'X#x%n'r's't'; - * u'v'b*0'M,(+T&S@p'X#o,v&p,~'w'c'c'd']'x'U,$'D&I=y'z'A'B'=;, C'",
"D'E'F'O-s%,=K*`&S#}@0@~+8@[%t&}%9#:%9#[*t&v&v&H+~'N,p.r'G'H'; ; >-I'_=J'c#T&K'L'M'p'X#l,^+N'p,w'^']'V,O'P'z,~=d&g&Q'b;R'S'T'= U'",
"E-V'l./-L$0=`&}@`#,=`&9@{+1@W'}%9#[*[*:%N*o,X#v&0'N,N,X'Y'Z'; - i `'(*-*v&X# ).)(+q&+)~'4'a'),N'@)b'U,W,#)]'$)N@g=)%9;%)&)8 *)=)",
">--)a*P@;)>)S&S&/->),)')))>=n.}@,,9#d$6@N*X#p'!),,^-5'L,~){)- ; & ])^)R,o,H+/)()()_)X#p,a'p,:)@)N'c'f'^'^'f'q.N@[=<)[)})|)^&M 1)",
"z+2)3)4)3#F&C+5)O@U$s%6)e$7)J+c#n*t&N*}%N*0'p'!)Q@S,8)d&9)0)! ; > a)`&8) )H+b)c)_)/)0'3'b'~'^+b'{'^'P'd)[,f'$)q.h,e)C@f)g)' h)i)",
"# j)k)Y@l)m)Z=n)o'N+P@m&3#o)p)Z=q)r)s)m,N$p'<&T#U#^-$)d&t)u)h - # v)~+e&<&X#',w)',/)x)y)x)z)~'N'W,[,d'd'P'O'q.q.A)B)C)D)E)' F)G)",
"j H)I)J)K)L)M)N)o'o)n&Q++$O)T$P)Q)R)S)N*T)<&U)4#7#V)8)O*z.W)B - . X)M,Y)M'T&w)Z)',!)<&<&+)`)~'4'U,f']'P' !.!$)T,~=8-+!@!#!; h)$!",
"^%%!&!*!5)e#=!-!;!>!:*f&,!'!)!!!C+~!<&p'l,X#{!U#4#J'S,]!t-^!- - p%/!(!N,p'v&w)(+w)w)w)w)o,0'0'f'T,]'P'P'_!]'p.{':!<![!}!|!6 1!2!",
"]>3!4!5!o'3%C=M)M+;)6&g#6!5)W@7!8!o,H+v&o,H+H+T#j-q.p.O*9!0!w w p%a!b!T#X#0'!)3@Z)c!(+d!d!L'4'O'O'P']']']'#)e!f!'&g!h!f)i!=>, ]>",
"$ j!k!l!Y=]+S&d#L*o'>!m!n!&'L+8@:%2&0#q'T&o,o!',b#p!p.q!%,r!> u n#s!Q,='^'q'o,M$<&0'M,),N'~'~'N'P'8)5'S,q.S,J't!u!v!w!x!y!f;W+&=",
"r z!A!B!S$C!]+8$J+o'-*>+D!1@A=Y#T#_)[%[%[*S@v&<%o,j-a*u,1,E!]=7 @ F!S,N@[,v&l,<&<%o!p,),N'!'w'+)G!v,H!5'S,w,I!a*J!Y'u+K!L!' h)M!",
"m N!O!|@U$P!S&o.n.`&V)M)2@Q!R!H+a#u&:%:%[%W'p'v&M,N,I!S!T!U!, u + u#w.p.q.N,4'),N'~'^'U,[,[,[,q.V!V!W!z*x,I!f!d&8,X!Y!Z!L!`!F)& ",
"|> ~.~/)+~r)@~n.r)1%E+#~R$V#b#b#2@6@6@0#6@N$0'p'0')+w.$~%~&~*~5 =~-~;~V%q,N,>~),w'@)w'4'[,T,T&W!t!w,w,y,z*z*d&Y*,~'~)~!~~~9 e,u ",
"% {~]~Z&^~r)r),,,,_+x%3#f$N$4@{+!+6@t&:%[%N*t&v&/~u,^-_%(~_~' 3 1 $@E&_=''L,:~<~t!t!t!q.7$o&[~N@a*}~|~]!<=1~2~3~4~5~6~7~8~9 J $ ",
"o N 9~|*0~K+a~5&5#~+1%P!b~c~{+Q$:%[%c$6@9#:%X#4'_%F&E&#*d~e~F , 3 r@Q#v*Y*2,&*2~o&D,(=$%f~b&g~7*2~s'h~2,E&$'Y*i,t*i~j~k~l~6 h)w ",
"o z+m~0#1*7@5#U&7@Q$l!/+4@n~6#a#N$9#t&9#o,N*8@T#0=L$D&_=B.o~x 0 O&p~q~Q#f!}~G's'2~1,~@$-'%N%4*r~f~v*0*5*D&D&2~f=`-s~t~u~v~e.k'w~",
"d x~y~z~1@A~J+8@9@b#8@}@B~C~8@G+}%}%}%N*p'0')+^-G&c*k.a@^#D~B A 3 E~F~G~a*1~U*w*t)H~f%I~}-[-J~l%K~v*u*L~&*&*t)M~N~O~P~Q~R~' *)]>",
"& _@S~:%D!T~U~8@b#8@9@'=T&V~0#W~a#/)M,6@X#W'o,,,|@K*A&c&X~e~7 , 1 Y~Z~2~H~`~i=3-h= {.{+{@{#{]$q+[@g&K~:=''4-${t)%{m%&{*{={) *)u ",
"& }#-{;{F+G+5#9@,,k,Q@S#,,W&T#b#F+D!o,o,N'S@q!x,m&f!V*u*>{,{u A '{){9!%,M~!{i=5-~{{{]{^{+*/{({B#g=9!L~X!O*W*_{M~:{<{[{}{|{} *)]>",
"$ /.1{R@2{^~1@)+K+~+a#1%N$3{F+a#2@4{o.L*o,5{8$m&w*D&;&i,6{7{! A p 8{F$9{0{i,a{e%^@b{C.c{L.A-3;d{w!`-F#a{e{>{.+C)f{g{h{i{j{k{f;]=",
"& l{m{L*V#n{u./+l.o{M+>=a~p{q{U$r{s{t{u{v{x.(;C@{{w{4;#-x{y{f;F   z{A{B{C{D{E{F{G{H{z;I{J{K{L{M{N{O{P{Q{R{S{T{U{V{W{X{Y{Z{' ^&% ",
"l c-`{ ] ].]+]@]#]$]Q&%]&]&]*]*==]1)-]4$>-E-;]>],]+'w | w r ' ' 0 7 7 8 A A h 6 ; ; 0 0 w 4 w w M J 6 J &$^&J &$J &$J J =>=>=>^&",
"> 2 ']f>)]!]']n & | # &     = + i / = + + * r 4 = * 7 * 6 * ' ' 0 ; 0 h ' ! 0 ' ~]b 8 0 0 ' 6 ' F)M <>M =>f;^&^&f;J f;f;^&=>=>=>",
"  . . @ @ @ @ | | r > > - - - - & = r & & = * = = @ = r $ ' , A b } 8 b ~ 6 6 6 A ' 6 9 J@' f;=>^&J@, J =>'>M =>^&^&^&M f;'>f;A "};
